P3
200 200
255
0 0 0 0 0 0 0 0 0 0 0 0 0 0 0 0 0 0 0 0 0 0 0 0 0 0 0 0 0 0 0 0 0 0 0 0 0 0 0 0 0 0 0 0 0 0 0 0 0 0 0 0 0 0 0 0 0 0 0 0 0 0 0 0 0 0 0 0 0 0 0 0 0 0 0 0 0 0 0 0 0 0 0 0 0 0 0 0 0 0 0 0 0 0 0 0 0 0 0 0 0 0 0 0 0 0 0 0 0 0 0 0 0 0 0 0 0 0 0 0 0 0 0 0 0 0 0 0 0 0 0 0 0 0 0 0 0 0 0 0 0 0 0 0 0 0 0 0 0 0 0 0 0 0 0 0 0 0 0 0 0 0 0 0 0 0 0 0 0 0 0 0 0 0 0 0 0 0 0 0 0 0 0 0 0 0 0 0 0 0 0 0 0 0 0 0 0 0 0 0 
0 94 188 27 121 215 54 148 242 81 175 14 108 202 41 135 229 68 162 1 95 189 28 122 216 55 149 243 82 176 15 109 203 42 136 230 69 163 2 96 190 29 123 217 56 150 244 83 177 16 110 204 43 137 231 70 164 3 97 191 30 124 218 57 151 245 84 178 17 111 205 44 138 232 71 165 4 98 192 31 125 219 58 152 246 85 179 18 112 206 45 139 233 72 166 5 99 193 32 126 220 59 153 247 86 180 19 113 207 46 140 234 73 167 6 100 194 33 127 221 60 154 248 87 181 20 114 208 47 141 235 74 168 7 101 195 34 128 222 61 155 249 88 182 21 115 209 48 142 236 75 169 8 102 196 35 129 223 62 156 250 89 183 22 116 210 49 143 237 76 170 9 103 197 36 130 224 63 157 251 90 184 23 117 211 50 144 238 77 171 10 104 198 37 131 225 64 158 252 91 
0 188 121 54 242 175 108 41 229 162 95 28 216 149 82 15 203 136 69 2 190 123 56 244 177 110 43 231 164 97 30 218 151 84 17 205 138 71 4 192 125 58 246 179 112 45 233 166 99 32 220 153 86 19 207 140 73 6 194 127 60 248 181 114 47 235 168 101 34 222 155 88 21 209 142 75 8 196 129 62 250 183 116 49 237 170 103 36 224 157 90 23 211 144 77 10 198 131 64 252 185 118 51 239 172 105 38 226 159 92 25 213 146 79 12 200 133 66 254 187 120 53 241 174 107 40 228 161 94 27 215 148 81 14 202 135 68 1 189 122 55 243 176 109 42 230 163 96 29 217 150 83 16 204 137 70 3 191 124 57 245 178 111 44 232 165 98 31 219 152 85 18 206 139 72 5 193 126 59 247 180 113 46 234 167 100 33 221 154 87 20 208 141 74 7 195 128 61 249 182 
0 27 54 81 108 135 162 189 216 243 15 42 69 96 123 150 177 204 231 3 30 57 84 111 138 165 192 219 246 18 45 72 99 126 153 180 207 234 6 33 60 87 114 141 168 195 222 249 21 48 75 102 129 156 183 210 237 9 36 63 90 117 144 171 198 225 252 24 51 78 105 132 159 186 213 240 12 39 66 93 120 147 174 201 228 0 27 54 81 108 135 162 189 216 243 15 42 69 96 123 150 177 204 231 3 30 57 84 111 138 165 192 219 246 18 45 72 99 126 153 180 207 234 6 33 60 87 114 141 168 195 222 249 21 48 75 102 129 156 183 210 237 9 36 63 90 117 144 171 198 225 252 24 51 78 105 132 159 186 213 240 12 39 66 93 120 147 174 201 228 0 27 54 81 108 135 162 189 216 243 15 42 69 96 123 150 177 204 231 3 30 57 84 111 138 165 192 219 246 18 
0 121 242 108 229 95 216 82 203 69 190 56 177 43 164 30 151 17 138 4 125 246 112 233 99 220 86 207 73 194 60 181 47 168 34 155 21 142 8 129 250 116 237 103 224 90 211 77 198 64 185 51 172 38 159 25 146 12 133 254 120 241 107 228 94 215 81 202 68 189 55 176 42 163 29 150 16 137 3 124 245 111 232 98 219 85 206 72 193 59 180 46 167 33 154 20 141 7 128 249 115 236 102 223 89 210 76 197 63 184 50 171 37 158 24 145 11 132 253 119 240 106 227 93 214 80 201 67 188 54 175 41 162 28 149 15 136 2 123 244 110 231 97 218 84 205 71 192 58 179 45 166 32 153 19 140 6 127 248 114 235 101 222 88 209 75 196 62 183 49 170 36 157 23 144 10 131 252 118 239 105 226 92 213 79 200 66 187 53 174 40 161 27 148 14 135 1 122 243 109 
0 215 175 135 95 55 15 230 190 150 110 70 30 245 205 165 125 85 45 5 220 180 140 100 60 20 235 195 155 115 75 35 250 210 170 130 90 50 10 225 185 145 105 65 25 240 200 160 120 80 40 0 215 175 135 95 55 15 230 190 150 110 70 30 245 205 165 125 85 45 5 220 180 140 100 60 20 235 195 155 115 75 35 250 210 170 130 90 50 10 225 185 145 105 65 25 240 200 160 120 80 40 0 215 175 135 95 55 15 230 190 150 110 70 30 245 205 165 125 85 45 5 220 180 140 100 60 20 235 195 155 115 75 35 250 210 170 130 90 50 10 225 185 145 105 65 25 240 200 160 120 80 40 0 215 175 135 95 55 15 230 190 150 110 70 30 245 205 165 125 85 45 5 220 180 140 100 60 20 235 195 155 115 75 35 250 210 170 130 90 50 10 225 185 145 105 65 25 240 200 
0 54 108 162 216 15 69 123 177 231 30 84 138 192 246 45 99 153 207 6 60 114 168 222 21 75 129 183 237 36 90 144 198 252 51 105 159 213 12 66 120 174 228 27 81 135 189 243 42 96 150 204 3 57 111 165 219 18 72 126 180 234 33 87 141 195 249 48 102 156 210 9 63 117 171 225 24 78 132 186 240 39 93 147 201 0 54 108 162 216 15 69 123 177 231 30 84 138 192 246 45 99 153 207 6 60 114 168 222 21 75 129 183 237 36 90 144 198 252 51 105 159 213 12 66 120 174 228 27 81 135 189 243 42 96 150 204 3 57 111 165 219 18 72 126 180 234 33 87 141 195 249 48 102 156 210 9 63 117 171 225 24 78 132 186 240 39 93 147 201 0 54 108 162 216 15 69 123 177 231 30 84 138 192 246 45 99 153 207 6 60 114 168 222 21 75 129 183 237 36 
0 148 41 189 82 230 123 16 164 57 205 98 246 139 32 180 73 221 114 7 155 48 196 89 237 130 23 171 64 212 105 253 146 39 187 80 228 121 14 162 55 203 96 244 137 30 178 71 219 112 5 153 46 194 87 235 128 21 169 62 210 103 251 144 37 185 78 226 119 12 160 53 201 94 242 135 28 176 69 217 110 3 151 44 192 85 233 126 19 167 60 208 101 249 142 35 183 76 224 117 10 158 51 199 92 240 133 26 174 67 215 108 1 149 42 190 83 231 124 17 165 58 206 99 247 140 33 181 74 222 115 8 156 49 197 90 238 131 24 172 65 213 106 254 147 40 188 81 229 122 15 163 56 204 97 245 138 31 179 72 220 113 6 154 47 195 88 236 129 22 170 63 211 104 252 145 38 186 79 227 120 13 161 54 202 95 243 136 29 177 70 218 111 4 152 45 193 86 234 127 
0 242 229 216 203 190 177 164 151 138 125 112 99 86 73 60 47 34 21 8 250 237 224 211 198 185 172 159 146 133 120 107 94 81 68 55 42 29 16 3 245 232 219 206 193 180 167 154 141 128 115 102 89 76 63 50 37 24 11 253 240 227 214 201 188 175 162 149 136 123 110 97 84 71 58 45 32 19 6 248 235 222 209 196 183 170 157 144 131 118 105 92 79 66 53 40 27 14 1 243 230 217 204 191 178 165 152 139 126 113 100 87 74 61 48 35 22 9 251 238 225 212 199 186 173 160 147 134 121 108 95 82 69 56 43 30 17 4 246 233 220 207 194 181 168 155 142 129 116 103 90 77 64 51 38 25 12 254 241 228 215 202 189 176 163 150 137 124 111 98 85 72 59 46 33 20 7 249 236 223 210 197 184 171 158 145 132 119 106 93 80 67 54 41 28 15 2 244 231 218 
0 81 162 243 69 150 231 57 138 219 45 126 207 33 114 195 21 102 183 9 90 171 252 78 159 240 66 147 228 54 135 216 42 123 204 30 111 192 18 99 180 6 87 168 249 75 156 237 63 144 225 51 132 213 39 120 201 27 108 189 15 96 177 3 84 165 246 72 153 234 60 141 222 48 129 210 36 117 198 24 105 186 12 93 174 0 81 162 243 69 150 231 57 138 219 45 126 207 33 114 195 21 102 183 9 90 171 252 78 159 240 66 147 228 54 135 216 42 123 204 30 111 192 18 99 180 6 87 168 249 75 156 237 63 144 225 51 132 213 39 120 201 27 108 189 15 96 177 3 84 165 246 72 153 234 60 141 222 48 129 210 36 117 198 24 105 186 12 93 174 0 81 162 243 69 150 231 57 138 219 45 126 207 33 114 195 21 102 183 9 90 171 252 78 159 240 66 147 228 54 
0 175 95 15 190 110 30 205 125 45 220 140 60 235 155 75 250 170 90 10 185 105 25 200 120 40 215 135 55 230 150 70 245 165 85 5 180 100 20 195 115 35 210 130 50 225 145 65 240 160 80 0 175 95 15 190 110 30 205 125 45 220 140 60 235 155 75 250 170 90 10 185 105 25 200 120 40 215 135 55 230 150 70 245 165 85 5 180 100 20 195 115 35 210 130 50 225 145 65 240 160 80 0 175 95 15 190 110 30 205 125 45 220 140 60 235 155 75 250 170 90 10 185 105 25 200 120 40 215 135 55 230 150 70 245 165 85 5 180 100 20 195 115 35 210 130 50 225 145 65 240 160 80 0 175 95 15 190 110 30 205 125 45 220 140 60 235 155 75 250 170 90 10 185 105 25 200 120 40 215 135 55 230 150 70 245 165 85 5 180 100 20 195 115 35 210 130 50 225 145 
0 14 28 42 56 70 84 98 112 126 140 154 168 182 196 210 224 238 252 11 25 39 53 67 81 95 109 123 137 151 165 179 193 207 221 235 249 8 22 36 50 64 78 92 106 120 134 148 162 176 190 204 218 232 246 5 19 33 47 61 75 89 103 117 131 145 159 173 187 201 215 229 243 2 16 30 44 58 72 86 100 114 128 142 156 170 184 198 212 226 240 254 13 27 41 55 69 83 97 111 125 139 153 167 181 195 209 223 237 251 10 24 38 52 66 80 94 108 122 136 150 164 178 192 206 220 234 248 7 21 35 49 63 77 91 105 119 133 147 161 175 189 203 217 231 245 4 18 32 46 60 74 88 102 116 130 144 158 172 186 200 214 228 242 1 15 29 43 57 71 85 99 113 127 141 155 169 183 197 211 225 239 253 12 26 40 54 68 82 96 110 124 138 152 166 180 194 208 222 236 
0 108 216 69 177 30 138 246 99 207 60 168 21 129 237 90 198 51 159 12 120 228 81 189 42 150 3 111 219 72 180 33 141 249 102 210 63 171 24 132 240 93 201 54 162 15 123 231 84 192 45 153 6 114 222 75 183 36 144 252 105 213 66 174 27 135 243 96 204 57 165 18 126 234 87 195 48 156 9 117 225 78 186 39 147 0 108 216 69 177 30 138 246 99 207 60 168 21 129 237 90 198 51 159 12 120 228 81 189 42 150 3 111 219 72 180 33 141 249 102 210 63 171 24 132 240 93 201 54 162 15 123 231 84 192 45 153 6 114 222 75 183 36 144 252 105 213 66 174 27 135 243 96 204 57 165 18 126 234 87 195 48 156 9 117 225 78 186 39 147 0 108 216 69 177 30 138 246 99 207 60 168 21 129 237 90 198 51 159 12 120 228 81 189 42 150 3 111 219 72 
0 202 149 96 43 245 192 139 86 33 235 182 129 76 23 225 172 119 66 13 215 162 109 56 3 205 152 99 46 248 195 142 89 36 238 185 132 79 26 228 175 122 69 16 218 165 112 59 6 208 155 102 49 251 198 145 92 39 241 188 135 82 29 231 178 125 72 19 221 168 115 62 9 211 158 105 52 254 201 148 95 42 244 191 138 85 32 234 181 128 75 22 224 171 118 65 12 214 161 108 55 2 204 151 98 45 247 194 141 88 35 237 184 131 78 25 227 174 121 68 15 217 164 111 58 5 207 154 101 48 250 197 144 91 38 240 187 134 81 28 230 177 124 71 18 220 167 114 61 8 210 157 104 51 253 200 147 94 41 243 190 137 84 31 233 180 127 74 21 223 170 117 64 11 213 160 107 54 1 203 150 97 44 246 193 140 87 34 236 183 130 77 24 226 173 120 67 14 216 163 
0 41 82 123 164 205 246 32 73 114 155 196 237 23 64 105 146 187 228 14 55 96 137 178 219 5 46 87 128 169 210 251 37 78 119 160 201 242 28 69 110 151 192 233 19 60 101 142 183 224 10 51 92 133 174 215 1 42 83 124 165 206 247 33 74 115 156 197 238 24 65 106 147 188 229 15 56 97 138 179 220 6 47 88 129 170 211 252 38 79 120 161 202 243 29 70 111 152 193 234 20 61 102 143 184 225 11 52 93 134 175 216 2 43 84 125 166 207 248 34 75 116 157 198 239 25 66 107 148 189 230 16 57 98 139 180 221 7 48 89 130 171 212 253 39 80 121 162 203 244 30 71 112 153 194 235 21 62 103 144 185 226 12 53 94 135 176 217 3 44 85 126 167 208 249 35 76 117 158 199 240 26 67 108 149 190 231 17 58 99 140 181 222 8 49 90 131 172 213 254 
0 135 15 150 30 165 45 180 60 195 75 210 90 225 105 240 120 0 135 15 150 30 165 45 180 60 195 75 210 90 225 105 240 120 0 135 15 150 30 165 45 180 60 195 75 210 90 225 105 240 120 0 135 15 150 30 165 45 180 60 195 75 210 90 225 105 240 120 0 135 15 150 30 165 45 180 60 195 75 210 90 225 105 240 120 0 135 15 150 30 165 45 180 60 195 75 210 90 225 105 240 120 0 135 15 150 30 165 45 180 60 195 75 210 90 225 105 240 120 0 135 15 150 30 165 45 180 60 195 75 210 90 225 105 240 120 0 135 15 150 30 165 45 180 60 195 75 210 90 225 105 240 120 0 135 15 150 30 165 45 180 60 195 75 210 90 225 105 240 120 0 135 15 150 30 165 45 180 60 195 75 210 90 225 105 240 120 0 135 15 150 30 165 45 180 60 195 75 210 90 
0 229 203 177 151 125 99 73 47 21 250 224 198 172 146 120 94 68 42 16 245 219 193 167 141 115 89 63 37 11 240 214 188 162 136 110 84 58 32 6 235 209 183 157 131 105 79 53 27 1 230 204 178 152 126 100 74 48 22 251 225 199 173 147 121 95 69 43 17 246 220 194 168 142 116 90 64 38 12 241 215 189 163 137 111 85 59 33 7 236 210 184 158 132 106 80 54 28 2 231 205 179 153 127 101 75 49 23 252 226 200 174 148 122 96 70 44 18 247 221 195 169 143 117 91 65 39 13 242 216 190 164 138 112 86 60 34 8 237 211 185 159 133 107 81 55 29 3 232 206 180 154 128 102 76 50 24 253 227 201 175 149 123 97 71 45 19 248 222 196 170 144 118 92 66 40 14 243 217 191 165 139 113 87 61 35 9 238 212 186 160 134 108 82 56 30 4 233 207 181 
0 68 136 204 17 85 153 221 34 102 170 238 51 119 187 0 68 136 204 17 85 153 221 34 102 170 238 51 119 187 0 68 136 204 17 85 153 221 34 102 170 238 51 119 187 0 68 136 204 17 85 153 221 34 102 170 238 51 119 187 0 68 136 204 17 85 153 221 34 102 170 238 51 119 187 0 68 136 204 17 85 153 221 34 102 170 238 51 119 187 0 68 136 204 17 85 153 221 34 102 170 238 51 119 187 0 68 136 204 17 85 153 221 34 102 170 238 51 119 187 0 68 136 204 17 85 153 221 34 102 170 238 51 119 187 0 68 136 204 17 85 153 221 34 102 170 238 51 119 187 0 68 136 204 17 85 153 221 34 102 170 238 51 119 187 0 68 136 204 17 85 153 221 34 102 170 238 51 119 187 0 68 136 204 17 85 153 221 34 102 170 238 51 119 187 0 68 136 204 17 
0 162 69 231 138 45 207 114 21 183 90 252 159 66 228 135 42 204 111 18 180 87 249 156 63 225 132 39 201 108 15 177 84 246 153 60 222 129 36 198 105 12 174 81 243 150 57 219 126 33 195 102 9 171 78 240 147 54 216 123 30 192 99 6 168 75 237 144 51 213 120 27 189 96 3 165 72 234 141 48 210 117 24 186 93 0 162 69 231 138 45 207 114 21 183 90 252 159 66 228 135 42 204 111 18 180 87 249 156 63 225 132 39 201 108 15 177 84 246 153 60 222 129 36 198 105 12 174 81 243 150 57 219 126 33 195 102 9 171 78 240 147 54 216 123 30 192 99 6 168 75 237 144 51 213 120 27 189 96 3 165 72 234 141 48 210 117 24 186 93 0 162 69 231 138 45 207 114 21 183 90 252 159 66 228 135 42 204 111 18 180 87 249 156 63 225 132 39 201 108 
0 1 2 3 4 5 6 7 8 9 10 11 12 13 14 15 16 17 18 19 20 21 22 23 24 25 26 27 28 29 30 31 32 33 34 35 36 37 38 39 40 41 42 43 44 45 46 47 48 49 50 51 52 53 54 55 56 57 58 59 60 61 62 63 64 65 66 67 68 69 70 71 72 73 74 75 76 77 78 79 80 81 82 83 84 85 86 87 88 89 90 91 92 93 94 95 96 97 98 99 100 101 102 103 104 105 106 107 108 109 110 111 112 113 114 115 116 117 118 119 120 121 122 123 124 125 126 127 128 129 130 131 132 133 134 135 136 137 138 139 140 141 142 143 144 145 146 147 148 149 150 151 152 153 154 155 156 157 158 159 160 161 162 163 164 165 166 167 168 169 170 171 172 173 174 175 176 177 178 179 180 181 182 183 184 185 186 187 188 189 190 191 192 193 194 195 196 197 198 199 
0 95 190 30 125 220 60 155 250 90 185 25 120 215 55 150 245 85 180 20 115 210 50 145 240 80 175 15 110 205 45 140 235 75 170 10 105 200 40 135 230 70 165 5 100 195 35 130 225 65 160 0 95 190 30 125 220 60 155 250 90 185 25 120 215 55 150 245 85 180 20 115 210 50 145 240 80 175 15 110 205 45 140 235 75 170 10 105 200 40 135 230 70 165 5 100 195 35 130 225 65 160 0 95 190 30 125 220 60 155 250 90 185 25 120 215 55 150 245 85 180 20 115 210 50 145 240 80 175 15 110 205 45 140 235 75 170 10 105 200 40 135 230 70 165 5 100 195 35 130 225 65 160 0 95 190 30 125 220 60 155 250 90 185 25 120 215 55 150 245 85 180 20 115 210 50 145 240 80 175 15 110 205 45 140 235 75 170 10 105 200 40 135 230 70 165 5 100 195 35 
0 189 123 57 246 180 114 48 237 171 105 39 228 162 96 30 219 153 87 21 210 144 78 12 201 135 69 3 192 126 60 249 183 117 51 240 174 108 42 231 165 99 33 222 156 90 24 213 147 81 15 204 138 72 6 195 129 63 252 186 120 54 243 177 111 45 234 168 102 36 225 159 93 27 216 150 84 18 207 141 75 9 198 132 66 0 189 123 57 246 180 114 48 237 171 105 39 228 162 96 30 219 153 87 21 210 144 78 12 201 135 69 3 192 126 60 249 183 117 51 240 174 108 42 231 165 99 33 222 156 90 24 213 147 81 15 204 138 72 6 195 129 63 252 186 120 54 243 177 111 45 234 168 102 36 225 159 93 27 216 150 84 18 207 141 75 9 198 132 66 0 189 123 57 246 180 114 48 237 171 105 39 228 162 96 30 219 153 87 21 210 144 78 12 201 135 69 3 192 126 
0 28 56 84 112 140 168 196 224 252 25 53 81 109 137 165 193 221 249 22 50 78 106 134 162 190 218 246 19 47 75 103 131 159 187 215 243 16 44 72 100 128 156 184 212 240 13 41 69 97 125 153 181 209 237 10 38 66 94 122 150 178 206 234 7 35 63 91 119 147 175 203 231 4 32 60 88 116 144 172 200 228 1 29 57 85 113 141 169 197 225 253 26 54 82 110 138 166 194 222 250 23 51 79 107 135 163 191 219 247 20 48 76 104 132 160 188 216 244 17 45 73 101 129 157 185 213 241 14 42 70 98 126 154 182 210 238 11 39 67 95 123 151 179 207 235 8 36 64 92 120 148 176 204 232 5 33 61 89 117 145 173 201 229 2 30 58 86 114 142 170 198 226 254 27 55 83 111 139 167 195 223 251 24 52 80 108 136 164 192 220 248 21 49 77 105 133 161 189 217 
0 122 244 111 233 100 222 89 211 78 200 67 189 56 178 45 167 34 156 23 145 12 134 1 123 245 112 234 101 223 90 212 79 201 68 190 57 179 46 168 35 157 24 146 13 135 2 124 246 113 235 102 224 91 213 80 202 69 191 58 180 47 169 36 158 25 147 14 136 3 125 247 114 236 103 225 92 214 81 203 70 192 59 181 48 170 37 159 26 148 15 137 4 126 248 115 237 104 226 93 215 82 204 71 193 60 182 49 171 38 160 27 149 16 138 5 127 249 116 238 105 227 94 216 83 205 72 194 61 183 50 172 39 161 28 150 17 139 6 128 250 117 239 106 228 95 217 84 206 73 195 62 184 51 173 40 162 29 151 18 140 7 129 251 118 240 107 229 96 218 85 207 74 196 63 185 52 174 41 163 30 152 19 141 8 130 252 119 241 108 230 97 219 86 208 75 197 64 186 53 
0 216 177 138 99 60 21 237 198 159 120 81 42 3 219 180 141 102 63 24 240 201 162 123 84 45 6 222 183 144 105 66 27 243 204 165 126 87 48 9 225 186 147 108 69 30 246 207 168 129 90 51 12 228 189 150 111 72 33 249 210 171 132 93 54 15 231 192 153 114 75 36 252 213 174 135 96 57 18 234 195 156 117 78 39 0 216 177 138 99 60 21 237 198 159 120 81 42 3 219 180 141 102 63 24 240 201 162 123 84 45 6 222 183 144 105 66 27 243 204 165 126 87 48 9 225 186 147 108 69 30 246 207 168 129 90 51 12 228 189 150 111 72 33 249 210 171 132 93 54 15 231 192 153 114 75 36 252 213 174 135 96 57 18 234 195 156 117 78 39 0 216 177 138 99 60 21 237 198 159 120 81 42 3 219 180 141 102 63 24 240 201 162 123 84 45 6 222 183 144 
0 55 110 165 220 20 75 130 185 240 40 95 150 205 5 60 115 170 225 25 80 135 190 245 45 100 155 210 10 65 120 175 230 30 85 140 195 250 50 105 160 215 15 70 125 180 235 35 90 145 200 0 55 110 165 220 20 75 130 185 240 40 95 150 205 5 60 115 170 225 25 80 135 190 245 45 100 155 210 10 65 120 175 230 30 85 140 195 250 50 105 160 215 15 70 125 180 235 35 90 145 200 0 55 110 165 220 20 75 130 185 240 40 95 150 205 5 60 115 170 225 25 80 135 190 245 45 100 155 210 10 65 120 175 230 30 85 140 195 250 50 105 160 215 15 70 125 180 235 35 90 145 200 0 55 110 165 220 20 75 130 185 240 40 95 150 205 5 60 115 170 225 25 80 135 190 245 45 100 155 210 10 65 120 175 230 30 85 140 195 250 50 105 160 215 15 70 125 180 235 
0 149 43 192 86 235 129 23 172 66 215 109 3 152 46 195 89 238 132 26 175 69 218 112 6 155 49 198 92 241 135 29 178 72 221 115 9 158 52 201 95 244 138 32 181 75 224 118 12 161 55 204 98 247 141 35 184 78 227 121 15 164 58 207 101 250 144 38 187 81 230 124 18 167 61 210 104 253 147 41 190 84 233 127 21 170 64 213 107 1 150 44 193 87 236 130 24 173 67 216 110 4 153 47 196 90 239 133 27 176 70 219 113 7 156 50 199 93 242 136 30 179 73 222 116 10 159 53 202 96 245 139 33 182 76 225 119 13 162 56 205 99 248 142 36 185 79 228 122 16 165 59 208 102 251 145 39 188 82 231 125 19 168 62 211 105 254 148 42 191 85 234 128 22 171 65 214 108 2 151 45 194 88 237 131 25 174 68 217 111 5 154 48 197 91 240 134 28 177 71 
0 243 231 219 207 195 183 171 159 147 135 123 111 99 87 75 63 51 39 27 15 3 246 234 222 210 198 186 174 162 150 138 126 114 102 90 78 66 54 42 30 18 6 249 237 225 213 201 189 177 165 153 141 129 117 105 93 81 69 57 45 33 21 9 252 240 228 216 204 192 180 168 156 144 132 120 108 96 84 72 60 48 36 24 12 0 243 231 219 207 195 183 171 159 147 135 123 111 99 87 75 63 51 39 27 15 3 246 234 222 210 198 186 174 162 150 138 126 114 102 90 78 66 54 42 30 18 6 249 237 225 213 201 189 177 165 153 141 129 117 105 93 81 69 57 45 33 21 9 252 240 228 216 204 192 180 168 156 144 132 120 108 96 84 72 60 48 36 24 12 0 243 231 219 207 195 183 171 159 147 135 123 111 99 87 75 63 51 39 27 15 3 246 234 222 210 198 186 174 162 
0 82 164 246 73 155 237 64 146 228 55 137 219 46 128 210 37 119 201 28 110 192 19 101 183 10 92 174 1 83 165 247 74 156 238 65 147 229 56 138 220 47 129 211 38 120 202 29 111 193 20 102 184 11 93 175 2 84 166 248 75 157 239 66 148 230 57 139 221 48 130 212 39 121 203 30 112 194 21 103 185 12 94 176 3 85 167 249 76 158 240 67 149 231 58 140 222 49 131 213 40 122 204 31 113 195 22 104 186 13 95 177 4 86 168 250 77 159 241 68 150 232 59 141 223 50 132 214 41 123 205 32 114 196 23 105 187 14 96 178 5 87 169 251 78 160 242 69 151 233 60 142 224 51 133 215 42 124 206 33 115 197 24 106 188 15 97 179 6 88 170 252 79 161 243 70 152 234 61 143 225 52 134 216 43 125 207 34 116 198 25 107 189 16 98 180 7 89 171 253 
0 176 97 18 194 115 36 212 133 54 230 151 72 248 169 90 11 187 108 29 205 126 47 223 144 65 241 162 83 4 180 101 22 198 119 40 216 137 58 234 155 76 252 173 94 15 191 112 33 209 130 51 227 148 69 245 166 87 8 184 105 26 202 123 44 220 141 62 238 159 80 1 177 98 19 195 116 37 213 134 55 231 152 73 249 170 91 12 188 109 30 206 127 48 224 145 66 242 163 84 5 181 102 23 199 120 41 217 138 59 235 156 77 253 174 95 16 192 113 34 210 131 52 228 149 70 246 167 88 9 185 106 27 203 124 45 221 142 63 239 160 81 2 178 99 20 196 117 38 214 135 56 232 153 74 250 171 92 13 189 110 31 207 128 49 225 146 67 243 164 85 6 182 103 24 200 121 42 218 139 60 236 157 78 254 175 96 17 193 114 35 211 132 53 229 150 71 247 168 89 
0 15 30 45 60 75 90 105 120 135 150 165 180 195 210 225 240 0 15 30 45 60 75 90 105 120 135 150 165 180 195 210 225 240 0 15 30 45 60 75 90 105 120 135 150 165 180 195 210 225 240 0 15 30 45 60 75 90 105 120 135 150 165 180 195 210 225 240 0 15 30 45 60 75 90 105 120 135 150 165 180 195 210 225 240 0 15 30 45 60 75 90 105 120 135 150 165 180 195 210 225 240 0 15 30 45 60 75 90 105 120 135 150 165 180 195 210 225 240 0 15 30 45 60 75 90 105 120 135 150 165 180 195 210 225 240 0 15 30 45 60 75 90 105 120 135 150 165 180 195 210 225 240 0 15 30 45 60 75 90 105 120 135 150 165 180 195 210 225 240 0 15 30 45 60 75 90 105 120 135 150 165 180 195 210 225 240 0 15 30 45 60 75 90 105 120 135 150 165 180 
0 109 218 72 181 35 144 253 107 216 70 179 33 142 251 105 214 68 177 31 140 249 103 212 66 175 29 138 247 101 210 64 173 27 136 245 99 208 62 171 25 134 243 97 206 60 169 23 132 241 95 204 58 167 21 130 239 93 202 56 165 19 128 237 91 200 54 163 17 126 235 89 198 52 161 15 124 233 87 196 50 159 13 122 231 85 194 48 157 11 120 229 83 192 46 155 9 118 227 81 190 44 153 7 116 225 79 188 42 151 5 114 223 77 186 40 149 3 112 221 75 184 38 147 1 110 219 73 182 36 145 254 108 217 71 180 34 143 252 106 215 69 178 32 141 250 104 213 67 176 30 139 248 102 211 65 174 28 137 246 100 209 63 172 26 135 244 98 207 61 170 24 133 242 96 205 59 168 22 131 240 94 203 57 166 20 129 238 92 201 55 164 18 127 236 90 199 53 162 16 
0 203 151 99 47 250 198 146 94 42 245 193 141 89 37 240 188 136 84 32 235 183 131 79 27 230 178 126 74 22 225 173 121 69 17 220 168 116 64 12 215 163 111 59 7 210 158 106 54 2 205 153 101 49 252 200 148 96 44 247 195 143 91 39 242 190 138 86 34 237 185 133 81 29 232 180 128 76 24 227 175 123 71 19 222 170 118 66 14 217 165 113 61 9 212 160 108 56 4 207 155 103 51 254 202 150 98 46 249 197 145 93 41 244 192 140 88 36 239 187 135 83 31 234 182 130 78 26 229 177 125 73 21 224 172 120 68 16 219 167 115 63 11 214 162 110 58 6 209 157 105 53 1 204 152 100 48 251 199 147 95 43 246 194 142 90 38 241 189 137 85 33 236 184 132 80 28 231 179 127 75 23 226 174 122 70 18 221 169 117 65 13 216 164 112 60 8 211 159 107 
0 42 84 126 168 210 252 39 81 123 165 207 249 36 78 120 162 204 246 33 75 117 159 201 243 30 72 114 156 198 240 27 69 111 153 195 237 24 66 108 150 192 234 21 63 105 147 189 231 18 60 102 144 186 228 15 57 99 141 183 225 12 54 96 138 180 222 9 51 93 135 177 219 6 48 90 132 174 216 3 45 87 129 171 213 0 42 84 126 168 210 252 39 81 123 165 207 249 36 78 120 162 204 246 33 75 117 159 201 243 30 72 114 156 198 240 27 69 111 153 195 237 24 66 108 150 192 234 21 63 105 147 189 231 18 60 102 144 186 228 15 57 99 141 183 225 12 54 96 138 180 222 9 51 93 135 177 219 6 48 90 132 174 216 3 45 87 129 171 213 0 42 84 126 168 210 252 39 81 123 165 207 249 36 78 120 162 204 246 33 75 117 159 201 243 30 72 114 156 198 
0 136 17 153 34 170 51 187 68 204 85 221 102 238 119 0 136 17 153 34 170 51 187 68 204 85 221 102 238 119 0 136 17 153 34 170 51 187 68 204 85 221 102 238 119 0 136 17 153 34 170 51 187 68 204 85 221 102 238 119 0 136 17 153 34 170 51 187 68 204 85 221 102 238 119 0 136 17 153 34 170 51 187 68 204 85 221 102 238 119 0 136 17 153 34 170 51 187 68 204 85 221 102 238 119 0 136 17 153 34 170 51 187 68 204 85 221 102 238 119 0 136 17 153 34 170 51 187 68 204 85 221 102 238 119 0 136 17 153 34 170 51 187 68 204 85 221 102 238 119 0 136 17 153 34 170 51 187 68 204 85 221 102 238 119 0 136 17 153 34 170 51 187 68 204 85 221 102 238 119 0 136 17 153 34 170 51 187 68 204 85 221 102 238 119 0 136 17 153 34 
0 230 205 180 155 130 105 80 55 30 5 235 210 185 160 135 110 85 60 35 10 240 215 190 165 140 115 90 65 40 15 245 220 195 170 145 120 95 70 45 20 250 225 200 175 150 125 100 75 50 25 0 230 205 180 155 130 105 80 55 30 5 235 210 185 160 135 110 85 60 35 10 240 215 190 165 140 115 90 65 40 15 245 220 195 170 145 120 95 70 45 20 250 225 200 175 150 125 100 75 50 25 0 230 205 180 155 130 105 80 55 30 5 235 210 185 160 135 110 85 60 35 10 240 215 190 165 140 115 90 65 40 15 245 220 195 170 145 120 95 70 45 20 250 225 200 175 150 125 100 75 50 25 0 230 205 180 155 130 105 80 55 30 5 235 210 185 160 135 110 85 60 35 10 240 215 190 165 140 115 90 65 40 15 245 220 195 170 145 120 95 70 45 20 250 225 200 175 150 125 
0 69 138 207 21 90 159 228 42 111 180 249 63 132 201 15 84 153 222 36 105 174 243 57 126 195 9 78 147 216 30 99 168 237 51 120 189 3 72 141 210 24 93 162 231 45 114 183 252 66 135 204 18 87 156 225 39 108 177 246 60 129 198 12 81 150 219 33 102 171 240 54 123 192 6 75 144 213 27 96 165 234 48 117 186 0 69 138 207 21 90 159 228 42 111 180 249 63 132 201 15 84 153 222 36 105 174 243 57 126 195 9 78 147 216 30 99 168 237 51 120 189 3 72 141 210 24 93 162 231 45 114 183 252 66 135 204 18 87 156 225 39 108 177 246 60 129 198 12 81 150 219 33 102 171 240 54 123 192 6 75 144 213 27 96 165 234 48 117 186 0 69 138 207 21 90 159 228 42 111 180 249 63 132 201 15 84 153 222 36 105 174 243 57 126 195 9 78 147 216 
0 163 71 234 142 50 213 121 29 192 100 8 171 79 242 150 58 221 129 37 200 108 16 179 87 250 158 66 229 137 45 208 116 24 187 95 3 166 74 237 145 53 216 124 32 195 103 11 174 82 245 153 61 224 132 40 203 111 19 182 90 253 161 69 232 140 48 211 119 27 190 98 6 169 77 240 148 56 219 127 35 198 106 14 177 85 248 156 64 227 135 43 206 114 22 185 93 1 164 72 235 143 51 214 122 30 193 101 9 172 80 243 151 59 222 130 38 201 109 17 180 88 251 159 67 230 138 46 209 117 25 188 96 4 167 75 238 146 54 217 125 33 196 104 12 175 83 246 154 62 225 133 41 204 112 20 183 91 254 162 70 233 141 49 212 120 28 191 99 7 170 78 241 149 57 220 128 36 199 107 15 178 86 249 157 65 228 136 44 207 115 23 186 94 2 165 73 236 144 52 
0 2 4 6 8 10 12 14 16 18 20 22 24 26 28 30 32 34 36 38 40 42 44 46 48 50 52 54 56 58 60 62 64 66 68 70 72 74 76 78 80 82 84 86 88 90 92 94 96 98 100 102 104 106 108 110 112 114 116 118 120 122 124 126 128 130 132 134 136 138 140 142 144 146 148 150 152 154 156 158 160 162 164 166 168 170 172 174 176 178 180 182 184 186 188 190 192 194 196 198 200 202 204 206 208 210 212 214 216 218 220 222 224 226 228 230 232 234 236 238 240 242 244 246 248 250 252 254 1 3 5 7 9 11 13 15 17 19 21 23 25 27 29 31 33 35 37 39 41 43 45 47 49 51 53 55 57 59 61 63 65 67 69 71 73 75 77 79 81 83 85 87 89 91 93 95 97 99 101 103 105 107 109 111 113 115 117 119 121 123 125 127 129 131 133 135 137 139 141 143 
0 96 192 33 129 225 66 162 3 99 195 36 132 228 69 165 6 102 198 39 135 231 72 168 9 105 201 42 138 234 75 171 12 108 204 45 141 237 78 174 15 111 207 48 144 240 81 177 18 114 210 51 147 243 84 180 21 117 213 54 150 246 87 183 24 120 216 57 153 249 90 186 27 123 219 60 156 252 93 189 30 126 222 63 159 0 96 192 33 129 225 66 162 3 99 195 36 132 228 69 165 6 102 198 39 135 231 72 168 9 105 201 42 138 234 75 171 12 108 204 45 141 237 78 174 15 111 207 48 144 240 81 177 18 114 210 51 147 243 84 180 21 117 213 54 150 246 87 183 24 120 216 57 153 249 90 186 27 123 219 60 156 252 93 189 30 126 222 63 159 0 96 192 33 129 225 66 162 3 99 195 36 132 228 69 165 6 102 198 39 135 231 72 168 9 105 201 42 138 234 
0 190 125 60 250 185 120 55 245 180 115 50 240 175 110 45 235 170 105 40 230 165 100 35 225 160 95 30 220 155 90 25 215 150 85 20 210 145 80 15 205 140 75 10 200 135 70 5 195 130 65 0 190 125 60 250 185 120 55 245 180 115 50 240 175 110 45 235 170 105 40 230 165 100 35 225 160 95 30 220 155 90 25 215 150 85 20 210 145 80 15 205 140 75 10 200 135 70 5 195 130 65 0 190 125 60 250 185 120 55 245 180 115 50 240 175 110 45 235 170 105 40 230 165 100 35 225 160 95 30 220 155 90 25 215 150 85 20 210 145 80 15 205 140 75 10 200 135 70 5 195 130 65 0 190 125 60 250 185 120 55 245 180 115 50 240 175 110 45 235 170 105 40 230 165 100 35 225 160 95 30 220 155 90 25 215 150 85 20 210 145 80 15 205 140 75 10 200 135 70 
0 29 58 87 116 145 174 203 232 6 35 64 93 122 151 180 209 238 12 41 70 99 128 157 186 215 244 18 47 76 105 134 163 192 221 250 24 53 82 111 140 169 198 227 1 30 59 88 117 146 175 204 233 7 36 65 94 123 152 181 210 239 13 42 71 100 129 158 187 216 245 19 48 77 106 135 164 193 222 251 25 54 83 112 141 170 199 228 2 31 60 89 118 147 176 205 234 8 37 66 95 124 153 182 211 240 14 43 72 101 130 159 188 217 246 20 49 78 107 136 165 194 223 252 26 55 84 113 142 171 200 229 3 32 61 90 119 148 177 206 235 9 38 67 96 125 154 183 212 241 15 44 73 102 131 160 189 218 247 21 50 79 108 137 166 195 224 253 27 56 85 114 143 172 201 230 4 33 62 91 120 149 178 207 236 10 39 68 97 126 155 184 213 242 16 45 74 103 132 161 
0 123 246 114 237 105 228 96 219 87 210 78 201 69 192 60 183 51 174 42 165 33 156 24 147 15 138 6 129 252 120 243 111 234 102 225 93 216 84 207 75 198 66 189 57 180 48 171 39 162 30 153 21 144 12 135 3 126 249 117 240 108 231 99 222 90 213 81 204 72 195 63 186 54 177 45 168 36 159 27 150 18 141 9 132 0 123 246 114 237 105 228 96 219 87 210 78 201 69 192 60 183 51 174 42 165 33 156 24 147 15 138 6 129 252 120 243 111 234 102 225 93 216 84 207 75 198 66 189 57 180 48 171 39 162 30 153 21 144 12 135 3 126 249 117 240 108 231 99 222 90 213 81 204 72 195 63 186 54 177 45 168 36 159 27 150 18 141 9 132 0 123 246 114 237 105 228 96 219 87 210 78 201 69 192 60 183 51 174 42 165 33 156 24 147 15 138 6 129 252 
0 217 179 141 103 65 27 244 206 168 130 92 54 16 233 195 157 119 81 43 5 222 184 146 108 70 32 249 211 173 135 97 59 21 238 200 162 124 86 48 10 227 189 151 113 75 37 254 216 178 140 102 64 26 243 205 167 129 91 53 15 232 194 156 118 80 42 4 221 183 145 107 69 31 248 210 172 134 96 58 20 237 199 161 123 85 47 9 226 188 150 112 74 36 253 215 177 139 101 63 25 242 204 166 128 90 52 14 231 193 155 117 79 41 3 220 182 144 106 68 30 247 209 171 133 95 57 19 236 198 160 122 84 46 8 225 187 149 111 73 35 252 214 176 138 100 62 24 241 203 165 127 89 51 13 230 192 154 116 78 40 2 219 181 143 105 67 29 246 208 170 132 94 56 18 235 197 159 121 83 45 7 224 186 148 110 72 34 251 213 175 137 99 61 23 240 202 164 126 88 
0 56 112 168 224 25 81 137 193 249 50 106 162 218 19 75 131 187 243 44 100 156 212 13 69 125 181 237 38 94 150 206 7 63 119 175 231 32 88 144 200 1 57 113 169 225 26 82 138 194 250 51 107 163 219 20 76 132 188 244 45 101 157 213 14 70 126 182 238 39 95 151 207 8 64 120 176 232 33 89 145 201 2 58 114 170 226 27 83 139 195 251 52 108 164 220 21 77 133 189 245 46 102 158 214 15 71 127 183 239 40 96 152 208 9 65 121 177 233 34 90 146 202 3 59 115 171 227 28 84 140 196 252 53 109 165 221 22 78 134 190 246 47 103 159 215 16 72 128 184 240 41 97 153 209 10 66 122 178 234 35 91 147 203 4 60 116 172 228 29 85 141 197 253 54 110 166 222 23 79 135 191 247 48 104 160 216 17 73 129 185 241 42 98 154 210 11 67 123 179 
0 150 45 195 90 240 135 30 180 75 225 120 15 165 60 210 105 0 150 45 195 90 240 135 30 180 75 225 120 15 165 60 210 105 0 150 45 195 90 240 135 30 180 75 225 120 15 165 60 210 105 0 150 45 195 90 240 135 30 180 75 225 120 15 165 60 210 105 0 150 45 195 90 240 135 30 180 75 225 120 15 165 60 210 105 0 150 45 195 90 240 135 30 180 75 225 120 15 165 60 210 105 0 150 45 195 90 240 135 30 180 75 225 120 15 165 60 210 105 0 150 45 195 90 240 135 30 180 75 225 120 15 165 60 210 105 0 150 45 195 90 240 135 30 180 75 225 120 15 165 60 210 105 0 150 45 195 90 240 135 30 180 75 225 120 15 165 60 210 105 0 150 45 195 90 240 135 30 180 75 225 120 15 165 60 210 105 0 150 45 195 90 240 135 30 180 75 225 120 15 
0 244 233 222 211 200 189 178 167 156 145 134 123 112 101 90 79 68 57 46 35 24 13 2 246 235 224 213 202 191 180 169 158 147 136 125 114 103 92 81 70 59 48 37 26 15 4 248 237 226 215 204 193 182 171 160 149 138 127 116 105 94 83 72 61 50 39 28 17 6 250 239 228 217 206 195 184 173 162 151 140 129 118 107 96 85 74 63 52 41 30 19 8 252 241 230 219 208 197 186 175 164 153 142 131 120 109 98 87 76 65 54 43 32 21 10 254 243 232 221 210 199 188 177 166 155 144 133 122 111 100 89 78 67 56 45 34 23 12 1 245 234 223 212 201 190 179 168 157 146 135 124 113 102 91 80 69 58 47 36 25 14 3 247 236 225 214 203 192 181 170 159 148 137 126 115 104 93 82 71 60 49 38 27 16 5 249 238 227 216 205 194 183 172 161 150 139 128 117 106 
0 83 166 249 77 160 243 71 154 237 65 148 231 59 142 225 53 136 219 47 130 213 41 124 207 35 118 201 29 112 195 23 106 189 17 100 183 11 94 177 5 88 171 254 82 165 248 76 159 242 70 153 236 64 147 230 58 141 224 52 135 218 46 129 212 40 123 206 34 117 200 28 111 194 22 105 188 16 99 182 10 93 176 4 87 170 253 81 164 247 75 158 241 69 152 235 63 146 229 57 140 223 51 134 217 45 128 211 39 122 205 33 116 199 27 110 193 21 104 187 15 98 181 9 92 175 3 86 169 252 80 163 246 74 157 240 68 151 234 62 145 228 56 139 222 50 133 216 44 127 210 38 121 204 32 115 198 26 109 192 20 103 186 14 97 180 8 91 174 2 85 168 251 79 162 245 73 156 239 67 150 233 61 144 227 55 138 221 49 132 215 43 126 209 37 120 203 31 114 197 
0 177 99 21 198 120 42 219 141 63 240 162 84 6 183 105 27 204 126 48 225 147 69 246 168 90 12 189 111 33 210 132 54 231 153 75 252 174 96 18 195 117 39 216 138 60 237 159 81 3 180 102 24 201 123 45 222 144 66 243 165 87 9 186 108 30 207 129 51 228 150 72 249 171 93 15 192 114 36 213 135 57 234 156 78 0 177 99 21 198 120 42 219 141 63 240 162 84 6 183 105 27 204 126 48 225 147 69 246 168 90 12 189 111 33 210 132 54 231 153 75 252 174 96 18 195 117 39 216 138 60 237 159 81 3 180 102 24 201 123 45 222 144 66 243 165 87 9 186 108 30 207 129 51 228 150 72 249 171 93 15 192 114 36 213 135 57 234 156 78 0 177 99 21 198 120 42 219 141 63 240 162 84 6 183 105 27 204 126 48 225 147 69 246 168 90 12 189 111 33 
0 16 32 48 64 80 96 112 128 144 160 176 192 208 224 240 1 17 33 49 65 81 97 113 129 145 161 177 193 209 225 241 2 18 34 50 66 82 98 114 130 146 162 178 194 210 226 242 3 19 35 51 67 83 99 115 131 147 163 179 195 211 227 243 4 20 36 52 68 84 100 116 132 148 164 180 196 212 228 244 5 21 37 53 69 85 101 117 133 149 165 181 197 213 229 245 6 22 38 54 70 86 102 118 134 150 166 182 198 214 230 246 7 23 39 55 71 87 103 119 135 151 167 183 199 215 231 247 8 24 40 56 72 88 104 120 136 152 168 184 200 216 232 248 9 25 41 57 73 89 105 121 137 153 169 185 201 217 233 249 10 26 42 58 74 90 106 122 138 154 170 186 202 218 234 250 11 27 43 59 75 91 107 123 139 155 171 187 203 219 235 251 12 28 44 60 76 92 108 124 
0 110 220 75 185 40 150 5 115 225 80 190 45 155 10 120 230 85 195 50 160 15 125 235 90 200 55 165 20 130 240 95 205 60 170 25 135 245 100 210 65 175 30 140 250 105 215 70 180 35 145 0 110 220 75 185 40 150 5 115 225 80 190 45 155 10 120 230 85 195 50 160 15 125 235 90 200 55 165 20 130 240 95 205 60 170 25 135 245 100 210 65 175 30 140 250 105 215 70 180 35 145 0 110 220 75 185 40 150 5 115 225 80 190 45 155 10 120 230 85 195 50 160 15 125 235 90 200 55 165 20 130 240 95 205 60 170 25 135 245 100 210 65 175 30 140 250 105 215 70 180 35 145 0 110 220 75 185 40 150 5 115 225 80 190 45 155 10 120 230 85 195 50 160 15 125 235 90 200 55 165 20 130 240 95 205 60 170 25 135 245 100 210 65 175 30 140 250 105 215 
0 204 153 102 51 0 204 153 102 51 0 204 153 102 51 0 204 153 102 51 0 204 153 102 51 0 204 153 102 51 0 204 153 102 51 0 204 153 102 51 0 204 153 102 51 0 204 153 102 51 0 204 153 102 51 0 204 153 102 51 0 204 153 102 51 0 204 153 102 51 0 204 153 102 51 0 204 153 102 51 0 204 153 102 51 0 204 153 102 51 0 204 153 102 51 0 204 153 102 51 0 204 153 102 51 0 204 153 102 51 0 204 153 102 51 0 204 153 102 51 0 204 153 102 51 0 204 153 102 51 0 204 153 102 51 0 204 153 102 51 0 204 153 102 51 0 204 153 102 51 0 204 153 102 51 0 204 153 102 51 0 204 153 102 51 0 204 153 102 51 0 204 153 102 51 0 204 153 102 51 0 204 153 102 51 0 204 153 102 51 0 204 153 102 51 0 204 153 102 51 
0 43 86 129 172 215 3 46 89 132 175 218 6 49 92 135 178 221 9 52 95 138 181 224 12 55 98 141 184 227 15 58 101 144 187 230 18 61 104 147 190 233 21 64 107 150 193 236 24 67 110 153 196 239 27 70 113 156 199 242 30 73 116 159 202 245 33 76 119 162 205 248 36 79 122 165 208 251 39 82 125 168 211 254 42 85 128 171 214 2 45 88 131 174 217 5 48 91 134 177 220 8 51 94 137 180 223 11 54 97 140 183 226 14 57 100 143 186 229 17 60 103 146 189 232 20 63 106 149 192 235 23 66 109 152 195 238 26 69 112 155 198 241 29 72 115 158 201 244 32 75 118 161 204 247 35 78 121 164 207 250 38 81 124 167 210 253 41 84 127 170 213 1 44 87 130 173 216 4 47 90 133 176 219 7 50 93 136 179 222 10 53 96 139 182 225 13 56 99 142 
0 137 19 156 38 175 57 194 76 213 95 232 114 251 133 15 152 34 171 53 190 72 209 91 228 110 247 129 11 148 30 167 49 186 68 205 87 224 106 243 125 7 144 26 163 45 182 64 201 83 220 102 239 121 3 140 22 159 41 178 60 197 79 216 98 235 117 254 136 18 155 37 174 56 193 75 212 94 231 113 250 132 14 151 33 170 52 189 71 208 90 227 109 246 128 10 147 29 166 48 185 67 204 86 223 105 242 124 6 143 25 162 44 181 63 200 82 219 101 238 120 2 139 21 158 40 177 59 196 78 215 97 234 116 253 135 17 154 36 173 55 192 74 211 93 230 112 249 131 13 150 32 169 51 188 70 207 89 226 108 245 127 9 146 28 165 47 184 66 203 85 222 104 241 123 5 142 24 161 43 180 62 199 81 218 100 237 119 1 138 20 157 39 176 58 195 77 214 96 233 
0 231 207 183 159 135 111 87 63 39 15 246 222 198 174 150 126 102 78 54 30 6 237 213 189 165 141 117 93 69 45 21 252 228 204 180 156 132 108 84 60 36 12 243 219 195 171 147 123 99 75 51 27 3 234 210 186 162 138 114 90 66 42 18 249 225 201 177 153 129 105 81 57 33 9 240 216 192 168 144 120 96 72 48 24 0 231 207 183 159 135 111 87 63 39 15 246 222 198 174 150 126 102 78 54 30 6 237 213 189 165 141 117 93 69 45 21 252 228 204 180 156 132 108 84 60 36 12 243 219 195 171 147 123 99 75 51 27 3 234 210 186 162 138 114 90 66 42 18 249 225 201 177 153 129 105 81 57 33 9 240 216 192 168 144 120 96 72 48 24 0 231 207 183 159 135 111 87 63 39 15 246 222 198 174 150 126 102 78 54 30 6 237 213 189 165 141 117 93 69 
0 70 140 210 25 95 165 235 50 120 190 5 75 145 215 30 100 170 240 55 125 195 10 80 150 220 35 105 175 245 60 130 200 15 85 155 225 40 110 180 250 65 135 205 20 90 160 230 45 115 185 0 70 140 210 25 95 165 235 50 120 190 5 75 145 215 30 100 170 240 55 125 195 10 80 150 220 35 105 175 245 60 130 200 15 85 155 225 40 110 180 250 65 135 205 20 90 160 230 45 115 185 0 70 140 210 25 95 165 235 50 120 190 5 75 145 215 30 100 170 240 55 125 195 10 80 150 220 35 105 175 245 60 130 200 15 85 155 225 40 110 180 250 65 135 205 20 90 160 230 45 115 185 0 70 140 210 25 95 165 235 50 120 190 5 75 145 215 30 100 170 240 55 125 195 10 80 150 220 35 105 175 245 60 130 200 15 85 155 225 40 110 180 250 65 135 205 20 90 160 
0 164 73 237 146 55 219 128 37 201 110 19 183 92 1 165 74 238 147 56 220 129 38 202 111 20 184 93 2 166 75 239 148 57 221 130 39 203 112 21 185 94 3 167 76 240 149 58 222 131 40 204 113 22 186 95 4 168 77 241 150 59 223 132 41 205 114 23 187 96 5 169 78 242 151 60 224 133 42 206 115 24 188 97 6 170 79 243 152 61 225 134 43 207 116 25 189 98 7 171 80 244 153 62 226 135 44 208 117 26 190 99 8 172 81 245 154 63 227 136 45 209 118 27 191 100 9 173 82 246 155 64 228 137 46 210 119 28 192 101 10 174 83 247 156 65 229 138 47 211 120 29 193 102 11 175 84 248 157 66 230 139 48 212 121 30 194 103 12 176 85 249 158 67 231 140 49 213 122 31 195 104 13 177 86 250 159 68 232 141 50 214 123 32 196 105 14 178 87 251 
0 3 6 9 12 15 18 21 24 27 30 33 36 39 42 45 48 51 54 57 60 63 66 69 72 75 78 81 84 87 90 93 96 99 102 105 108 111 114 117 120 123 126 129 132 135 138 141 144 147 150 153 156 159 162 165 168 171 174 177 180 183 186 189 192 195 198 201 204 207 210 213 216 219 222 225 228 231 234 237 240 243 246 249 252 0 3 6 9 12 15 18 21 24 27 30 33 36 39 42 45 48 51 54 57 60 63 66 69 72 75 78 81 84 87 90 93 96 99 102 105 108 111 114 117 120 123 126 129 132 135 138 141 144 147 150 153 156 159 162 165 168 171 174 177 180 183 186 189 192 195 198 201 204 207 210 213 216 219 222 225 228 231 234 237 240 243 246 249 252 0 3 6 9 12 15 18 21 24 27 30 33 36 39 42 45 48 51 54 57 60 63 66 69 72 75 78 81 84 87 
0 97 194 36 133 230 72 169 11 108 205 47 144 241 83 180 22 119 216 58 155 252 94 191 33 130 227 69 166 8 105 202 44 141 238 80 177 19 116 213 55 152 249 91 188 30 127 224 66 163 5 102 199 41 138 235 77 174 16 113 210 52 149 246 88 185 27 124 221 63 160 2 99 196 38 135 232 74 171 13 110 207 49 146 243 85 182 24 121 218 60 157 254 96 193 35 132 229 71 168 10 107 204 46 143 240 82 179 21 118 215 57 154 251 93 190 32 129 226 68 165 7 104 201 43 140 237 79 176 18 115 212 54 151 248 90 187 29 126 223 65 162 4 101 198 40 137 234 76 173 15 112 209 51 148 245 87 184 26 123 220 62 159 1 98 195 37 134 231 73 170 12 109 206 48 145 242 84 181 23 120 217 59 156 253 95 192 34 131 228 70 167 9 106 203 45 142 239 81 178 
0 191 127 63 254 190 126 62 253 189 125 61 252 188 124 60 251 187 123 59 250 186 122 58 249 185 121 57 248 184 120 56 247 183 119 55 246 182 118 54 245 181 117 53 244 180 116 52 243 179 115 51 242 178 114 50 241 177 113 49 240 176 112 48 239 175 111 47 238 174 110 46 237 173 109 45 236 172 108 44 235 171 107 43 234 170 106 42 233 169 105 41 232 168 104 40 231 167 103 39 230 166 102 38 229 165 101 37 228 164 100 36 227 163 99 35 226 162 98 34 225 161 97 33 224 160 96 32 223 159 95 31 222 158 94 30 221 157 93 29 220 156 92 28 219 155 91 27 218 154 90 26 217 153 89 25 216 152 88 24 215 151 87 23 214 150 86 22 213 149 85 21 212 148 84 20 211 147 83 19 210 146 82 18 209 145 81 17 208 144 80 16 207 143 79 15 206 142 78 14 
0 30 60 90 120 150 180 210 240 15 45 75 105 135 165 195 225 0 30 60 90 120 150 180 210 240 15 45 75 105 135 165 195 225 0 30 60 90 120 150 180 210 240 15 45 75 105 135 165 195 225 0 30 60 90 120 150 180 210 240 15 45 75 105 135 165 195 225 0 30 60 90 120 150 180 210 240 15 45 75 105 135 165 195 225 0 30 60 90 120 150 180 210 240 15 45 75 105 135 165 195 225 0 30 60 90 120 150 180 210 240 15 45 75 105 135 165 195 225 0 30 60 90 120 150 180 210 240 15 45 75 105 135 165 195 225 0 30 60 90 120 150 180 210 240 15 45 75 105 135 165 195 225 0 30 60 90 120 150 180 210 240 15 45 75 105 135 165 195 225 0 30 60 90 120 150 180 210 240 15 45 75 105 135 165 195 225 0 30 60 90 120 150 180 210 240 15 45 75 105 
0 124 248 117 241 110 234 103 227 96 220 89 213 82 206 75 199 68 192 61 185 54 178 47 171 40 164 33 157 26 150 19 143 12 136 5 129 253 122 246 115 239 108 232 101 225 94 218 87 211 80 204 73 197 66 190 59 183 52 176 45 169 38 162 31 155 24 148 17 141 10 134 3 127 251 120 244 113 237 106 230 99 223 92 216 85 209 78 202 71 195 64 188 57 181 50 174 43 167 36 160 29 153 22 146 15 139 8 132 1 125 249 118 242 111 235 104 228 97 221 90 214 83 207 76 200 69 193 62 186 55 179 48 172 41 165 34 158 27 151 20 144 13 137 6 130 254 123 247 116 240 109 233 102 226 95 219 88 212 81 205 74 198 67 191 60 184 53 177 46 170 39 163 32 156 25 149 18 142 11 135 4 128 252 121 245 114 238 107 231 100 224 93 217 86 210 79 203 72 196 
0 218 181 144 107 70 33 251 214 177 140 103 66 29 247 210 173 136 99 62 25 243 206 169 132 95 58 21 239 202 165 128 91 54 17 235 198 161 124 87 50 13 231 194 157 120 83 46 9 227 190 153 116 79 42 5 223 186 149 112 75 38 1 219 182 145 108 71 34 252 215 178 141 104 67 30 248 211 174 137 100 63 26 244 207 170 133 96 59 22 240 203 166 129 92 55 18 236 199 162 125 88 51 14 232 195 158 121 84 47 10 228 191 154 117 80 43 6 224 187 150 113 76 39 2 220 183 146 109 72 35 253 216 179 142 105 68 31 249 212 175 138 101 64 27 245 208 171 134 97 60 23 241 204 167 130 93 56 19 237 200 163 126 89 52 15 233 196 159 122 85 48 11 229 192 155 118 81 44 7 225 188 151 114 77 40 3 221 184 147 110 73 36 254 217 180 143 106 69 32 
0 57 114 171 228 30 87 144 201 3 60 117 174 231 33 90 147 204 6 63 120 177 234 36 93 150 207 9 66 123 180 237 39 96 153 210 12 69 126 183 240 42 99 156 213 15 72 129 186 243 45 102 159 216 18 75 132 189 246 48 105 162 219 21 78 135 192 249 51 108 165 222 24 81 138 195 252 54 111 168 225 27 84 141 198 0 57 114 171 228 30 87 144 201 3 60 117 174 231 33 90 147 204 6 63 120 177 234 36 93 150 207 9 66 123 180 237 39 96 153 210 12 69 126 183 240 42 99 156 213 15 72 129 186 243 45 102 159 216 18 75 132 189 246 48 105 162 219 21 78 135 192 249 51 108 165 222 24 81 138 195 252 54 111 168 225 27 84 141 198 0 57 114 171 228 30 87 144 201 3 60 117 174 231 33 90 147 204 6 63 120 177 234 36 93 150 207 9 66 123 
0 151 47 198 94 245 141 37 188 84 235 131 27 178 74 225 121 17 168 64 215 111 7 158 54 205 101 252 148 44 195 91 242 138 34 185 81 232 128 24 175 71 222 118 14 165 61 212 108 4 155 51 202 98 249 145 41 192 88 239 135 31 182 78 229 125 21 172 68 219 115 11 162 58 209 105 1 152 48 199 95 246 142 38 189 85 236 132 28 179 75 226 122 18 169 65 216 112 8 159 55 206 102 253 149 45 196 92 243 139 35 186 82 233 129 25 176 72 223 119 15 166 62 213 109 5 156 52 203 99 250 146 42 193 89 240 136 32 183 79 230 126 22 173 69 220 116 12 163 59 210 106 2 153 49 200 96 247 143 39 190 86 237 133 29 180 76 227 123 19 170 66 217 113 9 160 56 207 103 254 150 46 197 93 244 140 36 187 83 234 130 26 177 73 224 120 16 167 63 214 
0 245 235 225 215 205 195 185 175 165 155 145 135 125 115 105 95 85 75 65 55 45 35 25 15 5 250 240 230 220 210 200 190 180 170 160 150 140 130 120 110 100 90 80 70 60 50 40 30 20 10 0 245 235 225 215 205 195 185 175 165 155 145 135 125 115 105 95 85 75 65 55 45 35 25 15 5 250 240 230 220 210 200 190 180 170 160 150 140 130 120 110 100 90 80 70 60 50 40 30 20 10 0 245 235 225 215 205 195 185 175 165 155 145 135 125 115 105 95 85 75 65 55 45 35 25 15 5 250 240 230 220 210 200 190 180 170 160 150 140 130 120 110 100 90 80 70 60 50 40 30 20 10 0 245 235 225 215 205 195 185 175 165 155 145 135 125 115 105 95 85 75 65 55 45 35 25 15 5 250 240 230 220 210 200 190 180 170 160 150 140 130 120 110 100 90 80 70 60 50 
0 84 168 252 81 165 249 78 162 246 75 159 243 72 156 240 69 153 237 66 150 234 63 147 231 60 144 228 57 141 225 54 138 222 51 135 219 48 132 216 45 129 213 42 126 210 39 123 207 36 120 204 33 117 201 30 114 198 27 111 195 24 108 192 21 105 189 18 102 186 15 99 183 12 96 180 9 93 177 6 90 174 3 87 171 0 84 168 252 81 165 249 78 162 246 75 159 243 72 156 240 69 153 237 66 150 234 63 147 231 60 144 228 57 141 225 54 138 222 51 135 219 48 132 216 45 129 213 42 126 210 39 123 207 36 120 204 33 117 201 30 114 198 27 111 195 24 108 192 21 105 189 18 102 186 15 99 183 12 96 180 9 93 177 6 90 174 3 87 171 0 84 168 252 81 165 249 78 162 246 75 159 243 72 156 240 69 153 237 66 150 234 63 147 231 60 144 228 57 141 
0 178 101 24 202 125 48 226 149 72 250 173 96 19 197 120 43 221 144 67 245 168 91 14 192 115 38 216 139 62 240 163 86 9 187 110 33 211 134 57 235 158 81 4 182 105 28 206 129 52 230 153 76 254 177 100 23 201 124 47 225 148 71 249 172 95 18 196 119 42 220 143 66 244 167 90 13 191 114 37 215 138 61 239 162 85 8 186 109 32 210 133 56 234 157 80 3 181 104 27 205 128 51 229 152 75 253 176 99 22 200 123 46 224 147 70 248 171 94 17 195 118 41 219 142 65 243 166 89 12 190 113 36 214 137 60 238 161 84 7 185 108 31 209 132 55 233 156 79 2 180 103 26 204 127 50 228 151 74 252 175 98 21 199 122 45 223 146 69 247 170 93 16 194 117 40 218 141 64 242 165 88 11 189 112 35 213 136 59 237 160 83 6 184 107 30 208 131 54 232 
0 17 34 51 68 85 102 119 136 153 170 187 204 221 238 0 17 34 51 68 85 102 119 136 153 170 187 204 221 238 0 17 34 51 68 85 102 119 136 153 170 187 204 221 238 0 17 34 51 68 85 102 119 136 153 170 187 204 221 238 0 17 34 51 68 85 102 119 136 153 170 187 204 221 238 0 17 34 51 68 85 102 119 136 153 170 187 204 221 238 0 17 34 51 68 85 102 119 136 153 170 187 204 221 238 0 17 34 51 68 85 102 119 136 153 170 187 204 221 238 0 17 34 51 68 85 102 119 136 153 170 187 204 221 238 0 17 34 51 68 85 102 119 136 153 170 187 204 221 238 0 17 34 51 68 85 102 119 136 153 170 187 204 221 238 0 17 34 51 68 85 102 119 136 153 170 187 204 221 238 0 17 34 51 68 85 102 119 136 153 170 187 204 221 238 0 17 34 51 68 
0 111 222 78 189 45 156 12 123 234 90 201 57 168 24 135 246 102 213 69 180 36 147 3 114 225 81 192 48 159 15 126 237 93 204 60 171 27 138 249 105 216 72 183 39 150 6 117 228 84 195 51 162 18 129 240 96 207 63 174 30 141 252 108 219 75 186 42 153 9 120 231 87 198 54 165 21 132 243 99 210 66 177 33 144 0 111 222 78 189 45 156 12 123 234 90 201 57 168 24 135 246 102 213 69 180 36 147 3 114 225 81 192 48 159 15 126 237 93 204 60 171 27 138 249 105 216 72 183 39 150 6 117 228 84 195 51 162 18 129 240 96 207 63 174 30 141 252 108 219 75 186 42 153 9 120 231 87 198 54 165 21 132 243 99 210 66 177 33 144 0 111 222 78 189 45 156 12 123 234 90 201 57 168 24 135 246 102 213 69 180 36 147 3 114 225 81 192 48 159 
0 205 155 105 55 5 210 160 110 60 10 215 165 115 65 15 220 170 120 70 20 225 175 125 75 25 230 180 130 80 30 235 185 135 85 35 240 190 140 90 40 245 195 145 95 45 250 200 150 100 50 0 205 155 105 55 5 210 160 110 60 10 215 165 115 65 15 220 170 120 70 20 225 175 125 75 25 230 180 130 80 30 235 185 135 85 35 240 190 140 90 40 245 195 145 95 45 250 200 150 100 50 0 205 155 105 55 5 210 160 110 60 10 215 165 115 65 15 220 170 120 70 20 225 175 125 75 25 230 180 130 80 30 235 185 135 85 35 240 190 140 90 40 245 195 145 95 45 250 200 150 100 50 0 205 155 105 55 5 210 160 110 60 10 215 165 115 65 15 220 170 120 70 20 225 175 125 75 25 230 180 130 80 30 235 185 135 85 35 240 190 140 90 40 245 195 145 95 45 250 
0 44 88 132 176 220 9 53 97 141 185 229 18 62 106 150 194 238 27 71 115 159 203 247 36 80 124 168 212 1 45 89 133 177 221 10 54 98 142 186 230 19 63 107 151 195 239 28 72 116 160 204 248 37 81 125 169 213 2 46 90 134 178 222 11 55 99 143 187 231 20 64 108 152 196 240 29 73 117 161 205 249 38 82 126 170 214 3 47 91 135 179 223 12 56 100 144 188 232 21 65 109 153 197 241 30 74 118 162 206 250 39 83 127 171 215 4 48 92 136 180 224 13 57 101 145 189 233 22 66 110 154 198 242 31 75 119 163 207 251 40 84 128 172 216 5 49 93 137 181 225 14 58 102 146 190 234 23 67 111 155 199 243 32 76 120 164 208 252 41 85 129 173 217 6 50 94 138 182 226 15 59 103 147 191 235 24 68 112 156 200 244 33 77 121 165 209 253 42 86 
0 138 21 159 42 180 63 201 84 222 105 243 126 9 147 30 168 51 189 72 210 93 231 114 252 135 18 156 39 177 60 198 81 219 102 240 123 6 144 27 165 48 186 69 207 90 228 111 249 132 15 153 36 174 57 195 78 216 99 237 120 3 141 24 162 45 183 66 204 87 225 108 246 129 12 150 33 171 54 192 75 213 96 234 117 0 138 21 159 42 180 63 201 84 222 105 243 126 9 147 30 168 51 189 72 210 93 231 114 252 135 18 156 39 177 60 198 81 219 102 240 123 6 144 27 165 48 186 69 207 90 228 111 249 132 15 153 36 174 57 195 78 216 99 237 120 3 141 24 162 45 183 66 204 87 225 108 246 129 12 150 33 171 54 192 75 213 96 234 117 0 138 21 159 42 180 63 201 84 222 105 243 126 9 147 30 168 51 189 72 210 93 231 114 252 135 18 156 39 177 
0 232 209 186 163 140 117 94 71 48 25 2 234 211 188 165 142 119 96 73 50 27 4 236 213 190 167 144 121 98 75 52 29 6 238 215 192 169 146 123 100 77 54 31 8 240 217 194 171 148 125 102 79 56 33 10 242 219 196 173 150 127 104 81 58 35 12 244 221 198 175 152 129 106 83 60 37 14 246 223 200 177 154 131 108 85 62 39 16 248 225 202 179 156 133 110 87 64 41 18 250 227 204 181 158 135 112 89 66 43 20 252 229 206 183 160 137 114 91 68 45 22 254 231 208 185 162 139 116 93 70 47 24 1 233 210 187 164 141 118 95 72 49 26 3 235 212 189 166 143 120 97 74 51 28 5 237 214 191 168 145 122 99 76 53 30 7 239 216 193 170 147 124 101 78 55 32 9 241 218 195 172 149 126 103 80 57 34 11 243 220 197 174 151 128 105 82 59 36 13 
0 71 142 213 29 100 171 242 58 129 200 16 87 158 229 45 116 187 3 74 145 216 32 103 174 245 61 132 203 19 90 161 232 48 119 190 6 77 148 219 35 106 177 248 64 135 206 22 93 164 235 51 122 193 9 80 151 222 38 109 180 251 67 138 209 25 96 167 238 54 125 196 12 83 154 225 41 112 183 254 70 141 212 28 99 170 241 57 128 199 15 86 157 228 44 115 186 2 73 144 215 31 102 173 244 60 131 202 18 89 160 231 47 118 189 5 76 147 218 34 105 176 247 63 134 205 21 92 163 234 50 121 192 8 79 150 221 37 108 179 250 66 137 208 24 95 166 237 53 124 195 11 82 153 224 40 111 182 253 69 140 211 27 98 169 240 56 127 198 14 85 156 227 43 114 185 1 72 143 214 30 101 172 243 59 130 201 17 88 159 230 46 117 188 4 75 146 217 33 104 
0 165 75 240 150 60 225 135 45 210 120 30 195 105 15 180 90 0 165 75 240 150 60 225 135 45 210 120 30 195 105 15 180 90 0 165 75 240 150 60 225 135 45 210 120 30 195 105 15 180 90 0 165 75 240 150 60 225 135 45 210 120 30 195 105 15 180 90 0 165 75 240 150 60 225 135 45 210 120 30 195 105 15 180 90 0 165 75 240 150 60 225 135 45 210 120 30 195 105 15 180 90 0 165 75 240 150 60 225 135 45 210 120 30 195 105 15 180 90 0 165 75 240 150 60 225 135 45 210 120 30 195 105 15 180 90 0 165 75 240 150 60 225 135 45 210 120 30 195 105 15 180 90 0 165 75 240 150 60 225 135 45 210 120 30 195 105 15 180 90 0 165 75 240 150 60 225 135 45 210 120 30 195 105 15 180 90 0 165 75 240 150 60 225 135 45 210 120 30 195 
0 4 8 12 16 20 24 28 32 36 40 44 48 52 56 60 64 68 72 76 80 84 88 92 96 100 104 108 112 116 120 124 128 132 136 140 144 148 152 156 160 164 168 172 176 180 184 188 192 196 200 204 208 212 216 220 224 228 232 236 240 244 248 252 1 5 9 13 17 21 25 29 33 37 41 45 49 53 57 61 65 69 73 77 81 85 89 93 97 101 105 109 113 117 121 125 129 133 137 141 145 149 153 157 161 165 169 173 177 181 185 189 193 197 201 205 209 213 217 221 225 229 233 237 241 245 249 253 2 6 10 14 18 22 26 30 34 38 42 46 50 54 58 62 66 70 74 78 82 86 90 94 98 102 106 110 114 118 122 126 130 134 138 142 146 150 154 158 162 166 170 174 178 182 186 190 194 198 202 206 210 214 218 222 226 230 234 238 242 246 250 254 3 7 11 15 19 23 27 31 
0 98 196 39 137 235 78 176 19 117 215 58 156 254 97 195 38 136 234 77 175 18 116 214 57 155 253 96 194 37 135 233 76 174 17 115 213 56 154 252 95 193 36 134 232 75 173 16 114 212 55 153 251 94 192 35 133 231 74 172 15 113 211 54 152 250 93 191 34 132 230 73 171 14 112 210 53 151 249 92 190 33 131 229 72 170 13 111 209 52 150 248 91 189 32 130 228 71 169 12 110 208 51 149 247 90 188 31 129 227 70 168 11 109 207 50 148 246 89 187 30 128 226 69 167 10 108 206 49 147 245 88 186 29 127 225 68 166 9 107 205 48 146 244 87 185 28 126 224 67 165 8 106 204 47 145 243 86 184 27 125 223 66 164 7 105 203 46 144 242 85 183 26 124 222 65 163 6 104 202 45 143 241 84 182 25 123 221 64 162 5 103 201 44 142 240 83 181 24 122 
0 192 129 66 3 195 132 69 6 198 135 72 9 201 138 75 12 204 141 78 15 207 144 81 18 210 147 84 21 213 150 87 24 216 153 90 27 219 156 93 30 222 159 96 33 225 162 99 36 228 165 102 39 231 168 105 42 234 171 108 45 237 174 111 48 240 177 114 51 243 180 117 54 246 183 120 57 249 186 123 60 252 189 126 63 0 192 129 66 3 195 132 69 6 198 135 72 9 201 138 75 12 204 141 78 15 207 144 81 18 210 147 84 21 213 150 87 24 216 153 90 27 219 156 93 30 222 159 96 33 225 162 99 36 228 165 102 39 231 168 105 42 234 171 108 45 237 174 111 48 240 177 114 51 243 180 117 54 246 183 120 57 249 186 123 60 252 189 126 63 0 192 129 66 3 195 132 69 6 198 135 72 9 201 138 75 12 204 141 78 15 207 144 81 18 210 147 84 21 213 
0 31 62 93 124 155 186 217 248 24 55 86 117 148 179 210 241 17 48 79 110 141 172 203 234 10 41 72 103 134 165 196 227 3 34 65 96 127 158 189 220 251 27 58 89 120 151 182 213 244 20 51 82 113 144 175 206 237 13 44 75 106 137 168 199 230 6 37 68 99 130 161 192 223 254 30 61 92 123 154 185 216 247 23 54 85 116 147 178 209 240 16 47 78 109 140 171 202 233 9 40 71 102 133 164 195 226 2 33 64 95 126 157 188 219 250 26 57 88 119 150 181 212 243 19 50 81 112 143 174 205 236 12 43 74 105 136 167 198 229 5 36 67 98 129 160 191 222 253 29 60 91 122 153 184 215 246 22 53 84 115 146 177 208 239 15 46 77 108 139 170 201 232 8 39 70 101 132 163 194 225 1 32 63 94 125 156 187 218 249 25 56 87 118 149 180 211 242 18 49 
0 125 250 120 245 115 240 110 235 105 230 100 225 95 220 90 215 85 210 80 205 75 200 70 195 65 190 60 185 55 180 50 175 45 170 40 165 35 160 30 155 25 150 20 145 15 140 10 135 5 130 0 125 250 120 245 115 240 110 235 105 230 100 225 95 220 90 215 85 210 80 205 75 200 70 195 65 190 60 185 55 180 50 175 45 170 40 165 35 160 30 155 25 150 20 145 15 140 10 135 5 130 0 125 250 120 245 115 240 110 235 105 230 100 225 95 220 90 215 85 210 80 205 75 200 70 195 65 190 60 185 55 180 50 175 45 170 40 165 35 160 30 155 25 150 20 145 15 140 10 135 5 130 0 125 250 120 245 115 240 110 235 105 230 100 225 95 220 90 215 85 210 80 205 75 200 70 195 65 190 60 185 55 180 50 175 45 170 40 165 35 160 30 155 25 150 20 145 15 140 
0 219 183 147 111 75 39 3 222 186 150 114 78 42 6 225 189 153 117 81 45 9 228 192 156 120 84 48 12 231 195 159 123 87 51 15 234 198 162 126 90 54 18 237 201 165 129 93 57 21 240 204 168 132 96 60 24 243 207 171 135 99 63 27 246 210 174 138 102 66 30 249 213 177 141 105 69 33 252 216 180 144 108 72 36 0 219 183 147 111 75 39 3 222 186 150 114 78 42 6 225 189 153 117 81 45 9 228 192 156 120 84 48 12 231 195 159 123 87 51 15 234 198 162 126 90 54 18 237 201 165 129 93 57 21 240 204 168 132 96 60 24 243 207 171 135 99 63 27 246 210 174 138 102 66 30 249 213 177 141 105 69 33 252 216 180 144 108 72 36 0 219 183 147 111 75 39 3 222 186 150 114 78 42 6 225 189 153 117 81 45 9 228 192 156 120 84 48 12 231 
0 58 116 174 232 35 93 151 209 12 70 128 186 244 47 105 163 221 24 82 140 198 1 59 117 175 233 36 94 152 210 13 71 129 187 245 48 106 164 222 25 83 141 199 2 60 118 176 234 37 95 153 211 14 72 130 188 246 49 107 165 223 26 84 142 200 3 61 119 177 235 38 96 154 212 15 73 131 189 247 50 108 166 224 27 85 143 201 4 62 120 178 236 39 97 155 213 16 74 132 190 248 51 109 167 225 28 86 144 202 5 63 121 179 237 40 98 156 214 17 75 133 191 249 52 110 168 226 29 87 145 203 6 64 122 180 238 41 99 157 215 18 76 134 192 250 53 111 169 227 30 88 146 204 7 65 123 181 239 42 100 158 216 19 77 135 193 251 54 112 170 228 31 89 147 205 8 66 124 182 240 43 101 159 217 20 78 136 194 252 55 113 171 229 32 90 148 206 9 67 
0 152 49 201 98 250 147 44 196 93 245 142 39 191 88 240 137 34 186 83 235 132 29 181 78 230 127 24 176 73 225 122 19 171 68 220 117 14 166 63 215 112 9 161 58 210 107 4 156 53 205 102 254 151 48 200 97 249 146 43 195 92 244 141 38 190 87 239 136 33 185 82 234 131 28 180 77 229 126 23 175 72 224 121 18 170 67 219 116 13 165 62 214 111 8 160 57 209 106 3 155 52 204 101 253 150 47 199 96 248 145 42 194 91 243 140 37 189 86 238 135 32 184 81 233 130 27 179 76 228 125 22 174 71 223 120 17 169 66 218 115 12 164 61 213 110 7 159 56 208 105 2 154 51 203 100 252 149 46 198 95 247 144 41 193 90 242 139 36 188 85 237 134 31 183 80 232 129 26 178 75 227 124 21 173 70 222 119 16 168 65 217 114 11 163 60 212 109 6 158 
0 246 237 228 219 210 201 192 183 174 165 156 147 138 129 120 111 102 93 84 75 66 57 48 39 30 21 12 3 249 240 231 222 213 204 195 186 177 168 159 150 141 132 123 114 105 96 87 78 69 60 51 42 33 24 15 6 252 243 234 225 216 207 198 189 180 171 162 153 144 135 126 117 108 99 90 81 72 63 54 45 36 27 18 9 0 246 237 228 219 210 201 192 183 174 165 156 147 138 129 120 111 102 93 84 75 66 57 48 39 30 21 12 3 249 240 231 222 213 204 195 186 177 168 159 150 141 132 123 114 105 96 87 78 69 60 51 42 33 24 15 6 252 243 234 225 216 207 198 189 180 171 162 153 144 135 126 117 108 99 90 81 72 63 54 45 36 27 18 9 0 246 237 228 219 210 201 192 183 174 165 156 147 138 129 120 111 102 93 84 75 66 57 48 39 30 21 12 3 249 
0 85 170 0 85 170 0 85 170 0 85 170 0 85 170 0 85 170 0 85 170 0 85 170 0 85 170 0 85 170 0 85 170 0 85 170 0 85 170 0 85 170 0 85 170 0 85 170 0 85 170 0 85 170 0 85 170 0 85 170 0 85 170 0 85 170 0 85 170 0 85 170 0 85 170 0 85 170 0 85 170 0 85 170 0 85 170 0 85 170 0 85 170 0 85 170 0 85 170 0 85 170 0 85 170 0 85 170 0 85 170 0 85 170 0 85 170 0 85 170 0 85 170 0 85 170 0 85 170 0 85 170 0 85 170 0 85 170 0 85 170 0 85 170 0 85 170 0 85 170 0 85 170 0 85 170 0 85 170 0 85 170 0 85 170 0 85 170 0 85 170 0 85 170 0 85 170 0 85 170 0 85 170 0 85 170 0 85 170 0 85 170 0 85 170 0 85 170 0 85 
0 179 103 27 206 130 54 233 157 81 5 184 108 32 211 135 59 238 162 86 10 189 113 37 216 140 64 243 167 91 15 194 118 42 221 145 69 248 172 96 20 199 123 47 226 150 74 253 177 101 25 204 128 52 231 155 79 3 182 106 30 209 133 57 236 160 84 8 187 111 35 214 138 62 241 165 89 13 192 116 40 219 143 67 246 170 94 18 197 121 45 224 148 72 251 175 99 23 202 126 50 229 153 77 1 180 104 28 207 131 55 234 158 82 6 185 109 33 212 136 60 239 163 87 11 190 114 38 217 141 65 244 168 92 16 195 119 43 222 146 70 249 173 97 21 200 124 48 227 151 75 254 178 102 26 205 129 53 232 156 80 4 183 107 31 210 134 58 237 161 85 9 188 112 36 215 139 63 242 166 90 14 193 117 41 220 144 68 247 171 95 19 198 122 46 225 149 73 252 176 
0 18 36 54 72 90 108 126 144 162 180 198 216 234 252 15 33 51 69 87 105 123 141 159 177 195 213 231 249 12 30 48 66 84 102 120 138 156 174 192 210 228 246 9 27 45 63 81 99 117 135 153 171 189 207 225 243 6 24 42 60 78 96 114 132 150 168 186 204 222 240 3 21 39 57 75 93 111 129 147 165 183 201 219 237 0 18 36 54 72 90 108 126 144 162 180 198 216 234 252 15 33 51 69 87 105 123 141 159 177 195 213 231 249 12 30 48 66 84 102 120 138 156 174 192 210 228 246 9 27 45 63 81 99 117 135 153 171 189 207 225 243 6 24 42 60 78 96 114 132 150 168 186 204 222 240 3 21 39 57 75 93 111 129 147 165 183 201 219 237 0 18 36 54 72 90 108 126 144 162 180 198 216 234 252 15 33 51 69 87 105 123 141 159 177 195 213 231 249 12 
0 112 224 81 193 50 162 19 131 243 100 212 69 181 38 150 7 119 231 88 200 57 169 26 138 250 107 219 76 188 45 157 14 126 238 95 207 64 176 33 145 2 114 226 83 195 52 164 21 133 245 102 214 71 183 40 152 9 121 233 90 202 59 171 28 140 252 109 221 78 190 47 159 16 128 240 97 209 66 178 35 147 4 116 228 85 197 54 166 23 135 247 104 216 73 185 42 154 11 123 235 92 204 61 173 30 142 254 111 223 80 192 49 161 18 130 242 99 211 68 180 37 149 6 118 230 87 199 56 168 25 137 249 106 218 75 187 44 156 13 125 237 94 206 63 175 32 144 1 113 225 82 194 51 163 20 132 244 101 213 70 182 39 151 8 120 232 89 201 58 170 27 139 251 108 220 77 189 46 158 15 127 239 96 208 65 177 34 146 3 115 227 84 196 53 165 22 134 246 103 
0 206 157 108 59 10 216 167 118 69 20 226 177 128 79 30 236 187 138 89 40 246 197 148 99 50 1 207 158 109 60 11 217 168 119 70 21 227 178 129 80 31 237 188 139 90 41 247 198 149 100 51 2 208 159 110 61 12 218 169 120 71 22 228 179 130 81 32 238 189 140 91 42 248 199 150 101 52 3 209 160 111 62 13 219 170 121 72 23 229 180 131 82 33 239 190 141 92 43 249 200 151 102 53 4 210 161 112 63 14 220 171 122 73 24 230 181 132 83 34 240 191 142 93 44 250 201 152 103 54 5 211 162 113 64 15 221 172 123 74 25 231 182 133 84 35 241 192 143 94 45 251 202 153 104 55 6 212 163 114 65 16 222 173 124 75 26 232 183 134 85 36 242 193 144 95 46 252 203 154 105 56 7 213 164 115 66 17 223 174 125 76 27 233 184 135 86 37 243 194 
0 45 90 135 180 225 15 60 105 150 195 240 30 75 120 165 210 0 45 90 135 180 225 15 60 105 150 195 240 30 75 120 165 210 0 45 90 135 180 225 15 60 105 150 195 240 30 75 120 165 210 0 45 90 135 180 225 15 60 105 150 195 240 30 75 120 165 210 0 45 90 135 180 225 15 60 105 150 195 240 30 75 120 165 210 0 45 90 135 180 225 15 60 105 150 195 240 30 75 120 165 210 0 45 90 135 180 225 15 60 105 150 195 240 30 75 120 165 210 0 45 90 135 180 225 15 60 105 150 195 240 30 75 120 165 210 0 45 90 135 180 225 15 60 105 150 195 240 30 75 120 165 210 0 45 90 135 180 225 15 60 105 150 195 240 30 75 120 165 210 0 45 90 135 180 225 15 60 105 150 195 240 30 75 120 165 210 0 45 90 135 180 225 15 60 105 150 195 240 30 
0 139 23 162 46 185 69 208 92 231 115 254 138 22 161 45 184 68 207 91 230 114 253 137 21 160 44 183 67 206 90 229 113 252 136 20 159 43 182 66 205 89 228 112 251 135 19 158 42 181 65 204 88 227 111 250 134 18 157 41 180 64 203 87 226 110 249 133 17 156 40 179 63 202 86 225 109 248 132 16 155 39 178 62 201 85 224 108 247 131 15 154 38 177 61 200 84 223 107 246 130 14 153 37 176 60 199 83 222 106 245 129 13 152 36 175 59 198 82 221 105 244 128 12 151 35 174 58 197 81 220 104 243 127 11 150 34 173 57 196 80 219 103 242 126 10 149 33 172 56 195 79 218 102 241 125 9 148 32 171 55 194 78 217 101 240 124 8 147 31 170 54 193 77 216 100 239 123 7 146 30 169 53 192 76 215 99 238 122 6 145 29 168 52 191 75 214 98 237 121 
0 233 211 189 167 145 123 101 79 57 35 13 246 224 202 180 158 136 114 92 70 48 26 4 237 215 193 171 149 127 105 83 61 39 17 250 228 206 184 162 140 118 96 74 52 30 8 241 219 197 175 153 131 109 87 65 43 21 254 232 210 188 166 144 122 100 78 56 34 12 245 223 201 179 157 135 113 91 69 47 25 3 236 214 192 170 148 126 104 82 60 38 16 249 227 205 183 161 139 117 95 73 51 29 7 240 218 196 174 152 130 108 86 64 42 20 253 231 209 187 165 143 121 99 77 55 33 11 244 222 200 178 156 134 112 90 68 46 24 2 235 213 191 169 147 125 103 81 59 37 15 248 226 204 182 160 138 116 94 72 50 28 6 239 217 195 173 151 129 107 85 63 41 19 252 230 208 186 164 142 120 98 76 54 32 10 243 221 199 177 155 133 111 89 67 45 23 1 234 212 
0 72 144 216 33 105 177 249 66 138 210 27 99 171 243 60 132 204 21 93 165 237 54 126 198 15 87 159 231 48 120 192 9 81 153 225 42 114 186 3 75 147 219 36 108 180 252 69 141 213 30 102 174 246 63 135 207 24 96 168 240 57 129 201 18 90 162 234 51 123 195 12 84 156 228 45 117 189 6 78 150 222 39 111 183 0 72 144 216 33 105 177 249 66 138 210 27 99 171 243 60 132 204 21 93 165 237 54 126 198 15 87 159 231 48 120 192 9 81 153 225 42 114 186 3 75 147 219 36 108 180 252 69 141 213 30 102 174 246 63 135 207 24 96 168 240 57 129 201 18 90 162 234 51 123 195 12 84 156 228 45 117 189 6 78 150 222 39 111 183 0 72 144 216 33 105 177 249 66 138 210 27 99 171 243 60 132 204 21 93 165 237 54 126 198 15 87 159 231 48 
0 166 77 243 154 65 231 142 53 219 130 41 207 118 29 195 106 17 183 94 5 171 82 248 159 70 236 147 58 224 135 46 212 123 34 200 111 22 188 99 10 176 87 253 164 75 241 152 63 229 140 51 217 128 39 205 116 27 193 104 15 181 92 3 169 80 246 157 68 234 145 56 222 133 44 210 121 32 198 109 20 186 97 8 174 85 251 162 73 239 150 61 227 138 49 215 126 37 203 114 25 191 102 13 179 90 1 167 78 244 155 66 232 143 54 220 131 42 208 119 30 196 107 18 184 95 6 172 83 249 160 71 237 148 59 225 136 47 213 124 35 201 112 23 189 100 11 177 88 254 165 76 242 153 64 230 141 52 218 129 40 206 117 28 194 105 16 182 93 4 170 81 247 158 69 235 146 57 223 134 45 211 122 33 199 110 21 187 98 9 175 86 252 163 74 240 151 62 228 139 
0 5 10 15 20 25 30 35 40 45 50 55 60 65 70 75 80 85 90 95 100 105 110 115 120 125 130 135 140 145 150 155 160 165 170 175 180 185 190 195 200 205 210 215 220 225 230 235 240 245 250 0 5 10 15 20 25 30 35 40 45 50 55 60 65 70 75 80 85 90 95 100 105 110 115 120 125 130 135 140 145 150 155 160 165 170 175 180 185 190 195 200 205 210 215 220 225 230 235 240 245 250 0 5 10 15 20 25 30 35 40 45 50 55 60 65 70 75 80 85 90 95 100 105 110 115 120 125 130 135 140 145 150 155 160 165 170 175 180 185 190 195 200 205 210 215 220 225 230 235 240 245 250 0 5 10 15 20 25 30 35 40 45 50 55 60 65 70 75 80 85 90 95 100 105 110 115 120 125 130 135 140 145 150 155 160 165 170 175 180 185 190 195 200 205 210 215 220 225 230 
0 99 198 42 141 240 84 183 27 126 225 69 168 12 111 210 54 153 252 96 195 39 138 237 81 180 24 123 222 66 165 9 108 207 51 150 249 93 192 36 135 234 78 177 21 120 219 63 162 6 105 204 48 147 246 90 189 33 132 231 75 174 18 117 216 60 159 3 102 201 45 144 243 87 186 30 129 228 72 171 15 114 213 57 156 0 99 198 42 141 240 84 183 27 126 225 69 168 12 111 210 54 153 252 96 195 39 138 237 81 180 24 123 222 66 165 9 108 207 51 150 249 93 192 36 135 234 78 177 21 120 219 63 162 6 105 204 48 147 246 90 189 33 132 231 75 174 18 117 216 60 159 3 102 201 45 144 243 87 186 30 129 228 72 171 15 114 213 57 156 0 99 198 42 141 240 84 183 27 126 225 69 168 12 111 210 54 153 252 96 195 39 138 237 81 180 24 123 222 66 
0 193 131 69 7 200 138 76 14 207 145 83 21 214 152 90 28 221 159 97 35 228 166 104 42 235 173 111 49 242 180 118 56 249 187 125 63 1 194 132 70 8 201 139 77 15 208 146 84 22 215 153 91 29 222 160 98 36 229 167 105 43 236 174 112 50 243 181 119 57 250 188 126 64 2 195 133 71 9 202 140 78 16 209 147 85 23 216 154 92 30 223 161 99 37 230 168 106 44 237 175 113 51 244 182 120 58 251 189 127 65 3 196 134 72 10 203 141 79 17 210 148 86 24 217 155 93 31 224 162 100 38 231 169 107 45 238 176 114 52 245 183 121 59 252 190 128 66 4 197 135 73 11 204 142 80 18 211 149 87 25 218 156 94 32 225 163 101 39 232 170 108 46 239 177 115 53 246 184 122 60 253 191 129 67 5 198 136 74 12 205 143 81 19 212 150 88 26 219 157 
0 32 64 96 128 160 192 224 1 33 65 97 129 161 193 225 2 34 66 98 130 162 194 226 3 35 67 99 131 163 195 227 4 36 68 100 132 164 196 228 5 37 69 101 133 165 197 229 6 38 70 102 134 166 198 230 7 39 71 103 135 167 199 231 8 40 72 104 136 168 200 232 9 41 73 105 137 169 201 233 10 42 74 106 138 170 202 234 11 43 75 107 139 171 203 235 12 44 76 108 140 172 204 236 13 45 77 109 141 173 205 237 14 46 78 110 142 174 206 238 15 47 79 111 143 175 207 239 16 48 80 112 144 176 208 240 17 49 81 113 145 177 209 241 18 50 82 114 146 178 210 242 19 51 83 115 147 179 211 243 20 52 84 116 148 180 212 244 21 53 85 117 149 181 213 245 22 54 86 118 150 182 214 246 23 55 87 119 151 183 215 247 24 56 88 120 152 184 216 248 
0 126 252 123 249 120 246 117 243 114 240 111 237 108 234 105 231 102 228 99 225 96 222 93 219 90 216 87 213 84 210 81 207 78 204 75 201 72 198 69 195 66 192 63 189 60 186 57 183 54 180 51 177 48 174 45 171 42 168 39 165 36 162 33 159 30 156 27 153 24 150 21 147 18 144 15 141 12 138 9 135 6 132 3 129 0 126 252 123 249 120 246 117 243 114 240 111 237 108 234 105 231 102 228 99 225 96 222 93 219 90 216 87 213 84 210 81 207 78 204 75 201 72 198 69 195 66 192 63 189 60 186 57 183 54 180 51 177 48 174 45 171 42 168 39 165 36 162 33 159 30 156 27 153 24 150 21 147 18 144 15 141 12 138 9 135 6 132 3 129 0 126 252 123 249 120 246 117 243 114 240 111 237 108 234 105 231 102 228 99 225 96 222 93 219 90 216 87 213 84 
0 220 185 150 115 80 45 10 230 195 160 125 90 55 20 240 205 170 135 100 65 30 250 215 180 145 110 75 40 5 225 190 155 120 85 50 15 235 200 165 130 95 60 25 245 210 175 140 105 70 35 0 220 185 150 115 80 45 10 230 195 160 125 90 55 20 240 205 170 135 100 65 30 250 215 180 145 110 75 40 5 225 190 155 120 85 50 15 235 200 165 130 95 60 25 245 210 175 140 105 70 35 0 220 185 150 115 80 45 10 230 195 160 125 90 55 20 240 205 170 135 100 65 30 250 215 180 145 110 75 40 5 225 190 155 120 85 50 15 235 200 165 130 95 60 25 245 210 175 140 105 70 35 0 220 185 150 115 80 45 10 230 195 160 125 90 55 20 240 205 170 135 100 65 30 250 215 180 145 110 75 40 5 225 190 155 120 85 50 15 235 200 165 130 95 60 25 245 210 175 
0 59 118 177 236 40 99 158 217 21 80 139 198 2 61 120 179 238 42 101 160 219 23 82 141 200 4 63 122 181 240 44 103 162 221 25 84 143 202 6 65 124 183 242 46 105 164 223 27 86 145 204 8 67 126 185 244 48 107 166 225 29 88 147 206 10 69 128 187 246 50 109 168 227 31 90 149 208 12 71 130 189 248 52 111 170 229 33 92 151 210 14 73 132 191 250 54 113 172 231 35 94 153 212 16 75 134 193 252 56 115 174 233 37 96 155 214 18 77 136 195 254 58 117 176 235 39 98 157 216 20 79 138 197 1 60 119 178 237 41 100 159 218 22 81 140 199 3 62 121 180 239 43 102 161 220 24 83 142 201 5 64 123 182 241 45 104 163 222 26 85 144 203 7 66 125 184 243 47 106 165 224 28 87 146 205 9 68 127 186 245 49 108 167 226 30 89 148 207 11 
0 153 51 204 102 0 153 51 204 102 0 153 51 204 102 0 153 51 204 102 0 153 51 204 102 0 153 51 204 102 0 153 51 204 102 0 153 51 204 102 0 153 51 204 102 0 153 51 204 102 0 153 51 204 102 0 153 51 204 102 0 153 51 204 102 0 153 51 204 102 0 153 51 204 102 0 153 51 204 102 0 153 51 204 102 0 153 51 204 102 0 153 51 204 102 0 153 51 204 102 0 153 51 204 102 0 153 51 204 102 0 153 51 204 102 0 153 51 204 102 0 153 51 204 102 0 153 51 204 102 0 153 51 204 102 0 153 51 204 102 0 153 51 204 102 0 153 51 204 102 0 153 51 204 102 0 153 51 204 102 0 153 51 204 102 0 153 51 204 102 0 153 51 204 102 0 153 51 204 102 0 153 51 204 102 0 153 51 204 102 0 153 51 204 102 0 153 51 204 102 
0 247 239 231 223 215 207 199 191 183 175 167 159 151 143 135 127 119 111 103 95 87 79 71 63 55 47 39 31 23 15 7 254 246 238 230 222 214 206 198 190 182 174 166 158 150 142 134 126 118 110 102 94 86 78 70 62 54 46 38 30 22 14 6 253 245 237 229 221 213 205 197 189 181 173 165 157 149 141 133 125 117 109 101 93 85 77 69 61 53 45 37 29 21 13 5 252 244 236 228 220 212 204 196 188 180 172 164 156 148 140 132 124 116 108 100 92 84 76 68 60 52 44 36 28 20 12 4 251 243 235 227 219 211 203 195 187 179 171 163 155 147 139 131 123 115 107 99 91 83 75 67 59 51 43 35 27 19 11 3 250 242 234 226 218 210 202 194 186 178 170 162 154 146 138 130 122 114 106 98 90 82 74 66 58 50 42 34 26 18 10 2 249 241 233 225 217 209 201 193 
0 86 172 3 89 175 6 92 178 9 95 181 12 98 184 15 101 187 18 104 190 21 107 193 24 110 196 27 113 199 30 116 202 33 119 205 36 122 208 39 125 211 42 128 214 45 131 217 48 134 220 51 137 223 54 140 226 57 143 229 60 146 232 63 149 235 66 152 238 69 155 241 72 158 244 75 161 247 78 164 250 81 167 253 84 170 1 87 173 4 90 176 7 93 179 10 96 182 13 99 185 16 102 188 19 105 191 22 108 194 25 111 197 28 114 200 31 117 203 34 120 206 37 123 209 40 126 212 43 129 215 46 132 218 49 135 221 52 138 224 55 141 227 58 144 230 61 147 233 64 150 236 67 153 239 70 156 242 73 159 245 76 162 248 79 165 251 82 168 254 85 171 2 88 174 5 91 177 8 94 180 11 97 183 14 100 186 17 103 189 20 106 192 23 109 195 26 112 198 29 
0 180 105 30 210 135 60 240 165 90 15 195 120 45 225 150 75 0 180 105 30 210 135 60 240 165 90 15 195 120 45 225 150 75 0 180 105 30 210 135 60 240 165 90 15 195 120 45 225 150 75 0 180 105 30 210 135 60 240 165 90 15 195 120 45 225 150 75 0 180 105 30 210 135 60 240 165 90 15 195 120 45 225 150 75 0 180 105 30 210 135 60 240 165 90 15 195 120 45 225 150 75 0 180 105 30 210 135 60 240 165 90 15 195 120 45 225 150 75 0 180 105 30 210 135 60 240 165 90 15 195 120 45 225 150 75 0 180 105 30 210 135 60 240 165 90 15 195 120 45 225 150 75 0 180 105 30 210 135 60 240 165 90 15 195 120 45 225 150 75 0 180 105 30 210 135 60 240 165 90 15 195 120 45 225 150 75 0 180 105 30 210 135 60 240 165 90 15 195 120 
0 19 38 57 76 95 114 133 152 171 190 209 228 247 11 30 49 68 87 106 125 144 163 182 201 220 239 3 22 41 60 79 98 117 136 155 174 193 212 231 250 14 33 52 71 90 109 128 147 166 185 204 223 242 6 25 44 63 82 101 120 139 158 177 196 215 234 253 17 36 55 74 93 112 131 150 169 188 207 226 245 9 28 47 66 85 104 123 142 161 180 199 218 237 1 20 39 58 77 96 115 134 153 172 191 210 229 248 12 31 50 69 88 107 126 145 164 183 202 221 240 4 23 42 61 80 99 118 137 156 175 194 213 232 251 15 34 53 72 91 110 129 148 167 186 205 224 243 7 26 45 64 83 102 121 140 159 178 197 216 235 254 18 37 56 75 94 113 132 151 170 189 208 227 246 10 29 48 67 86 105 124 143 162 181 200 219 238 2 21 40 59 78 97 116 135 154 173 192 211 
0 113 226 84 197 55 168 26 139 252 110 223 81 194 52 165 23 136 249 107 220 78 191 49 162 20 133 246 104 217 75 188 46 159 17 130 243 101 214 72 185 43 156 14 127 240 98 211 69 182 40 153 11 124 237 95 208 66 179 37 150 8 121 234 92 205 63 176 34 147 5 118 231 89 202 60 173 31 144 2 115 228 86 199 57 170 28 141 254 112 225 83 196 54 167 25 138 251 109 222 80 193 51 164 22 135 248 106 219 77 190 48 161 19 132 245 103 216 74 187 45 158 16 129 242 100 213 71 184 42 155 13 126 239 97 210 68 181 39 152 10 123 236 94 207 65 178 36 149 7 120 233 91 204 62 175 33 146 4 117 230 88 201 59 172 30 143 1 114 227 85 198 56 169 27 140 253 111 224 82 195 53 166 24 137 250 108 221 79 192 50 163 21 134 247 105 218 76 189 47 
0 207 159 111 63 15 222 174 126 78 30 237 189 141 93 45 252 204 156 108 60 12 219 171 123 75 27 234 186 138 90 42 249 201 153 105 57 9 216 168 120 72 24 231 183 135 87 39 246 198 150 102 54 6 213 165 117 69 21 228 180 132 84 36 243 195 147 99 51 3 210 162 114 66 18 225 177 129 81 33 240 192 144 96 48 0 207 159 111 63 15 222 174 126 78 30 237 189 141 93 45 252 204 156 108 60 12 219 171 123 75 27 234 186 138 90 42 249 201 153 105 57 9 216 168 120 72 24 231 183 135 87 39 246 198 150 102 54 6 213 165 117 69 21 228 180 132 84 36 243 195 147 99 51 3 210 162 114 66 18 225 177 129 81 33 240 192 144 96 48 0 207 159 111 63 15 222 174 126 78 30 237 189 141 93 45 252 204 156 108 60 12 219 171 123 75 27 234 186 138 
0 46 92 138 184 230 21 67 113 159 205 251 42 88 134 180 226 17 63 109 155 201 247 38 84 130 176 222 13 59 105 151 197 243 34 80 126 172 218 9 55 101 147 193 239 30 76 122 168 214 5 51 97 143 189 235 26 72 118 164 210 1 47 93 139 185 231 22 68 114 160 206 252 43 89 135 181 227 18 64 110 156 202 248 39 85 131 177 223 14 60 106 152 198 244 35 81 127 173 219 10 56 102 148 194 240 31 77 123 169 215 6 52 98 144 190 236 27 73 119 165 211 2 48 94 140 186 232 23 69 115 161 207 253 44 90 136 182 228 19 65 111 157 203 249 40 86 132 178 224 15 61 107 153 199 245 36 82 128 174 220 11 57 103 149 195 241 32 78 124 170 216 7 53 99 145 191 237 28 74 120 166 212 3 49 95 141 187 233 24 70 116 162 208 254 45 91 137 183 229 
0 140 25 165 50 190 75 215 100 240 125 10 150 35 175 60 200 85 225 110 250 135 20 160 45 185 70 210 95 235 120 5 145 30 170 55 195 80 220 105 245 130 15 155 40 180 65 205 90 230 115 0 140 25 165 50 190 75 215 100 240 125 10 150 35 175 60 200 85 225 110 250 135 20 160 45 185 70 210 95 235 120 5 145 30 170 55 195 80 220 105 245 130 15 155 40 180 65 205 90 230 115 0 140 25 165 50 190 75 215 100 240 125 10 150 35 175 60 200 85 225 110 250 135 20 160 45 185 70 210 95 235 120 5 145 30 170 55 195 80 220 105 245 130 15 155 40 180 65 205 90 230 115 0 140 25 165 50 190 75 215 100 240 125 10 150 35 175 60 200 85 225 110 250 135 20 160 45 185 70 210 95 235 120 5 145 30 170 55 195 80 220 105 245 130 15 155 40 180 65 
0 234 213 192 171 150 129 108 87 66 45 24 3 237 216 195 174 153 132 111 90 69 48 27 6 240 219 198 177 156 135 114 93 72 51 30 9 243 222 201 180 159 138 117 96 75 54 33 12 246 225 204 183 162 141 120 99 78 57 36 15 249 228 207 186 165 144 123 102 81 60 39 18 252 231 210 189 168 147 126 105 84 63 42 21 0 234 213 192 171 150 129 108 87 66 45 24 3 237 216 195 174 153 132 111 90 69 48 27 6 240 219 198 177 156 135 114 93 72 51 30 9 243 222 201 180 159 138 117 96 75 54 33 12 246 225 204 183 162 141 120 99 78 57 36 15 249 228 207 186 165 144 123 102 81 60 39 18 252 231 210 189 168 147 126 105 84 63 42 21 0 234 213 192 171 150 129 108 87 66 45 24 3 237 216 195 174 153 132 111 90 69 48 27 6 240 219 198 177 156 
0 73 146 219 37 110 183 1 74 147 220 38 111 184 2 75 148 221 39 112 185 3 76 149 222 40 113 186 4 77 150 223 41 114 187 5 78 151 224 42 115 188 6 79 152 225 43 116 189 7 80 153 226 44 117 190 8 81 154 227 45 118 191 9 82 155 228 46 119 192 10 83 156 229 47 120 193 11 84 157 230 48 121 194 12 85 158 231 49 122 195 13 86 159 232 50 123 196 14 87 160 233 51 124 197 15 88 161 234 52 125 198 16 89 162 235 53 126 199 17 90 163 236 54 127 200 18 91 164 237 55 128 201 19 92 165 238 56 129 202 20 93 166 239 57 130 203 21 94 167 240 58 131 204 22 95 168 241 59 132 205 23 96 169 242 60 133 206 24 97 170 243 61 134 207 25 98 171 244 62 135 208 26 99 172 245 63 136 209 27 100 173 246 64 137 210 28 101 174 247 
0 167 79 246 158 70 237 149 61 228 140 52 219 131 43 210 122 34 201 113 25 192 104 16 183 95 7 174 86 253 165 77 244 156 68 235 147 59 226 138 50 217 129 41 208 120 32 199 111 23 190 102 14 181 93 5 172 84 251 163 75 242 154 66 233 145 57 224 136 48 215 127 39 206 118 30 197 109 21 188 100 12 179 91 3 170 82 249 161 73 240 152 64 231 143 55 222 134 46 213 125 37 204 116 28 195 107 19 186 98 10 177 89 1 168 80 247 159 71 238 150 62 229 141 53 220 132 44 211 123 35 202 114 26 193 105 17 184 96 8 175 87 254 166 78 245 157 69 236 148 60 227 139 51 218 130 42 209 121 33 200 112 24 191 103 15 182 94 6 173 85 252 164 76 243 155 67 234 146 58 225 137 49 216 128 40 207 119 31 198 110 22 189 101 13 180 92 4 171 83 
0 6 12 18 24 30 36 42 48 54 60 66 72 78 84 90 96 102 108 114 120 126 132 138 144 150 156 162 168 174 180 186 192 198 204 210 216 222 228 234 240 246 252 3 9 15 21 27 33 39 45 51 57 63 69 75 81 87 93 99 105 111 117 123 129 135 141 147 153 159 165 171 177 183 189 195 201 207 213 219 225 231 237 243 249 0 6 12 18 24 30 36 42 48 54 60 66 72 78 84 90 96 102 108 114 120 126 132 138 144 150 156 162 168 174 180 186 192 198 204 210 216 222 228 234 240 246 252 3 9 15 21 27 33 39 45 51 57 63 69 75 81 87 93 99 105 111 117 123 129 135 141 147 153 159 165 171 177 183 189 195 201 207 213 219 225 231 237 243 249 0 6 12 18 24 30 36 42 48 54 60 66 72 78 84 90 96 102 108 114 120 126 132 138 144 150 156 162 168 174 
0 100 200 45 145 245 90 190 35 135 235 80 180 25 125 225 70 170 15 115 215 60 160 5 105 205 50 150 250 95 195 40 140 240 85 185 30 130 230 75 175 20 120 220 65 165 10 110 210 55 155 0 100 200 45 145 245 90 190 35 135 235 80 180 25 125 225 70 170 15 115 215 60 160 5 105 205 50 150 250 95 195 40 140 240 85 185 30 130 230 75 175 20 120 220 65 165 10 110 210 55 155 0 100 200 45 145 245 90 190 35 135 235 80 180 25 125 225 70 170 15 115 215 60 160 5 105 205 50 150 250 95 195 40 140 240 85 185 30 130 230 75 175 20 120 220 65 165 10 110 210 55 155 0 100 200 45 145 245 90 190 35 135 235 80 180 25 125 225 70 170 15 115 215 60 160 5 105 205 50 150 250 95 195 40 140 240 85 185 30 130 230 75 175 20 120 220 65 165 10 
0 194 133 72 11 205 144 83 22 216 155 94 33 227 166 105 44 238 177 116 55 249 188 127 66 5 199 138 77 16 210 149 88 27 221 160 99 38 232 171 110 49 243 182 121 60 254 193 132 71 10 204 143 82 21 215 154 93 32 226 165 104 43 237 176 115 54 248 187 126 65 4 198 137 76 15 209 148 87 26 220 159 98 37 231 170 109 48 242 181 120 59 253 192 131 70 9 203 142 81 20 214 153 92 31 225 164 103 42 236 175 114 53 247 186 125 64 3 197 136 75 14 208 147 86 25 219 158 97 36 230 169 108 47 241 180 119 58 252 191 130 69 8 202 141 80 19 213 152 91 30 224 163 102 41 235 174 113 52 246 185 124 63 2 196 135 74 13 207 146 85 24 218 157 96 35 229 168 107 46 240 179 118 57 251 190 129 68 7 201 140 79 18 212 151 90 29 223 162 101 
0 33 66 99 132 165 198 231 9 42 75 108 141 174 207 240 18 51 84 117 150 183 216 249 27 60 93 126 159 192 225 3 36 69 102 135 168 201 234 12 45 78 111 144 177 210 243 21 54 87 120 153 186 219 252 30 63 96 129 162 195 228 6 39 72 105 138 171 204 237 15 48 81 114 147 180 213 246 24 57 90 123 156 189 222 0 33 66 99 132 165 198 231 9 42 75 108 141 174 207 240 18 51 84 117 150 183 216 249 27 60 93 126 159 192 225 3 36 69 102 135 168 201 234 12 45 78 111 144 177 210 243 21 54 87 120 153 186 219 252 30 63 96 129 162 195 228 6 39 72 105 138 171 204 237 15 48 81 114 147 180 213 246 24 57 90 123 156 189 222 0 33 66 99 132 165 198 231 9 42 75 108 141 174 207 240 18 51 84 117 150 183 216 249 27 60 93 126 159 192 
0 127 254 126 253 125 252 124 251 123 250 122 249 121 248 120 247 119 246 118 245 117 244 116 243 115 242 114 241 113 240 112 239 111 238 110 237 109 236 108 235 107 234 106 233 105 232 104 231 103 230 102 229 101 228 100 227 99 226 98 225 97 224 96 223 95 222 94 221 93 220 92 219 91 218 90 217 89 216 88 215 87 214 86 213 85 212 84 211 83 210 82 209 81 208 80 207 79 206 78 205 77 204 76 203 75 202 74 201 73 200 72 199 71 198 70 197 69 196 68 195 67 194 66 193 65 192 64 191 63 190 62 189 61 188 60 187 59 186 58 185 57 184 56 183 55 182 54 181 53 180 52 179 51 178 50 177 49 176 48 175 47 174 46 173 45 172 44 171 43 170 42 169 41 168 40 167 39 166 38 165 37 164 36 163 35 162 34 161 33 160 32 159 31 158 30 157 29 156 28 
0 221 187 153 119 85 51 17 238 204 170 136 102 68 34 0 221 187 153 119 85 51 17 238 204 170 136 102 68 34 0 221 187 153 119 85 51 17 238 204 170 136 102 68 34 0 221 187 153 119 85 51 17 238 204 170 136 102 68 34 0 221 187 153 119 85 51 17 238 204 170 136 102 68 34 0 221 187 153 119 85 51 17 238 204 170 136 102 68 34 0 221 187 153 119 85 51 17 238 204 170 136 102 68 34 0 221 187 153 119 85 51 17 238 204 170 136 102 68 34 0 221 187 153 119 85 51 17 238 204 170 136 102 68 34 0 221 187 153 119 85 51 17 238 204 170 136 102 68 34 0 221 187 153 119 85 51 17 238 204 170 136 102 68 34 0 221 187 153 119 85 51 17 238 204 170 136 102 68 34 0 221 187 153 119 85 51 17 238 204 170 136 102 68 34 0 221 187 153 119 
0 60 120 180 240 45 105 165 225 30 90 150 210 15 75 135 195 0 60 120 180 240 45 105 165 225 30 90 150 210 15 75 135 195 0 60 120 180 240 45 105 165 225 30 90 150 210 15 75 135 195 0 60 120 180 240 45 105 165 225 30 90 150 210 15 75 135 195 0 60 120 180 240 45 105 165 225 30 90 150 210 15 75 135 195 0 60 120 180 240 45 105 165 225 30 90 150 210 15 75 135 195 0 60 120 180 240 45 105 165 225 30 90 150 210 15 75 135 195 0 60 120 180 240 45 105 165 225 30 90 150 210 15 75 135 195 0 60 120 180 240 45 105 165 225 30 90 150 210 15 75 135 195 0 60 120 180 240 45 105 165 225 30 90 150 210 15 75 135 195 0 60 120 180 240 45 105 165 225 30 90 150 210 15 75 135 195 0 60 120 180 240 45 105 165 225 30 90 150 210 
0 154 53 207 106 5 159 58 212 111 10 164 63 217 116 15 169 68 222 121 20 174 73 227 126 25 179 78 232 131 30 184 83 237 136 35 189 88 242 141 40 194 93 247 146 45 199 98 252 151 50 204 103 2 156 55 209 108 7 161 60 214 113 12 166 65 219 118 17 171 70 224 123 22 176 75 229 128 27 181 80 234 133 32 186 85 239 138 37 191 90 244 143 42 196 95 249 148 47 201 100 254 153 52 206 105 4 158 57 211 110 9 163 62 216 115 14 168 67 221 120 19 173 72 226 125 24 178 77 231 130 29 183 82 236 135 34 188 87 241 140 39 193 92 246 145 44 198 97 251 150 49 203 102 1 155 54 208 107 6 160 59 213 112 11 165 64 218 117 16 170 69 223 122 21 175 74 228 127 26 180 79 233 132 31 185 84 238 137 36 190 89 243 142 41 195 94 248 147 46 
0 248 241 234 227 220 213 206 199 192 185 178 171 164 157 150 143 136 129 122 115 108 101 94 87 80 73 66 59 52 45 38 31 24 17 10 3 251 244 237 230 223 216 209 202 195 188 181 174 167 160 153 146 139 132 125 118 111 104 97 90 83 76 69 62 55 48 41 34 27 20 13 6 254 247 240 233 226 219 212 205 198 191 184 177 170 163 156 149 142 135 128 121 114 107 100 93 86 79 72 65 58 51 44 37 30 23 16 9 2 250 243 236 229 222 215 208 201 194 187 180 173 166 159 152 145 138 131 124 117 110 103 96 89 82 75 68 61 54 47 40 33 26 19 12 5 253 246 239 232 225 218 211 204 197 190 183 176 169 162 155 148 141 134 127 120 113 106 99 92 85 78 71 64 57 50 43 36 29 22 15 8 1 249 242 235 228 221 214 207 200 193 186 179 172 165 158 151 144 137 
0 87 174 6 93 180 12 99 186 18 105 192 24 111 198 30 117 204 36 123 210 42 129 216 48 135 222 54 141 228 60 147 234 66 153 240 72 159 246 78 165 252 84 171 3 90 177 9 96 183 15 102 189 21 108 195 27 114 201 33 120 207 39 126 213 45 132 219 51 138 225 57 144 231 63 150 237 69 156 243 75 162 249 81 168 0 87 174 6 93 180 12 99 186 18 105 192 24 111 198 30 117 204 36 123 210 42 129 216 48 135 222 54 141 228 60 147 234 66 153 240 72 159 246 78 165 252 84 171 3 90 177 9 96 183 15 102 189 21 108 195 27 114 201 33 120 207 39 126 213 45 132 219 51 138 225 57 144 231 63 150 237 69 156 243 75 162 249 81 168 0 87 174 6 93 180 12 99 186 18 105 192 24 111 198 30 117 204 36 123 210 42 129 216 48 135 222 54 141 228 
0 181 107 33 214 140 66 247 173 99 25 206 132 58 239 165 91 17 198 124 50 231 157 83 9 190 116 42 223 149 75 1 182 108 34 215 141 67 248 174 100 26 207 133 59 240 166 92 18 199 125 51 232 158 84 10 191 117 43 224 150 76 2 183 109 35 216 142 68 249 175 101 27 208 134 60 241 167 93 19 200 126 52 233 159 85 11 192 118 44 225 151 77 3 184 110 36 217 143 69 250 176 102 28 209 135 61 242 168 94 20 201 127 53 234 160 86 12 193 119 45 226 152 78 4 185 111 37 218 144 70 251 177 103 29 210 136 62 243 169 95 21 202 128 54 235 161 87 13 194 120 46 227 153 79 5 186 112 38 219 145 71 252 178 104 30 211 137 63 244 170 96 22 203 129 55 236 162 88 14 195 121 47 228 154 80 6 187 113 39 220 146 72 253 179 105 31 212 138 64 
0 20 40 60 80 100 120 140 160 180 200 220 240 5 25 45 65 85 105 125 145 165 185 205 225 245 10 30 50 70 90 110 130 150 170 190 210 230 250 15 35 55 75 95 115 135 155 175 195 215 235 0 20 40 60 80 100 120 140 160 180 200 220 240 5 25 45 65 85 105 125 145 165 185 205 225 245 10 30 50 70 90 110 130 150 170 190 210 230 250 15 35 55 75 95 115 135 155 175 195 215 235 0 20 40 60 80 100 120 140 160 180 200 220 240 5 25 45 65 85 105 125 145 165 185 205 225 245 10 30 50 70 90 110 130 150 170 190 210 230 250 15 35 55 75 95 115 135 155 175 195 215 235 0 20 40 60 80 100 120 140 160 180 200 220 240 5 25 45 65 85 105 125 145 165 185 205 225 245 10 30 50 70 90 110 130 150 170 190 210 230 250 15 35 55 75 95 115 135 155 
0 114 228 87 201 60 174 33 147 6 120 234 93 207 66 180 39 153 12 126 240 99 213 72 186 45 159 18 132 246 105 219 78 192 51 165 24 138 252 111 225 84 198 57 171 30 144 3 117 231 90 204 63 177 36 150 9 123 237 96 210 69 183 42 156 15 129 243 102 216 75 189 48 162 21 135 249 108 222 81 195 54 168 27 141 0 114 228 87 201 60 174 33 147 6 120 234 93 207 66 180 39 153 12 126 240 99 213 72 186 45 159 18 132 246 105 219 78 192 51 165 24 138 252 111 225 84 198 57 171 30 144 3 117 231 90 204 63 177 36 150 9 123 237 96 210 69 183 42 156 15 129 243 102 216 75 189 48 162 21 135 249 108 222 81 195 54 168 27 141 0 114 228 87 201 60 174 33 147 6 120 234 93 207 66 180 39 153 12 126 240 99 213 72 186 45 159 18 132 246 
0 208 161 114 67 20 228 181 134 87 40 248 201 154 107 60 13 221 174 127 80 33 241 194 147 100 53 6 214 167 120 73 26 234 187 140 93 46 254 207 160 113 66 19 227 180 133 86 39 247 200 153 106 59 12 220 173 126 79 32 240 193 146 99 52 5 213 166 119 72 25 233 186 139 92 45 253 206 159 112 65 18 226 179 132 85 38 246 199 152 105 58 11 219 172 125 78 31 239 192 145 98 51 4 212 165 118 71 24 232 185 138 91 44 252 205 158 111 64 17 225 178 131 84 37 245 198 151 104 57 10 218 171 124 77 30 238 191 144 97 50 3 211 164 117 70 23 231 184 137 90 43 251 204 157 110 63 16 224 177 130 83 36 244 197 150 103 56 9 217 170 123 76 29 237 190 143 96 49 2 210 163 116 69 22 230 183 136 89 42 250 203 156 109 62 15 223 176 129 82 
0 47 94 141 188 235 27 74 121 168 215 7 54 101 148 195 242 34 81 128 175 222 14 61 108 155 202 249 41 88 135 182 229 21 68 115 162 209 1 48 95 142 189 236 28 75 122 169 216 8 55 102 149 196 243 35 82 129 176 223 15 62 109 156 203 250 42 89 136 183 230 22 69 116 163 210 2 49 96 143 190 237 29 76 123 170 217 9 56 103 150 197 244 36 83 130 177 224 16 63 110 157 204 251 43 90 137 184 231 23 70 117 164 211 3 50 97 144 191 238 30 77 124 171 218 10 57 104 151 198 245 37 84 131 178 225 17 64 111 158 205 252 44 91 138 185 232 24 71 118 165 212 4 51 98 145 192 239 31 78 125 172 219 11 58 105 152 199 246 38 85 132 179 226 18 65 112 159 206 253 45 92 139 186 233 25 72 119 166 213 5 52 99 146 193 240 32 79 126 173 
0 141 27 168 54 195 81 222 108 249 135 21 162 48 189 75 216 102 243 129 15 156 42 183 69 210 96 237 123 9 150 36 177 63 204 90 231 117 3 144 30 171 57 198 84 225 111 252 138 24 165 51 192 78 219 105 246 132 18 159 45 186 72 213 99 240 126 12 153 39 180 66 207 93 234 120 6 147 33 174 60 201 87 228 114 0 141 27 168 54 195 81 222 108 249 135 21 162 48 189 75 216 102 243 129 15 156 42 183 69 210 96 237 123 9 150 36 177 63 204 90 231 117 3 144 30 171 57 198 84 225 111 252 138 24 165 51 192 78 219 105 246 132 18 159 45 186 72 213 99 240 126 12 153 39 180 66 207 93 234 120 6 147 33 174 60 201 87 228 114 0 141 27 168 54 195 81 222 108 249 135 21 162 48 189 75 216 102 243 129 15 156 42 183 69 210 96 237 123 9 
0 235 215 195 175 155 135 115 95 75 55 35 15 250 230 210 190 170 150 130 110 90 70 50 30 10 245 225 205 185 165 145 125 105 85 65 45 25 5 240 220 200 180 160 140 120 100 80 60 40 20 0 235 215 195 175 155 135 115 95 75 55 35 15 250 230 210 190 170 150 130 110 90 70 50 30 10 245 225 205 185 165 145 125 105 85 65 45 25 5 240 220 200 180 160 140 120 100 80 60 40 20 0 235 215 195 175 155 135 115 95 75 55 35 15 250 230 210 190 170 150 130 110 90 70 50 30 10 245 225 205 185 165 145 125 105 85 65 45 25 5 240 220 200 180 160 140 120 100 80 60 40 20 0 235 215 195 175 155 135 115 95 75 55 35 15 250 230 210 190 170 150 130 110 90 70 50 30 10 245 225 205 185 165 145 125 105 85 65 45 25 5 240 220 200 180 160 140 120 100 
0 74 148 222 41 115 189 8 82 156 230 49 123 197 16 90 164 238 57 131 205 24 98 172 246 65 139 213 32 106 180 254 73 147 221 40 114 188 7 81 155 229 48 122 196 15 89 163 237 56 130 204 23 97 171 245 64 138 212 31 105 179 253 72 146 220 39 113 187 6 80 154 228 47 121 195 14 88 162 236 55 129 203 22 96 170 244 63 137 211 30 104 178 252 71 145 219 38 112 186 5 79 153 227 46 120 194 13 87 161 235 54 128 202 21 95 169 243 62 136 210 29 103 177 251 70 144 218 37 111 185 4 78 152 226 45 119 193 12 86 160 234 53 127 201 20 94 168 242 61 135 209 28 102 176 250 69 143 217 36 110 184 3 77 151 225 44 118 192 11 85 159 233 52 126 200 19 93 167 241 60 134 208 27 101 175 249 68 142 216 35 109 183 2 76 150 224 43 117 191 
0 168 81 249 162 75 243 156 69 237 150 63 231 144 57 225 138 51 219 132 45 213 126 39 207 120 33 201 114 27 195 108 21 189 102 15 183 96 9 177 90 3 171 84 252 165 78 246 159 72 240 153 66 234 147 60 228 141 54 222 135 48 216 129 42 210 123 36 204 117 30 198 111 24 192 105 18 186 99 12 180 93 6 174 87 0 168 81 249 162 75 243 156 69 237 150 63 231 144 57 225 138 51 219 132 45 213 126 39 207 120 33 201 114 27 195 108 21 189 102 15 183 96 9 177 90 3 171 84 252 165 78 246 159 72 240 153 66 234 147 60 228 141 54 222 135 48 216 129 42 210 123 36 204 117 30 198 111 24 192 105 18 186 99 12 180 93 6 174 87 0 168 81 249 162 75 243 156 69 237 150 63 231 144 57 225 138 51 219 132 45 213 126 39 207 120 33 201 114 27 
0 7 14 21 28 35 42 49 56 63 70 77 84 91 98 105 112 119 126 133 140 147 154 161 168 175 182 189 196 203 210 217 224 231 238 245 252 4 11 18 25 32 39 46 53 60 67 74 81 88 95 102 109 116 123 130 137 144 151 158 165 172 179 186 193 200 207 214 221 228 235 242 249 1 8 15 22 29 36 43 50 57 64 71 78 85 92 99 106 113 120 127 134 141 148 155 162 169 176 183 190 197 204 211 218 225 232 239 246 253 5 12 19 26 33 40 47 54 61 68 75 82 89 96 103 110 117 124 131 138 145 152 159 166 173 180 187 194 201 208 215 222 229 236 243 250 2 9 16 23 30 37 44 51 58 65 72 79 86 93 100 107 114 121 128 135 142 149 156 163 170 177 184 191 198 205 212 219 226 233 240 247 254 6 13 20 27 34 41 48 55 62 69 76 83 90 97 104 111 118 
0 101 202 48 149 250 96 197 43 144 245 91 192 38 139 240 86 187 33 134 235 81 182 28 129 230 76 177 23 124 225 71 172 18 119 220 66 167 13 114 215 61 162 8 109 210 56 157 3 104 205 51 152 253 99 200 46 147 248 94 195 41 142 243 89 190 36 137 238 84 185 31 132 233 79 180 26 127 228 74 175 21 122 223 69 170 16 117 218 64 165 11 112 213 59 160 6 107 208 54 155 1 102 203 49 150 251 97 198 44 145 246 92 193 39 140 241 87 188 34 135 236 82 183 29 130 231 77 178 24 125 226 72 173 19 120 221 67 168 14 115 216 62 163 9 110 211 57 158 4 105 206 52 153 254 100 201 47 148 249 95 196 42 143 244 90 191 37 138 239 85 186 32 133 234 80 181 27 128 229 75 176 22 123 224 70 171 17 118 219 65 166 12 113 214 60 161 7 108 209 
0 195 135 75 15 210 150 90 30 225 165 105 45 240 180 120 60 0 195 135 75 15 210 150 90 30 225 165 105 45 240 180 120 60 0 195 135 75 15 210 150 90 30 225 165 105 45 240 180 120 60 0 195 135 75 15 210 150 90 30 225 165 105 45 240 180 120 60 0 195 135 75 15 210 150 90 30 225 165 105 45 240 180 120 60 0 195 135 75 15 210 150 90 30 225 165 105 45 240 180 120 60 0 195 135 75 15 210 150 90 30 225 165 105 45 240 180 120 60 0 195 135 75 15 210 150 90 30 225 165 105 45 240 180 120 60 0 195 135 75 15 210 150 90 30 225 165 105 45 240 180 120 60 0 195 135 75 15 210 150 90 30 225 165 105 45 240 180 120 60 0 195 135 75 15 210 150 90 30 225 165 105 45 240 180 120 60 0 195 135 75 15 210 150 90 30 225 165 105 45 
0 34 68 102 136 170 204 238 17 51 85 119 153 187 221 0 34 68 102 136 170 204 238 17 51 85 119 153 187 221 0 34 68 102 136 170 204 238 17 51 85 119 153 187 221 0 34 68 102 136 170 204 238 17 51 85 119 153 187 221 0 34 68 102 136 170 204 238 17 51 85 119 153 187 221 0 34 68 102 136 170 204 238 17 51 85 119 153 187 221 0 34 68 102 136 170 204 238 17 51 85 119 153 187 221 0 34 68 102 136 170 204 238 17 51 85 119 153 187 221 0 34 68 102 136 170 204 238 17 51 85 119 153 187 221 0 34 68 102 136 170 204 238 17 51 85 119 153 187 221 0 34 68 102 136 170 204 238 17 51 85 119 153 187 221 0 34 68 102 136 170 204 238 17 51 85 119 153 187 221 0 34 68 102 136 170 204 238 17 51 85 119 153 187 221 0 34 68 102 136 
0 128 1 129 2 130 3 131 4 132 5 133 6 134 7 135 8 136 9 137 10 138 11 139 12 140 13 141 14 142 15 143 16 144 17 145 18 146 19 147 20 148 21 149 22 150 23 151 24 152 25 153 26 154 27 155 28 156 29 157 30 158 31 159 32 160 33 161 34 162 35 163 36 164 37 165 38 166 39 167 40 168 41 169 42 170 43 171 44 172 45 173 46 174 47 175 48 176 49 177 50 178 51 179 52 180 53 181 54 182 55 183 56 184 57 185 58 186 59 187 60 188 61 189 62 190 63 191 64 192 65 193 66 194 67 195 68 196 69 197 70 198 71 199 72 200 73 201 74 202 75 203 76 204 77 205 78 206 79 207 80 208 81 209 82 210 83 211 84 212 85 213 86 214 87 215 88 216 89 217 90 218 91 219 92 220 93 221 94 222 95 223 96 224 97 225 98 226 99 227 
0 222 189 156 123 90 57 24 246 213 180 147 114 81 48 15 237 204 171 138 105 72 39 6 228 195 162 129 96 63 30 252 219 186 153 120 87 54 21 243 210 177 144 111 78 45 12 234 201 168 135 102 69 36 3 225 192 159 126 93 60 27 249 216 183 150 117 84 51 18 240 207 174 141 108 75 42 9 231 198 165 132 99 66 33 0 222 189 156 123 90 57 24 246 213 180 147 114 81 48 15 237 204 171 138 105 72 39 6 228 195 162 129 96 63 30 252 219 186 153 120 87 54 21 243 210 177 144 111 78 45 12 234 201 168 135 102 69 36 3 225 192 159 126 93 60 27 249 216 183 150 117 84 51 18 240 207 174 141 108 75 42 9 231 198 165 132 99 66 33 0 222 189 156 123 90 57 24 246 213 180 147 114 81 48 15 237 204 171 138 105 72 39 6 228 195 162 129 96 63 
0 61 122 183 244 50 111 172 233 39 100 161 222 28 89 150 211 17 78 139 200 6 67 128 189 250 56 117 178 239 45 106 167 228 34 95 156 217 23 84 145 206 12 73 134 195 1 62 123 184 245 51 112 173 234 40 101 162 223 29 90 151 212 18 79 140 201 7 68 129 190 251 57 118 179 240 46 107 168 229 35 96 157 218 24 85 146 207 13 74 135 196 2 63 124 185 246 52 113 174 235 41 102 163 224 30 91 152 213 19 80 141 202 8 69 130 191 252 58 119 180 241 47 108 169 230 36 97 158 219 25 86 147 208 14 75 136 197 3 64 125 186 247 53 114 175 236 42 103 164 225 31 92 153 214 20 81 142 203 9 70 131 192 253 59 120 181 242 48 109 170 231 37 98 159 220 26 87 148 209 15 76 137 198 4 65 126 187 248 54 115 176 237 43 104 165 226 32 93 154 
0 155 55 210 110 10 165 65 220 120 20 175 75 230 130 30 185 85 240 140 40 195 95 250 150 50 205 105 5 160 60 215 115 15 170 70 225 125 25 180 80 235 135 35 190 90 245 145 45 200 100 0 155 55 210 110 10 165 65 220 120 20 175 75 230 130 30 185 85 240 140 40 195 95 250 150 50 205 105 5 160 60 215 115 15 170 70 225 125 25 180 80 235 135 35 190 90 245 145 45 200 100 0 155 55 210 110 10 165 65 220 120 20 175 75 230 130 30 185 85 240 140 40 195 95 250 150 50 205 105 5 160 60 215 115 15 170 70 225 125 25 180 80 235 135 35 190 90 245 145 45 200 100 0 155 55 210 110 10 165 65 220 120 20 175 75 230 130 30 185 85 240 140 40 195 95 250 150 50 205 105 5 160 60 215 115 15 170 70 225 125 25 180 80 235 135 35 190 90 245 
0 249 243 237 231 225 219 213 207 201 195 189 183 177 171 165 159 153 147 141 135 129 123 117 111 105 99 93 87 81 75 69 63 57 51 45 39 33 27 21 15 9 3 252 246 240 234 228 222 216 210 204 198 192 186 180 174 168 162 156 150 144 138 132 126 120 114 108 102 96 90 84 78 72 66 60 54 48 42 36 30 24 18 12 6 0 249 243 237 231 225 219 213 207 201 195 189 183 177 171 165 159 153 147 141 135 129 123 117 111 105 99 93 87 81 75 69 63 57 51 45 39 33 27 21 15 9 3 252 246 240 234 228 222 216 210 204 198 192 186 180 174 168 162 156 150 144 138 132 126 120 114 108 102 96 90 84 78 72 66 60 54 48 42 36 30 24 18 12 6 0 249 243 237 231 225 219 213 207 201 195 189 183 177 171 165 159 153 147 141 135 129 123 117 111 105 99 93 87 81 
0 88 176 9 97 185 18 106 194 27 115 203 36 124 212 45 133 221 54 142 230 63 151 239 72 160 248 81 169 2 90 178 11 99 187 20 108 196 29 117 205 38 126 214 47 135 223 56 144 232 65 153 241 74 162 250 83 171 4 92 180 13 101 189 22 110 198 31 119 207 40 128 216 49 137 225 58 146 234 67 155 243 76 164 252 85 173 6 94 182 15 103 191 24 112 200 33 121 209 42 130 218 51 139 227 60 148 236 69 157 245 78 166 254 87 175 8 96 184 17 105 193 26 114 202 35 123 211 44 132 220 53 141 229 62 150 238 71 159 247 80 168 1 89 177 10 98 186 19 107 195 28 116 204 37 125 213 46 134 222 55 143 231 64 152 240 73 161 249 82 170 3 91 179 12 100 188 21 109 197 30 118 206 39 127 215 48 136 224 57 145 233 66 154 242 75 163 251 84 172 
0 182 109 36 218 145 72 254 181 108 35 217 144 71 253 180 107 34 216 143 70 252 179 106 33 215 142 69 251 178 105 32 214 141 68 250 177 104 31 213 140 67 249 176 103 30 212 139 66 248 175 102 29 211 138 65 247 174 101 28 210 137 64 246 173 100 27 209 136 63 245 172 99 26 208 135 62 244 171 98 25 207 134 61 243 170 97 24 206 133 60 242 169 96 23 205 132 59 241 168 95 22 204 131 58 240 167 94 21 203 130 57 239 166 93 20 202 129 56 238 165 92 19 201 128 55 237 164 91 18 200 127 54 236 163 90 17 199 126 53 235 162 89 16 198 125 52 234 161 88 15 197 124 51 233 160 87 14 196 123 50 232 159 86 13 195 122 49 231 158 85 12 194 121 48 230 157 84 11 193 120 47 229 156 83 10 192 119 46 228 155 82 9 191 118 45 227 154 81 8 
0 21 42 63 84 105 126 147 168 189 210 231 252 18 39 60 81 102 123 144 165 186 207 228 249 15 36 57 78 99 120 141 162 183 204 225 246 12 33 54 75 96 117 138 159 180 201 222 243 9 30 51 72 93 114 135 156 177 198 219 240 6 27 48 69 90 111 132 153 174 195 216 237 3 24 45 66 87 108 129 150 171 192 213 234 0 21 42 63 84 105 126 147 168 189 210 231 252 18 39 60 81 102 123 144 165 186 207 228 249 15 36 57 78 99 120 141 162 183 204 225 246 12 33 54 75 96 117 138 159 180 201 222 243 9 30 51 72 93 114 135 156 177 198 219 240 6 27 48 69 90 111 132 153 174 195 216 237 3 24 45 66 87 108 129 150 171 192 213 234 0 21 42 63 84 105 126 147 168 189 210 231 252 18 39 60 81 102 123 144 165 186 207 228 249 15 36 57 78 99 
0 115 230 90 205 65 180 40 155 15 130 245 105 220 80 195 55 170 30 145 5 120 235 95 210 70 185 45 160 20 135 250 110 225 85 200 60 175 35 150 10 125 240 100 215 75 190 50 165 25 140 0 115 230 90 205 65 180 40 155 15 130 245 105 220 80 195 55 170 30 145 5 120 235 95 210 70 185 45 160 20 135 250 110 225 85 200 60 175 35 150 10 125 240 100 215 75 190 50 165 25 140 0 115 230 90 205 65 180 40 155 15 130 245 105 220 80 195 55 170 30 145 5 120 235 95 210 70 185 45 160 20 135 250 110 225 85 200 60 175 35 150 10 125 240 100 215 75 190 50 165 25 140 0 115 230 90 205 65 180 40 155 15 130 245 105 220 80 195 55 170 30 145 5 120 235 95 210 70 185 45 160 20 135 250 110 225 85 200 60 175 35 150 10 125 240 100 215 75 190 
0 209 163 117 71 25 234 188 142 96 50 4 213 167 121 75 29 238 192 146 100 54 8 217 171 125 79 33 242 196 150 104 58 12 221 175 129 83 37 246 200 154 108 62 16 225 179 133 87 41 250 204 158 112 66 20 229 183 137 91 45 254 208 162 116 70 24 233 187 141 95 49 3 212 166 120 74 28 237 191 145 99 53 7 216 170 124 78 32 241 195 149 103 57 11 220 174 128 82 36 245 199 153 107 61 15 224 178 132 86 40 249 203 157 111 65 19 228 182 136 90 44 253 207 161 115 69 23 232 186 140 94 48 2 211 165 119 73 27 236 190 144 98 52 6 215 169 123 77 31 240 194 148 102 56 10 219 173 127 81 35 244 198 152 106 60 14 223 177 131 85 39 248 202 156 110 64 18 227 181 135 89 43 252 206 160 114 68 22 231 185 139 93 47 1 210 164 118 72 26 
0 48 96 144 192 240 33 81 129 177 225 18 66 114 162 210 3 51 99 147 195 243 36 84 132 180 228 21 69 117 165 213 6 54 102 150 198 246 39 87 135 183 231 24 72 120 168 216 9 57 105 153 201 249 42 90 138 186 234 27 75 123 171 219 12 60 108 156 204 252 45 93 141 189 237 30 78 126 174 222 15 63 111 159 207 0 48 96 144 192 240 33 81 129 177 225 18 66 114 162 210 3 51 99 147 195 243 36 84 132 180 228 21 69 117 165 213 6 54 102 150 198 246 39 87 135 183 231 24 72 120 168 216 9 57 105 153 201 249 42 90 138 186 234 27 75 123 171 219 12 60 108 156 204 252 45 93 141 189 237 30 78 126 174 222 15 63 111 159 207 0 48 96 144 192 240 33 81 129 177 225 18 66 114 162 210 3 51 99 147 195 243 36 84 132 180 228 21 69 117 
0 142 29 171 58 200 87 229 116 3 145 32 174 61 203 90 232 119 6 148 35 177 64 206 93 235 122 9 151 38 180 67 209 96 238 125 12 154 41 183 70 212 99 241 128 15 157 44 186 73 215 102 244 131 18 160 47 189 76 218 105 247 134 21 163 50 192 79 221 108 250 137 24 166 53 195 82 224 111 253 140 27 169 56 198 85 227 114 1 143 30 172 59 201 88 230 117 4 146 33 175 62 204 91 233 120 7 149 36 178 65 207 94 236 123 10 152 39 181 68 210 97 239 126 13 155 42 184 71 213 100 242 129 16 158 45 187 74 216 103 245 132 19 161 48 190 77 219 106 248 135 22 164 51 193 80 222 109 251 138 25 167 54 196 83 225 112 254 141 28 170 57 199 86 228 115 2 144 31 173 60 202 89 231 118 5 147 34 176 63 205 92 234 121 8 150 37 179 66 208 
0 236 217 198 179 160 141 122 103 84 65 46 27 8 244 225 206 187 168 149 130 111 92 73 54 35 16 252 233 214 195 176 157 138 119 100 81 62 43 24 5 241 222 203 184 165 146 127 108 89 70 51 32 13 249 230 211 192 173 154 135 116 97 78 59 40 21 2 238 219 200 181 162 143 124 105 86 67 48 29 10 246 227 208 189 170 151 132 113 94 75 56 37 18 254 235 216 197 178 159 140 121 102 83 64 45 26 7 243 224 205 186 167 148 129 110 91 72 53 34 15 251 232 213 194 175 156 137 118 99 80 61 42 23 4 240 221 202 183 164 145 126 107 88 69 50 31 12 248 229 210 191 172 153 134 115 96 77 58 39 20 1 237 218 199 180 161 142 123 104 85 66 47 28 9 245 226 207 188 169 150 131 112 93 74 55 36 17 253 234 215 196 177 158 139 120 101 82 63 44 
0 75 150 225 45 120 195 15 90 165 240 60 135 210 30 105 180 0 75 150 225 45 120 195 15 90 165 240 60 135 210 30 105 180 0 75 150 225 45 120 195 15 90 165 240 60 135 210 30 105 180 0 75 150 225 45 120 195 15 90 165 240 60 135 210 30 105 180 0 75 150 225 45 120 195 15 90 165 240 60 135 210 30 105 180 0 75 150 225 45 120 195 15 90 165 240 60 135 210 30 105 180 0 75 150 225 45 120 195 15 90 165 240 60 135 210 30 105 180 0 75 150 225 45 120 195 15 90 165 240 60 135 210 30 105 180 0 75 150 225 45 120 195 15 90 165 240 60 135 210 30 105 180 0 75 150 225 45 120 195 15 90 165 240 60 135 210 30 105 180 0 75 150 225 45 120 195 15 90 165 240 60 135 210 30 105 180 0 75 150 225 45 120 195 15 90 165 240 60 135 
0 169 83 252 166 80 249 163 77 246 160 74 243 157 71 240 154 68 237 151 65 234 148 62 231 145 59 228 142 56 225 139 53 222 136 50 219 133 47 216 130 44 213 127 41 210 124 38 207 121 35 204 118 32 201 115 29 198 112 26 195 109 23 192 106 20 189 103 17 186 100 14 183 97 11 180 94 8 177 91 5 174 88 2 171 85 254 168 82 251 165 79 248 162 76 245 159 73 242 156 70 239 153 67 236 150 64 233 147 61 230 144 58 227 141 55 224 138 52 221 135 49 218 132 46 215 129 43 212 126 40 209 123 37 206 120 34 203 117 31 200 114 28 197 111 25 194 108 22 191 105 19 188 102 16 185 99 13 182 96 10 179 93 7 176 90 4 173 87 1 170 84 253 167 81 250 164 78 247 161 75 244 158 72 241 155 69 238 152 66 235 149 63 232 146 60 229 143 57 226 
0 8 16 24 32 40 48 56 64 72 80 88 96 104 112 120 128 136 144 152 160 168 176 184 192 200 208 216 224 232 240 248 1 9 17 25 33 41 49 57 65 73 81 89 97 105 113 121 129 137 145 153 161 169 177 185 193 201 209 217 225 233 241 249 2 10 18 26 34 42 50 58 66 74 82 90 98 106 114 122 130 138 146 154 162 170 178 186 194 202 210 218 226 234 242 250 3 11 19 27 35 43 51 59 67 75 83 91 99 107 115 123 131 139 147 155 163 171 179 187 195 203 211 219 227 235 243 251 4 12 20 28 36 44 52 60 68 76 84 92 100 108 116 124 132 140 148 156 164 172 180 188 196 204 212 220 228 236 244 252 5 13 21 29 37 45 53 61 69 77 85 93 101 109 117 125 133 141 149 157 165 173 181 189 197 205 213 221 229 237 245 253 6 14 22 30 38 46 54 62 
0 102 204 51 153 0 102 204 51 153 0 102 204 51 153 0 102 204 51 153 0 102 204 51 153 0 102 204 51 153 0 102 204 51 153 0 102 204 51 153 0 102 204 51 153 0 102 204 51 153 0 102 204 51 153 0 102 204 51 153 0 102 204 51 153 0 102 204 51 153 0 102 204 51 153 0 102 204 51 153 0 102 204 51 153 0 102 204 51 153 0 102 204 51 153 0 102 204 51 153 0 102 204 51 153 0 102 204 51 153 0 102 204 51 153 0 102 204 51 153 0 102 204 51 153 0 102 204 51 153 0 102 204 51 153 0 102 204 51 153 0 102 204 51 153 0 102 204 51 153 0 102 204 51 153 0 102 204 51 153 0 102 204 51 153 0 102 204 51 153 0 102 204 51 153 0 102 204 51 153 0 102 204 51 153 0 102 204 51 153 0 102 204 51 153 0 102 204 51 153 
0 196 137 78 19 215 156 97 38 234 175 116 57 253 194 135 76 17 213 154 95 36 232 173 114 55 251 192 133 74 15 211 152 93 34 230 171 112 53 249 190 131 72 13 209 150 91 32 228 169 110 51 247 188 129 70 11 207 148 89 30 226 167 108 49 245 186 127 68 9 205 146 87 28 224 165 106 47 243 184 125 66 7 203 144 85 26 222 163 104 45 241 182 123 64 5 201 142 83 24 220 161 102 43 239 180 121 62 3 199 140 81 22 218 159 100 41 237 178 119 60 1 197 138 79 20 216 157 98 39 235 176 117 58 254 195 136 77 18 214 155 96 37 233 174 115 56 252 193 134 75 16 212 153 94 35 231 172 113 54 250 191 132 73 14 210 151 92 33 229 170 111 52 248 189 130 71 12 208 149 90 31 227 168 109 50 246 187 128 69 10 206 147 88 29 225 166 107 48 244 
0 35 70 105 140 175 210 245 25 60 95 130 165 200 235 15 50 85 120 155 190 225 5 40 75 110 145 180 215 250 30 65 100 135 170 205 240 20 55 90 125 160 195 230 10 45 80 115 150 185 220 0 35 70 105 140 175 210 245 25 60 95 130 165 200 235 15 50 85 120 155 190 225 5 40 75 110 145 180 215 250 30 65 100 135 170 205 240 20 55 90 125 160 195 230 10 45 80 115 150 185 220 0 35 70 105 140 175 210 245 25 60 95 130 165 200 235 15 50 85 120 155 190 225 5 40 75 110 145 180 215 250 30 65 100 135 170 205 240 20 55 90 125 160 195 230 10 45 80 115 150 185 220 0 35 70 105 140 175 210 245 25 60 95 130 165 200 235 15 50 85 120 155 190 225 5 40 75 110 145 180 215 250 30 65 100 135 170 205 240 20 55 90 125 160 195 230 10 45 80 
0 129 3 132 6 135 9 138 12 141 15 144 18 147 21 150 24 153 27 156 30 159 33 162 36 165 39 168 42 171 45 174 48 177 51 180 54 183 57 186 60 189 63 192 66 195 69 198 72 201 75 204 78 207 81 210 84 213 87 216 90 219 93 222 96 225 99 228 102 231 105 234 108 237 111 240 114 243 117 246 120 249 123 252 126 0 129 3 132 6 135 9 138 12 141 15 144 18 147 21 150 24 153 27 156 30 159 33 162 36 165 39 168 42 171 45 174 48 177 51 180 54 183 57 186 60 189 63 192 66 195 69 198 72 201 75 204 78 207 81 210 84 213 87 216 90 219 93 222 96 225 99 228 102 231 105 234 108 237 111 240 114 243 117 246 120 249 123 252 126 0 129 3 132 6 135 9 138 12 141 15 144 18 147 21 150 24 153 27 156 30 159 33 162 36 165 39 168 42 171 
0 223 191 159 127 95 63 31 254 222 190 158 126 94 62 30 253 221 189 157 125 93 61 29 252 220 188 156 124 92 60 28 251 219 187 155 123 91 59 27 250 218 186 154 122 90 58 26 249 217 185 153 121 89 57 25 248 216 184 152 120 88 56 24 247 215 183 151 119 87 55 23 246 214 182 150 118 86 54 22 245 213 181 149 117 85 53 21 244 212 180 148 116 84 52 20 243 211 179 147 115 83 51 19 242 210 178 146 114 82 50 18 241 209 177 145 113 81 49 17 240 208 176 144 112 80 48 16 239 207 175 143 111 79 47 15 238 206 174 142 110 78 46 14 237 205 173 141 109 77 45 13 236 204 172 140 108 76 44 12 235 203 171 139 107 75 43 11 234 202 170 138 106 74 42 10 233 201 169 137 105 73 41 9 232 200 168 136 104 72 40 8 231 199 167 135 103 71 39 7 
0 62 124 186 248 55 117 179 241 48 110 172 234 41 103 165 227 34 96 158 220 27 89 151 213 20 82 144 206 13 75 137 199 6 68 130 192 254 61 123 185 247 54 116 178 240 47 109 171 233 40 102 164 226 33 95 157 219 26 88 150 212 19 81 143 205 12 74 136 198 5 67 129 191 253 60 122 184 246 53 115 177 239 46 108 170 232 39 101 163 225 32 94 156 218 25 87 149 211 18 80 142 204 11 73 135 197 4 66 128 190 252 59 121 183 245 52 114 176 238 45 107 169 231 38 100 162 224 31 93 155 217 24 86 148 210 17 79 141 203 10 72 134 196 3 65 127 189 251 58 120 182 244 51 113 175 237 44 106 168 230 37 99 161 223 30 92 154 216 23 85 147 209 16 78 140 202 9 71 133 195 2 64 126 188 250 57 119 181 243 50 112 174 236 43 105 167 229 36 98 
0 156 57 213 114 15 171 72 228 129 30 186 87 243 144 45 201 102 3 159 60 216 117 18 174 75 231 132 33 189 90 246 147 48 204 105 6 162 63 219 120 21 177 78 234 135 36 192 93 249 150 51 207 108 9 165 66 222 123 24 180 81 237 138 39 195 96 252 153 54 210 111 12 168 69 225 126 27 183 84 240 141 42 198 99 0 156 57 213 114 15 171 72 228 129 30 186 87 243 144 45 201 102 3 159 60 216 117 18 174 75 231 132 33 189 90 246 147 48 204 105 6 162 63 219 120 21 177 78 234 135 36 192 93 249 150 51 207 108 9 165 66 222 123 24 180 81 237 138 39 195 96 252 153 54 210 111 12 168 69 225 126 27 183 84 240 141 42 198 99 0 156 57 213 114 15 171 72 228 129 30 186 87 243 144 45 201 102 3 159 60 216 117 18 174 75 231 132 33 189 
0 250 245 240 235 230 225 220 215 210 205 200 195 190 185 180 175 170 165 160 155 150 145 140 135 130 125 120 115 110 105 100 95 90 85 80 75 70 65 60 55 50 45 40 35 30 25 20 15 10 5 0 250 245 240 235 230 225 220 215 210 205 200 195 190 185 180 175 170 165 160 155 150 145 140 135 130 125 120 115 110 105 100 95 90 85 80 75 70 65 60 55 50 45 40 35 30 25 20 15 10 5 0 250 245 240 235 230 225 220 215 210 205 200 195 190 185 180 175 170 165 160 155 150 145 140 135 130 125 120 115 110 105 100 95 90 85 80 75 70 65 60 55 50 45 40 35 30 25 20 15 10 5 0 250 245 240 235 230 225 220 215 210 205 200 195 190 185 180 175 170 165 160 155 150 145 140 135 130 125 120 115 110 105 100 95 90 85 80 75 70 65 60 55 50 45 40 35 30 25 
0 89 178 12 101 190 24 113 202 36 125 214 48 137 226 60 149 238 72 161 250 84 173 7 96 185 19 108 197 31 120 209 43 132 221 55 144 233 67 156 245 79 168 2 91 180 14 103 192 26 115 204 38 127 216 50 139 228 62 151 240 74 163 252 86 175 9 98 187 21 110 199 33 122 211 45 134 223 57 146 235 69 158 247 81 170 4 93 182 16 105 194 28 117 206 40 129 218 52 141 230 64 153 242 76 165 254 88 177 11 100 189 23 112 201 35 124 213 47 136 225 59 148 237 71 160 249 83 172 6 95 184 18 107 196 30 119 208 42 131 220 54 143 232 66 155 244 78 167 1 90 179 13 102 191 25 114 203 37 126 215 49 138 227 61 150 239 73 162 251 85 174 8 97 186 20 109 198 32 121 210 44 133 222 56 145 234 68 157 246 80 169 3 92 181 15 104 193 27 116 
0 183 111 39 222 150 78 6 189 117 45 228 156 84 12 195 123 51 234 162 90 18 201 129 57 240 168 96 24 207 135 63 246 174 102 30 213 141 69 252 180 108 36 219 147 75 3 186 114 42 225 153 81 9 192 120 48 231 159 87 15 198 126 54 237 165 93 21 204 132 60 243 171 99 27 210 138 66 249 177 105 33 216 144 72 0 183 111 39 222 150 78 6 189 117 45 228 156 84 12 195 123 51 234 162 90 18 201 129 57 240 168 96 24 207 135 63 246 174 102 30 213 141 69 252 180 108 36 219 147 75 3 186 114 42 225 153 81 9 192 120 48 231 159 87 15 198 126 54 237 165 93 21 204 132 60 243 171 99 27 210 138 66 249 177 105 33 216 144 72 0 183 111 39 222 150 78 6 189 117 45 228 156 84 12 195 123 51 234 162 90 18 201 129 57 240 168 96 24 207 
0 22 44 66 88 110 132 154 176 198 220 242 9 31 53 75 97 119 141 163 185 207 229 251 18 40 62 84 106 128 150 172 194 216 238 5 27 49 71 93 115 137 159 181 203 225 247 14 36 58 80 102 124 146 168 190 212 234 1 23 45 67 89 111 133 155 177 199 221 243 10 32 54 76 98 120 142 164 186 208 230 252 19 41 63 85 107 129 151 173 195 217 239 6 28 50 72 94 116 138 160 182 204 226 248 15 37 59 81 103 125 147 169 191 213 235 2 24 46 68 90 112 134 156 178 200 222 244 11 33 55 77 99 121 143 165 187 209 231 253 20 42 64 86 108 130 152 174 196 218 240 7 29 51 73 95 117 139 161 183 205 227 249 16 38 60 82 104 126 148 170 192 214 236 3 25 47 69 91 113 135 157 179 201 223 245 12 34 56 78 100 122 144 166 188 210 232 254 21 43 
0 116 232 93 209 70 186 47 163 24 140 1 117 233 94 210 71 187 48 164 25 141 2 118 234 95 211 72 188 49 165 26 142 3 119 235 96 212 73 189 50 166 27 143 4 120 236 97 213 74 190 51 167 28 144 5 121 237 98 214 75 191 52 168 29 145 6 122 238 99 215 76 192 53 169 30 146 7 123 239 100 216 77 193 54 170 31 147 8 124 240 101 217 78 194 55 171 32 148 9 125 241 102 218 79 195 56 172 33 149 10 126 242 103 219 80 196 57 173 34 150 11 127 243 104 220 81 197 58 174 35 151 12 128 244 105 221 82 198 59 175 36 152 13 129 245 106 222 83 199 60 176 37 153 14 130 246 107 223 84 200 61 177 38 154 15 131 247 108 224 85 201 62 178 39 155 16 132 248 109 225 86 202 63 179 40 156 17 133 249 110 226 87 203 64 180 41 157 18 134 
0 210 165 120 75 30 240 195 150 105 60 15 225 180 135 90 45 0 210 165 120 75 30 240 195 150 105 60 15 225 180 135 90 45 0 210 165 120 75 30 240 195 150 105 60 15 225 180 135 90 45 0 210 165 120 75 30 240 195 150 105 60 15 225 180 135 90 45 0 210 165 120 75 30 240 195 150 105 60 15 225 180 135 90 45 0 210 165 120 75 30 240 195 150 105 60 15 225 180 135 90 45 0 210 165 120 75 30 240 195 150 105 60 15 225 180 135 90 45 0 210 165 120 75 30 240 195 150 105 60 15 225 180 135 90 45 0 210 165 120 75 30 240 195 150 105 60 15 225 180 135 90 45 0 210 165 120 75 30 240 195 150 105 60 15 225 180 135 90 45 0 210 165 120 75 30 240 195 150 105 60 15 225 180 135 90 45 0 210 165 120 75 30 240 195 150 105 60 15 225 
0 49 98 147 196 245 39 88 137 186 235 29 78 127 176 225 19 68 117 166 215 9 58 107 156 205 254 48 97 146 195 244 38 87 136 185 234 28 77 126 175 224 18 67 116 165 214 8 57 106 155 204 253 47 96 145 194 243 37 86 135 184 233 27 76 125 174 223 17 66 115 164 213 7 56 105 154 203 252 46 95 144 193 242 36 85 134 183 232 26 75 124 173 222 16 65 114 163 212 6 55 104 153 202 251 45 94 143 192 241 35 84 133 182 231 25 74 123 172 221 15 64 113 162 211 5 54 103 152 201 250 44 93 142 191 240 34 83 132 181 230 24 73 122 171 220 14 63 112 161 210 4 53 102 151 200 249 43 92 141 190 239 33 82 131 180 229 23 72 121 170 219 13 62 111 160 209 3 52 101 150 199 248 42 91 140 189 238 32 81 130 179 228 22 71 120 169 218 12 61 
0 143 31 174 62 205 93 236 124 12 155 43 186 74 217 105 248 136 24 167 55 198 86 229 117 5 148 36 179 67 210 98 241 129 17 160 48 191 79 222 110 253 141 29 172 60 203 91 234 122 10 153 41 184 72 215 103 246 134 22 165 53 196 84 227 115 3 146 34 177 65 208 96 239 127 15 158 46 189 77 220 108 251 139 27 170 58 201 89 232 120 8 151 39 182 70 213 101 244 132 20 163 51 194 82 225 113 1 144 32 175 63 206 94 237 125 13 156 44 187 75 218 106 249 137 25 168 56 199 87 230 118 6 149 37 180 68 211 99 242 130 18 161 49 192 80 223 111 254 142 30 173 61 204 92 235 123 11 154 42 185 73 216 104 247 135 23 166 54 197 85 228 116 4 147 35 178 66 209 97 240 128 16 159 47 190 78 221 109 252 140 28 171 59 202 90 233 121 9 152 
0 237 219 201 183 165 147 129 111 93 75 57 39 21 3 240 222 204 186 168 150 132 114 96 78 60 42 24 6 243 225 207 189 171 153 135 117 99 81 63 45 27 9 246 228 210 192 174 156 138 120 102 84 66 48 30 12 249 231 213 195 177 159 141 123 105 87 69 51 33 15 252 234 216 198 180 162 144 126 108 90 72 54 36 18 0 237 219 201 183 165 147 129 111 93 75 57 39 21 3 240 222 204 186 168 150 132 114 96 78 60 42 24 6 243 225 207 189 171 153 135 117 99 81 63 45 27 9 246 228 210 192 174 156 138 120 102 84 66 48 30 12 249 231 213 195 177 159 141 123 105 87 69 51 33 15 252 234 216 198 180 162 144 126 108 90 72 54 36 18 0 237 219 201 183 165 147 129 111 93 75 57 39 21 3 240 222 204 186 168 150 132 114 96 78 60 42 24 6 243 
0 76 152 228 49 125 201 22 98 174 250 71 147 223 44 120 196 17 93 169 245 66 142 218 39 115 191 12 88 164 240 61 137 213 34 110 186 7 83 159 235 56 132 208 29 105 181 2 78 154 230 51 127 203 24 100 176 252 73 149 225 46 122 198 19 95 171 247 68 144 220 41 117 193 14 90 166 242 63 139 215 36 112 188 9 85 161 237 58 134 210 31 107 183 4 80 156 232 53 129 205 26 102 178 254 75 151 227 48 124 200 21 97 173 249 70 146 222 43 119 195 16 92 168 244 65 141 217 38 114 190 11 87 163 239 60 136 212 33 109 185 6 82 158 234 55 131 207 28 104 180 1 77 153 229 50 126 202 23 99 175 251 72 148 224 45 121 197 18 94 170 246 67 143 219 40 116 192 13 89 165 241 62 138 214 35 111 187 8 84 160 236 57 133 209 30 106 182 3 79 
0 170 85 0 170 85 0 170 85 0 170 85 0 170 85 0 170 85 0 170 85 0 170 85 0 170 85 0 170 85 0 170 85 0 170 85 0 170 85 0 170 85 0 170 85 0 170 85 0 170 85 0 170 85 0 170 85 0 170 85 0 170 85 0 170 85 0 170 85 0 170 85 0 170 85 0 170 85 0 170 85 0 170 85 0 170 85 0 170 85 0 170 85 0 170 85 0 170 85 0 170 85 0 170 85 0 170 85 0 170 85 0 170 85 0 170 85 0 170 85 0 170 85 0 170 85 0 170 85 0 170 85 0 170 85 0 170 85 0 170 85 0 170 85 0 170 85 0 170 85 0 170 85 0 170 85 0 170 85 0 170 85 0 170 85 0 170 85 0 170 85 0 170 85 0 170 85 0 170 85 0 170 85 0 170 85 0 170 85 0 170 85 0 170 85 0 170 85 0 170 
0 9 18 27 36 45 54 63 72 81 90 99 108 117 126 135 144 153 162 171 180 189 198 207 216 225 234 243 252 6 15 24 33 42 51 60 69 78 87 96 105 114 123 132 141 150 159 168 177 186 195 204 213 222 231 240 249 3 12 21 30 39 48 57 66 75 84 93 102 111 120 129 138 147 156 165 174 183 192 201 210 219 228 237 246 0 9 18 27 36 45 54 63 72 81 90 99 108 117 126 135 144 153 162 171 180 189 198 207 216 225 234 243 252 6 15 24 33 42 51 60 69 78 87 96 105 114 123 132 141 150 159 168 177 186 195 204 213 222 231 240 249 3 12 21 30 39 48 57 66 75 84 93 102 111 120 129 138 147 156 165 174 183 192 201 210 219 228 237 246 0 9 18 27 36 45 54 63 72 81 90 99 108 117 126 135 144 153 162 171 180 189 198 207 216 225 234 243 252 6 
0 103 206 54 157 5 108 211 59 162 10 113 216 64 167 15 118 221 69 172 20 123 226 74 177 25 128 231 79 182 30 133 236 84 187 35 138 241 89 192 40 143 246 94 197 45 148 251 99 202 50 153 1 104 207 55 158 6 109 212 60 163 11 114 217 65 168 16 119 222 70 173 21 124 227 75 178 26 129 232 80 183 31 134 237 85 188 36 139 242 90 193 41 144 247 95 198 46 149 252 100 203 51 154 2 105 208 56 159 7 110 213 61 164 12 115 218 66 169 17 120 223 71 174 22 125 228 76 179 27 130 233 81 184 32 135 238 86 189 37 140 243 91 194 42 145 248 96 199 47 150 253 101 204 52 155 3 106 209 57 160 8 111 214 62 165 13 116 219 67 170 18 121 224 72 175 23 126 229 77 180 28 131 234 82 185 33 136 239 87 190 38 141 244 92 195 43 146 249 97 
0 197 139 81 23 220 162 104 46 243 185 127 69 11 208 150 92 34 231 173 115 57 254 196 138 80 22 219 161 103 45 242 184 126 68 10 207 149 91 33 230 172 114 56 253 195 137 79 21 218 160 102 44 241 183 125 67 9 206 148 90 32 229 171 113 55 252 194 136 78 20 217 159 101 43 240 182 124 66 8 205 147 89 31 228 170 112 54 251 193 135 77 19 216 158 100 42 239 181 123 65 7 204 146 88 30 227 169 111 53 250 192 134 76 18 215 157 99 41 238 180 122 64 6 203 145 87 29 226 168 110 52 249 191 133 75 17 214 156 98 40 237 179 121 63 5 202 144 86 28 225 167 109 51 248 190 132 74 16 213 155 97 39 236 178 120 62 4 201 143 85 27 224 166 108 50 247 189 131 73 15 212 154 96 38 235 177 119 61 3 200 142 84 26 223 165 107 49 246 188 
0 36 72 108 144 180 216 252 33 69 105 141 177 213 249 30 66 102 138 174 210 246 27 63 99 135 171 207 243 24 60 96 132 168 204 240 21 57 93 129 165 201 237 18 54 90 126 162 198 234 15 51 87 123 159 195 231 12 48 84 120 156 192 228 9 45 81 117 153 189 225 6 42 78 114 150 186 222 3 39 75 111 147 183 219 0 36 72 108 144 180 216 252 33 69 105 141 177 213 249 30 66 102 138 174 210 246 27 63 99 135 171 207 243 24 60 96 132 168 204 240 21 57 93 129 165 201 237 18 54 90 126 162 198 234 15 51 87 123 159 195 231 12 48 84 120 156 192 228 9 45 81 117 153 189 225 6 42 78 114 150 186 222 3 39 75 111 147 183 219 0 36 72 108 144 180 216 252 33 69 105 141 177 213 249 30 66 102 138 174 210 246 27 63 99 135 171 207 243 24 
0 130 5 135 10 140 15 145 20 150 25 155 30 160 35 165 40 170 45 175 50 180 55 185 60 190 65 195 70 200 75 205 80 210 85 215 90 220 95 225 100 230 105 235 110 240 115 245 120 250 125 0 130 5 135 10 140 15 145 20 150 25 155 30 160 35 165 40 170 45 175 50 180 55 185 60 190 65 195 70 200 75 205 80 210 85 215 90 220 95 225 100 230 105 235 110 240 115 245 120 250 125 0 130 5 135 10 140 15 145 20 150 25 155 30 160 35 165 40 170 45 175 50 180 55 185 60 190 65 195 70 200 75 205 80 210 85 215 90 220 95 225 100 230 105 235 110 240 115 245 120 250 125 0 130 5 135 10 140 15 145 20 150 25 155 30 160 35 165 40 170 45 175 50 180 55 185 60 190 65 195 70 200 75 205 80 210 85 215 90 220 95 225 100 230 105 235 110 240 115 
0 224 193 162 131 100 69 38 7 231 200 169 138 107 76 45 14 238 207 176 145 114 83 52 21 245 214 183 152 121 90 59 28 252 221 190 159 128 97 66 35 4 228 197 166 135 104 73 42 11 235 204 173 142 111 80 49 18 242 211 180 149 118 87 56 25 249 218 187 156 125 94 63 32 1 225 194 163 132 101 70 39 8 232 201 170 139 108 77 46 15 239 208 177 146 115 84 53 22 246 215 184 153 122 91 60 29 253 222 191 160 129 98 67 36 5 229 198 167 136 105 74 43 12 236 205 174 143 112 81 50 19 243 212 181 150 119 88 57 26 250 219 188 157 126 95 64 33 2 226 195 164 133 102 71 40 9 233 202 171 140 109 78 47 16 240 209 178 147 116 85 54 23 247 216 185 154 123 92 61 30 254 223 192 161 130 99 68 37 6 230 199 168 137 106 75 44 13 237 206 
0 63 126 189 252 60 123 186 249 57 120 183 246 54 117 180 243 51 114 177 240 48 111 174 237 45 108 171 234 42 105 168 231 39 102 165 228 36 99 162 225 33 96 159 222 30 93 156 219 27 90 153 216 24 87 150 213 21 84 147 210 18 81 144 207 15 78 141 204 12 75 138 201 9 72 135 198 6 69 132 195 3 66 129 192 0 63 126 189 252 60 123 186 249 57 120 183 246 54 117 180 243 51 114 177 240 48 111 174 237 45 108 171 234 42 105 168 231 39 102 165 228 36 99 162 225 33 96 159 222 30 93 156 219 27 90 153 216 24 87 150 213 21 84 147 210 18 81 144 207 15 78 141 204 12 75 138 201 9 72 135 198 6 69 132 195 3 66 129 192 0 63 126 189 252 60 123 186 249 57 120 183 246 54 117 180 243 51 114 177 240 48 111 174 237 45 108 171 234 42 
0 157 59 216 118 20 177 79 236 138 40 197 99 1 158 60 217 119 21 178 80 237 139 41 198 100 2 159 61 218 120 22 179 81 238 140 42 199 101 3 160 62 219 121 23 180 82 239 141 43 200 102 4 161 63 220 122 24 181 83 240 142 44 201 103 5 162 64 221 123 25 182 84 241 143 45 202 104 6 163 65 222 124 26 183 85 242 144 46 203 105 7 164 66 223 125 27 184 86 243 145 47 204 106 8 165 67 224 126 28 185 87 244 146 48 205 107 9 166 68 225 127 29 186 88 245 147 49 206 108 10 167 69 226 128 30 187 89 246 148 50 207 109 11 168 70 227 129 31 188 90 247 149 51 208 110 12 169 71 228 130 32 189 91 248 150 52 209 111 13 170 72 229 131 33 190 92 249 151 53 210 112 14 171 73 230 132 34 191 93 250 152 54 211 113 15 172 74 231 133 
0 251 247 243 239 235 231 227 223 219 215 211 207 203 199 195 191 187 183 179 175 171 167 163 159 155 151 147 143 139 135 131 127 123 119 115 111 107 103 99 95 91 87 83 79 75 71 67 63 59 55 51 47 43 39 35 31 27 23 19 15 11 7 3 254 250 246 242 238 234 230 226 222 218 214 210 206 202 198 194 190 186 182 178 174 170 166 162 158 154 150 146 142 138 134 130 126 122 118 114 110 106 102 98 94 90 86 82 78 74 70 66 62 58 54 50 46 42 38 34 30 26 22 18 14 10 6 2 253 249 245 241 237 233 229 225 221 217 213 209 205 201 197 193 189 185 181 177 173 169 165 161 157 153 149 145 141 137 133 129 125 121 117 113 109 105 101 97 93 89 85 81 77 73 69 65 61 57 53 49 45 41 37 33 29 25 21 17 13 9 5 1 252 248 244 240 236 232 228 224 
0 90 180 15 105 195 30 120 210 45 135 225 60 150 240 75 165 0 90 180 15 105 195 30 120 210 45 135 225 60 150 240 75 165 0 90 180 15 105 195 30 120 210 45 135 225 60 150 240 75 165 0 90 180 15 105 195 30 120 210 45 135 225 60 150 240 75 165 0 90 180 15 105 195 30 120 210 45 135 225 60 150 240 75 165 0 90 180 15 105 195 30 120 210 45 135 225 60 150 240 75 165 0 90 180 15 105 195 30 120 210 45 135 225 60 150 240 75 165 0 90 180 15 105 195 30 120 210 45 135 225 60 150 240 75 165 0 90 180 15 105 195 30 120 210 45 135 225 60 150 240 75 165 0 90 180 15 105 195 30 120 210 45 135 225 60 150 240 75 165 0 90 180 15 105 195 30 120 210 45 135 225 60 150 240 75 165 0 90 180 15 105 195 30 120 210 45 135 225 60 
0 184 113 42 226 155 84 13 197 126 55 239 168 97 26 210 139 68 252 181 110 39 223 152 81 10 194 123 52 236 165 94 23 207 136 65 249 178 107 36 220 149 78 7 191 120 49 233 162 91 20 204 133 62 246 175 104 33 217 146 75 4 188 117 46 230 159 88 17 201 130 59 243 172 101 30 214 143 72 1 185 114 43 227 156 85 14 198 127 56 240 169 98 27 211 140 69 253 182 111 40 224 153 82 11 195 124 53 237 166 95 24 208 137 66 250 179 108 37 221 150 79 8 192 121 50 234 163 92 21 205 134 63 247 176 105 34 218 147 76 5 189 118 47 231 160 89 18 202 131 60 244 173 102 31 215 144 73 2 186 115 44 228 157 86 15 199 128 57 241 170 99 28 212 141 70 254 183 112 41 225 154 83 12 196 125 54 238 167 96 25 209 138 67 251 180 109 38 222 151 
0 23 46 69 92 115 138 161 184 207 230 253 21 44 67 90 113 136 159 182 205 228 251 19 42 65 88 111 134 157 180 203 226 249 17 40 63 86 109 132 155 178 201 224 247 15 38 61 84 107 130 153 176 199 222 245 13 36 59 82 105 128 151 174 197 220 243 11 34 57 80 103 126 149 172 195 218 241 9 32 55 78 101 124 147 170 193 216 239 7 30 53 76 99 122 145 168 191 214 237 5 28 51 74 97 120 143 166 189 212 235 3 26 49 72 95 118 141 164 187 210 233 1 24 47 70 93 116 139 162 185 208 231 254 22 45 68 91 114 137 160 183 206 229 252 20 43 66 89 112 135 158 181 204 227 250 18 41 64 87 110 133 156 179 202 225 248 16 39 62 85 108 131 154 177 200 223 246 14 37 60 83 106 129 152 175 198 221 244 12 35 58 81 104 127 150 173 196 219 242 
0 117 234 96 213 75 192 54 171 33 150 12 129 246 108 225 87 204 66 183 45 162 24 141 3 120 237 99 216 78 195 57 174 36 153 15 132 249 111 228 90 207 69 186 48 165 27 144 6 123 240 102 219 81 198 60 177 39 156 18 135 252 114 231 93 210 72 189 51 168 30 147 9 126 243 105 222 84 201 63 180 42 159 21 138 0 117 234 96 213 75 192 54 171 33 150 12 129 246 108 225 87 204 66 183 45 162 24 141 3 120 237 99 216 78 195 57 174 36 153 15 132 249 111 228 90 207 69 186 48 165 27 144 6 123 240 102 219 81 198 60 177 39 156 18 135 252 114 231 93 210 72 189 51 168 30 147 9 126 243 105 222 84 201 63 180 42 159 21 138 0 117 234 96 213 75 192 54 171 33 150 12 129 246 108 225 87 204 66 183 45 162 24 141 3 120 237 99 216 78 
0 211 167 123 79 35 246 202 158 114 70 26 237 193 149 105 61 17 228 184 140 96 52 8 219 175 131 87 43 254 210 166 122 78 34 245 201 157 113 69 25 236 192 148 104 60 16 227 183 139 95 51 7 218 174 130 86 42 253 209 165 121 77 33 244 200 156 112 68 24 235 191 147 103 59 15 226 182 138 94 50 6 217 173 129 85 41 252 208 164 120 76 32 243 199 155 111 67 23 234 190 146 102 58 14 225 181 137 93 49 5 216 172 128 84 40 251 207 163 119 75 31 242 198 154 110 66 22 233 189 145 101 57 13 224 180 136 92 48 4 215 171 127 83 39 250 206 162 118 74 30 241 197 153 109 65 21 232 188 144 100 56 12 223 179 135 91 47 3 214 170 126 82 38 249 205 161 117 73 29 240 196 152 108 64 20 231 187 143 99 55 11 222 178 134 90 46 2 213 169 
0 50 100 150 200 250 45 95 145 195 245 40 90 140 190 240 35 85 135 185 235 30 80 130 180 230 25 75 125 175 225 20 70 120 170 220 15 65 115 165 215 10 60 110 160 210 5 55 105 155 205 0 50 100 150 200 250 45 95 145 195 245 40 90 140 190 240 35 85 135 185 235 30 80 130 180 230 25 75 125 175 225 20 70 120 170 220 15 65 115 165 215 10 60 110 160 210 5 55 105 155 205 0 50 100 150 200 250 45 95 145 195 245 40 90 140 190 240 35 85 135 185 235 30 80 130 180 230 25 75 125 175 225 20 70 120 170 220 15 65 115 165 215 10 60 110 160 210 5 55 105 155 205 0 50 100 150 200 250 45 95 145 195 245 40 90 140 190 240 35 85 135 185 235 30 80 130 180 230 25 75 125 175 225 20 70 120 170 220 15 65 115 165 215 10 60 110 160 210 5 
0 144 33 177 66 210 99 243 132 21 165 54 198 87 231 120 9 153 42 186 75 219 108 252 141 30 174 63 207 96 240 129 18 162 51 195 84 228 117 6 150 39 183 72 216 105 249 138 27 171 60 204 93 237 126 15 159 48 192 81 225 114 3 147 36 180 69 213 102 246 135 24 168 57 201 90 234 123 12 156 45 189 78 222 111 0 144 33 177 66 210 99 243 132 21 165 54 198 87 231 120 9 153 42 186 75 219 108 252 141 30 174 63 207 96 240 129 18 162 51 195 84 228 117 6 150 39 183 72 216 105 249 138 27 171 60 204 93 237 126 15 159 48 192 81 225 114 3 147 36 180 69 213 102 246 135 24 168 57 201 90 234 123 12 156 45 189 78 222 111 0 144 33 177 66 210 99 243 132 21 165 54 198 87 231 120 9 153 42 186 75 219 108 252 141 30 174 63 207 96 
0 238 221 204 187 170 153 136 119 102 85 68 51 34 17 0 238 221 204 187 170 153 136 119 102 85 68 51 34 17 0 238 221 204 187 170 153 136 119 102 85 68 51 34 17 0 238 221 204 187 170 153 136 119 102 85 68 51 34 17 0 238 221 204 187 170 153 136 119 102 85 68 51 34 17 0 238 221 204 187 170 153 136 119 102 85 68 51 34 17 0 238 221 204 187 170 153 136 119 102 85 68 51 34 17 0 238 221 204 187 170 153 136 119 102 85 68 51 34 17 0 238 221 204 187 170 153 136 119 102 85 68 51 34 17 0 238 221 204 187 170 153 136 119 102 85 68 51 34 17 0 238 221 204 187 170 153 136 119 102 85 68 51 34 17 0 238 221 204 187 170 153 136 119 102 85 68 51 34 17 0 238 221 204 187 170 153 136 119 102 85 68 51 34 17 0 238 221 204 187 
0 77 154 231 53 130 207 29 106 183 5 82 159 236 58 135 212 34 111 188 10 87 164 241 63 140 217 39 116 193 15 92 169 246 68 145 222 44 121 198 20 97 174 251 73 150 227 49 126 203 25 102 179 1 78 155 232 54 131 208 30 107 184 6 83 160 237 59 136 213 35 112 189 11 88 165 242 64 141 218 40 117 194 16 93 170 247 69 146 223 45 122 199 21 98 175 252 74 151 228 50 127 204 26 103 180 2 79 156 233 55 132 209 31 108 185 7 84 161 238 60 137 214 36 113 190 12 89 166 243 65 142 219 41 118 195 17 94 171 248 70 147 224 46 123 200 22 99 176 253 75 152 229 51 128 205 27 104 181 3 80 157 234 56 133 210 32 109 186 8 85 162 239 61 138 215 37 114 191 13 90 167 244 66 143 220 42 119 196 18 95 172 249 71 148 225 47 124 201 23 
0 171 87 3 174 90 6 177 93 9 180 96 12 183 99 15 186 102 18 189 105 21 192 108 24 195 111 27 198 114 30 201 117 33 204 120 36 207 123 39 210 126 42 213 129 45 216 132 48 219 135 51 222 138 54 225 141 57 228 144 60 231 147 63 234 150 66 237 153 69 240 156 72 243 159 75 246 162 78 249 165 81 252 168 84 0 171 87 3 174 90 6 177 93 9 180 96 12 183 99 15 186 102 18 189 105 21 192 108 24 195 111 27 198 114 30 201 117 33 204 120 36 207 123 39 210 126 42 213 129 45 216 132 48 219 135 51 222 138 54 225 141 57 228 144 60 231 147 63 234 150 66 237 153 69 240 156 72 243 159 75 246 162 78 249 165 81 252 168 84 0 171 87 3 174 90 6 177 93 9 180 96 12 183 99 15 186 102 18 189 105 21 192 108 24 195 111 27 198 114 
0 10 20 30 40 50 60 70 80 90 100 110 120 130 140 150 160 170 180 190 200 210 220 230 240 250 5 15 25 35 45 55 65 75 85 95 105 115 125 135 145 155 165 175 185 195 205 215 225 235 245 0 10 20 30 40 50 60 70 80 90 100 110 120 130 140 150 160 170 180 190 200 210 220 230 240 250 5 15 25 35 45 55 65 75 85 95 105 115 125 135 145 155 165 175 185 195 205 215 225 235 245 0 10 20 30 40 50 60 70 80 90 100 110 120 130 140 150 160 170 180 190 200 210 220 230 240 250 5 15 25 35 45 55 65 75 85 95 105 115 125 135 145 155 165 175 185 195 205 215 225 235 245 0 10 20 30 40 50 60 70 80 90 100 110 120 130 140 150 160 170 180 190 200 210 220 230 240 250 5 15 25 35 45 55 65 75 85 95 105 115 125 135 145 155 165 175 185 195 205 
0 104 208 57 161 10 114 218 67 171 20 124 228 77 181 30 134 238 87 191 40 144 248 97 201 50 154 3 107 211 60 164 13 117 221 70 174 23 127 231 80 184 33 137 241 90 194 43 147 251 100 204 53 157 6 110 214 63 167 16 120 224 73 177 26 130 234 83 187 36 140 244 93 197 46 150 254 103 207 56 160 9 113 217 66 170 19 123 227 76 180 29 133 237 86 190 39 143 247 96 200 49 153 2 106 210 59 163 12 116 220 69 173 22 126 230 79 183 32 136 240 89 193 42 146 250 99 203 52 156 5 109 213 62 166 15 119 223 72 176 25 129 233 82 186 35 139 243 92 196 45 149 253 102 206 55 159 8 112 216 65 169 18 122 226 75 179 28 132 236 85 189 38 142 246 95 199 48 152 1 105 209 58 162 11 115 219 68 172 21 125 229 78 182 31 135 239 88 192 41 
0 198 141 84 27 225 168 111 54 252 195 138 81 24 222 165 108 51 249 192 135 78 21 219 162 105 48 246 189 132 75 18 216 159 102 45 243 186 129 72 15 213 156 99 42 240 183 126 69 12 210 153 96 39 237 180 123 66 9 207 150 93 36 234 177 120 63 6 204 147 90 33 231 174 117 60 3 201 144 87 30 228 171 114 57 0 198 141 84 27 225 168 111 54 252 195 138 81 24 222 165 108 51 249 192 135 78 21 219 162 105 48 246 189 132 75 18 216 159 102 45 243 186 129 72 15 213 156 99 42 240 183 126 69 12 210 153 96 39 237 180 123 66 9 207 150 93 36 234 177 120 63 6 204 147 90 33 231 174 117 60 3 201 144 87 30 228 171 114 57 0 198 141 84 27 225 168 111 54 252 195 138 81 24 222 165 108 51 249 192 135 78 21 219 162 105 48 246 189 132 
0 37 74 111 148 185 222 4 41 78 115 152 189 226 8 45 82 119 156 193 230 12 49 86 123 160 197 234 16 53 90 127 164 201 238 20 57 94 131 168 205 242 24 61 98 135 172 209 246 28 65 102 139 176 213 250 32 69 106 143 180 217 254 36 73 110 147 184 221 3 40 77 114 151 188 225 7 44 81 118 155 192 229 11 48 85 122 159 196 233 15 52 89 126 163 200 237 19 56 93 130 167 204 241 23 60 97 134 171 208 245 27 64 101 138 175 212 249 31 68 105 142 179 216 253 35 72 109 146 183 220 2 39 76 113 150 187 224 6 43 80 117 154 191 228 10 47 84 121 158 195 232 14 51 88 125 162 199 236 18 55 92 129 166 203 240 22 59 96 133 170 207 244 26 63 100 137 174 211 248 30 67 104 141 178 215 252 34 71 108 145 182 219 1 38 75 112 149 186 223 
0 131 7 138 14 145 21 152 28 159 35 166 42 173 49 180 56 187 63 194 70 201 77 208 84 215 91 222 98 229 105 236 112 243 119 250 126 2 133 9 140 16 147 23 154 30 161 37 168 44 175 51 182 58 189 65 196 72 203 79 210 86 217 93 224 100 231 107 238 114 245 121 252 128 4 135 11 142 18 149 25 156 32 163 39 170 46 177 53 184 60 191 67 198 74 205 81 212 88 219 95 226 102 233 109 240 116 247 123 254 130 6 137 13 144 20 151 27 158 34 165 41 172 48 179 55 186 62 193 69 200 76 207 83 214 90 221 97 228 104 235 111 242 118 249 125 1 132 8 139 15 146 22 153 29 160 36 167 43 174 50 181 57 188 64 195 71 202 78 209 85 216 92 223 99 230 106 237 113 244 120 251 127 3 134 10 141 17 148 24 155 31 162 38 169 45 176 52 183 59 
0 225 195 165 135 105 75 45 15 240 210 180 150 120 90 60 30 0 225 195 165 135 105 75 45 15 240 210 180 150 120 90 60 30 0 225 195 165 135 105 75 45 15 240 210 180 150 120 90 60 30 0 225 195 165 135 105 75 45 15 240 210 180 150 120 90 60 30 0 225 195 165 135 105 75 45 15 240 210 180 150 120 90 60 30 0 225 195 165 135 105 75 45 15 240 210 180 150 120 90 60 30 0 225 195 165 135 105 75 45 15 240 210 180 150 120 90 60 30 0 225 195 165 135 105 75 45 15 240 210 180 150 120 90 60 30 0 225 195 165 135 105 75 45 15 240 210 180 150 120 90 60 30 0 225 195 165 135 105 75 45 15 240 210 180 150 120 90 60 30 0 225 195 165 135 105 75 45 15 240 210 180 150 120 90 60 30 0 225 195 165 135 105 75 45 15 240 210 180 150 
0 64 128 192 1 65 129 193 2 66 130 194 3 67 131 195 4 68 132 196 5 69 133 197 6 70 134 198 7 71 135 199 8 72 136 200 9 73 137 201 10 74 138 202 11 75 139 203 12 76 140 204 13 77 141 205 14 78 142 206 15 79 143 207 16 80 144 208 17 81 145 209 18 82 146 210 19 83 147 211 20 84 148 212 21 85 149 213 22 86 150 214 23 87 151 215 24 88 152 216 25 89 153 217 26 90 154 218 27 91 155 219 28 92 156 220 29 93 157 221 30 94 158 222 31 95 159 223 32 96 160 224 33 97 161 225 34 98 162 226 35 99 163 227 36 100 164 228 37 101 165 229 38 102 166 230 39 103 167 231 40 104 168 232 41 105 169 233 42 106 170 234 43 107 171 235 44 108 172 236 45 109 173 237 46 110 174 238 47 111 175 239 48 112 176 240 49 113 177 241 
0 158 61 219 122 25 183 86 244 147 50 208 111 14 172 75 233 136 39 197 100 3 161 64 222 125 28 186 89 247 150 53 211 114 17 175 78 236 139 42 200 103 6 164 67 225 128 31 189 92 250 153 56 214 117 20 178 81 239 142 45 203 106 9 167 70 228 131 34 192 95 253 156 59 217 120 23 181 84 242 145 48 206 109 12 170 73 231 134 37 195 98 1 159 62 220 123 26 184 87 245 148 51 209 112 15 173 76 234 137 40 198 101 4 162 65 223 126 29 187 90 248 151 54 212 115 18 176 79 237 140 43 201 104 7 165 68 226 129 32 190 93 251 154 57 215 118 21 179 82 240 143 46 204 107 10 168 71 229 132 35 193 96 254 157 60 218 121 24 182 85 243 146 49 207 110 13 171 74 232 135 38 196 99 2 160 63 221 124 27 185 88 246 149 52 210 113 16 174 77 
0 252 249 246 243 240 237 234 231 228 225 222 219 216 213 210 207 204 201 198 195 192 189 186 183 180 177 174 171 168 165 162 159 156 153 150 147 144 141 138 135 132 129 126 123 120 117 114 111 108 105 102 99 96 93 90 87 84 81 78 75 72 69 66 63 60 57 54 51 48 45 42 39 36 33 30 27 24 21 18 15 12 9 6 3 0 252 249 246 243 240 237 234 231 228 225 222 219 216 213 210 207 204 201 198 195 192 189 186 183 180 177 174 171 168 165 162 159 156 153 150 147 144 141 138 135 132 129 126 123 120 117 114 111 108 105 102 99 96 93 90 87 84 81 78 75 72 69 66 63 60 57 54 51 48 45 42 39 36 33 30 27 24 21 18 15 12 9 6 3 0 252 249 246 243 240 237 234 231 228 225 222 219 216 213 210 207 204 201 198 195 192 189 186 183 180 177 174 171 168 
0 91 182 18 109 200 36 127 218 54 145 236 72 163 254 90 181 17 108 199 35 126 217 53 144 235 71 162 253 89 180 16 107 198 34 125 216 52 143 234 70 161 252 88 179 15 106 197 33 124 215 51 142 233 69 160 251 87 178 14 105 196 32 123 214 50 141 232 68 159 250 86 177 13 104 195 31 122 213 49 140 231 67 158 249 85 176 12 103 194 30 121 212 48 139 230 66 157 248 84 175 11 102 193 29 120 211 47 138 229 65 156 247 83 174 10 101 192 28 119 210 46 137 228 64 155 246 82 173 9 100 191 27 118 209 45 136 227 63 154 245 81 172 8 99 190 26 117 208 44 135 226 62 153 244 80 171 7 98 189 25 116 207 43 134 225 61 152 243 79 170 6 97 188 24 115 206 42 133 224 60 151 242 78 169 5 96 187 23 114 205 41 132 223 59 150 241 77 168 4 
0 185 115 45 230 160 90 20 205 135 65 250 180 110 40 225 155 85 15 200 130 60 245 175 105 35 220 150 80 10 195 125 55 240 170 100 30 215 145 75 5 190 120 50 235 165 95 25 210 140 70 0 185 115 45 230 160 90 20 205 135 65 250 180 110 40 225 155 85 15 200 130 60 245 175 105 35 220 150 80 10 195 125 55 240 170 100 30 215 145 75 5 190 120 50 235 165 95 25 210 140 70 0 185 115 45 230 160 90 20 205 135 65 250 180 110 40 225 155 85 15 200 130 60 245 175 105 35 220 150 80 10 195 125 55 240 170 100 30 215 145 75 5 190 120 50 235 165 95 25 210 140 70 0 185 115 45 230 160 90 20 205 135 65 250 180 110 40 225 155 85 15 200 130 60 245 175 105 35 220 150 80 10 195 125 55 240 170 100 30 215 145 75 5 190 120 50 235 165 95 
0 24 48 72 96 120 144 168 192 216 240 9 33 57 81 105 129 153 177 201 225 249 18 42 66 90 114 138 162 186 210 234 3 27 51 75 99 123 147 171 195 219 243 12 36 60 84 108 132 156 180 204 228 252 21 45 69 93 117 141 165 189 213 237 6 30 54 78 102 126 150 174 198 222 246 15 39 63 87 111 135 159 183 207 231 0 24 48 72 96 120 144 168 192 216 240 9 33 57 81 105 129 153 177 201 225 249 18 42 66 90 114 138 162 186 210 234 3 27 51 75 99 123 147 171 195 219 243 12 36 60 84 108 132 156 180 204 228 252 21 45 69 93 117 141 165 189 213 237 6 30 54 78 102 126 150 174 198 222 246 15 39 63 87 111 135 159 183 207 231 0 24 48 72 96 120 144 168 192 216 240 9 33 57 81 105 129 153 177 201 225 249 18 42 66 90 114 138 162 186 
0 118 236 99 217 80 198 61 179 42 160 23 141 4 122 240 103 221 84 202 65 183 46 164 27 145 8 126 244 107 225 88 206 69 187 50 168 31 149 12 130 248 111 229 92 210 73 191 54 172 35 153 16 134 252 115 233 96 214 77 195 58 176 39 157 20 138 1 119 237 100 218 81 199 62 180 43 161 24 142 5 123 241 104 222 85 203 66 184 47 165 28 146 9 127 245 108 226 89 207 70 188 51 169 32 150 13 131 249 112 230 93 211 74 192 55 173 36 154 17 135 253 116 234 97 215 78 196 59 177 40 158 21 139 2 120 238 101 219 82 200 63 181 44 162 25 143 6 124 242 105 223 86 204 67 185 48 166 29 147 10 128 246 109 227 90 208 71 189 52 170 33 151 14 132 250 113 231 94 212 75 193 56 174 37 155 18 136 254 117 235 98 216 79 197 60 178 41 159 22 
0 212 169 126 83 40 252 209 166 123 80 37 249 206 163 120 77 34 246 203 160 117 74 31 243 200 157 114 71 28 240 197 154 111 68 25 237 194 151 108 65 22 234 191 148 105 62 19 231 188 145 102 59 16 228 185 142 99 56 13 225 182 139 96 53 10 222 179 136 93 50 7 219 176 133 90 47 4 216 173 130 87 44 1 213 170 127 84 41 253 210 167 124 81 38 250 207 164 121 78 35 247 204 161 118 75 32 244 201 158 115 72 29 241 198 155 112 69 26 238 195 152 109 66 23 235 192 149 106 63 20 232 189 146 103 60 17 229 186 143 100 57 14 226 183 140 97 54 11 223 180 137 94 51 8 220 177 134 91 48 5 217 174 131 88 45 2 214 171 128 85 42 254 211 168 125 82 39 251 208 165 122 79 36 248 205 162 119 76 33 245 202 159 116 73 30 242 199 156 113 
0 51 102 153 204 0 51 102 153 204 0 51 102 153 204 0 51 102 153 204 0 51 102 153 204 0 51 102 153 204 0 51 102 153 204 0 51 102 153 204 0 51 102 153 204 0 51 102 153 204 0 51 102 153 204 0 51 102 153 204 0 51 102 153 204 0 51 102 153 204 0 51 102 153 204 0 51 102 153 204 0 51 102 153 204 0 51 102 153 204 0 51 102 153 204 0 51 102 153 204 0 51 102 153 204 0 51 102 153 204 0 51 102 153 204 0 51 102 153 204 0 51 102 153 204 0 51 102 153 204 0 51 102 153 204 0 51 102 153 204 0 51 102 153 204 0 51 102 153 204 0 51 102 153 204 0 51 102 153 204 0 51 102 153 204 0 51 102 153 204 0 51 102 153 204 0 51 102 153 204 0 51 102 153 204 0 51 102 153 204 0 51 102 153 204 0 51 102 153 204 
0 145 35 180 70 215 105 250 140 30 175 65 210 100 245 135 25 170 60 205 95 240 130 20 165 55 200 90 235 125 15 160 50 195 85 230 120 10 155 45 190 80 225 115 5 150 40 185 75 220 110 0 145 35 180 70 215 105 250 140 30 175 65 210 100 245 135 25 170 60 205 95 240 130 20 165 55 200 90 235 125 15 160 50 195 85 230 120 10 155 45 190 80 225 115 5 150 40 185 75 220 110 0 145 35 180 70 215 105 250 140 30 175 65 210 100 245 135 25 170 60 205 95 240 130 20 165 55 200 90 235 125 15 160 50 195 85 230 120 10 155 45 190 80 225 115 5 150 40 185 75 220 110 0 145 35 180 70 215 105 250 140 30 175 65 210 100 245 135 25 170 60 205 95 240 130 20 165 55 200 90 235 125 15 160 50 195 85 230 120 10 155 45 190 80 225 115 5 150 40 
0 239 223 207 191 175 159 143 127 111 95 79 63 47 31 15 254 238 222 206 190 174 158 142 126 110 94 78 62 46 30 14 253 237 221 205 189 173 157 141 125 109 93 77 61 45 29 13 252 236 220 204 188 172 156 140 124 108 92 76 60 44 28 12 251 235 219 203 187 171 155 139 123 107 91 75 59 43 27 11 250 234 218 202 186 170 154 138 122 106 90 74 58 42 26 10 249 233 217 201 185 169 153 137 121 105 89 73 57 41 25 9 248 232 216 200 184 168 152 136 120 104 88 72 56 40 24 8 247 231 215 199 183 167 151 135 119 103 87 71 55 39 23 7 246 230 214 198 182 166 150 134 118 102 86 70 54 38 22 6 245 229 213 197 181 165 149 133 117 101 85 69 53 37 21 5 244 228 212 196 180 164 148 132 116 100 84 68 52 36 20 4 243 227 211 195 179 163 147 131 
0 78 156 234 57 135 213 36 114 192 15 93 171 249 72 150 228 51 129 207 30 108 186 9 87 165 243 66 144 222 45 123 201 24 102 180 3 81 159 237 60 138 216 39 117 195 18 96 174 252 75 153 231 54 132 210 33 111 189 12 90 168 246 69 147 225 48 126 204 27 105 183 6 84 162 240 63 141 219 42 120 198 21 99 177 0 78 156 234 57 135 213 36 114 192 15 93 171 249 72 150 228 51 129 207 30 108 186 9 87 165 243 66 144 222 45 123 201 24 102 180 3 81 159 237 60 138 216 39 117 195 18 96 174 252 75 153 231 54 132 210 33 111 189 12 90 168 246 69 147 225 48 126 204 27 105 183 6 84 162 240 63 141 219 42 120 198 21 99 177 0 78 156 234 57 135 213 36 114 192 15 93 171 249 72 150 228 51 129 207 30 108 186 9 87 165 243 66 144 222 
0 172 89 6 178 95 12 184 101 18 190 107 24 196 113 30 202 119 36 208 125 42 214 131 48 220 137 54 226 143 60 232 149 66 238 155 72 244 161 78 250 167 84 1 173 90 7 179 96 13 185 102 19 191 108 25 197 114 31 203 120 37 209 126 43 215 132 49 221 138 55 227 144 61 233 150 67 239 156 73 245 162 79 251 168 85 2 174 91 8 180 97 14 186 103 20 192 109 26 198 115 32 204 121 38 210 127 44 216 133 50 222 139 56 228 145 62 234 151 68 240 157 74 246 163 80 252 169 86 3 175 92 9 181 98 15 187 104 21 193 110 27 199 116 33 205 122 39 211 128 45 217 134 51 223 140 57 229 146 63 235 152 69 241 158 75 247 164 81 253 170 87 4 176 93 10 182 99 16 188 105 22 194 111 28 200 117 34 206 123 40 212 129 46 218 135 52 224 141 58 
0 11 22 33 44 55 66 77 88 99 110 121 132 143 154 165 176 187 198 209 220 231 242 253 9 20 31 42 53 64 75 86 97 108 119 130 141 152 163 174 185 196 207 218 229 240 251 7 18 29 40 51 62 73 84 95 106 117 128 139 150 161 172 183 194 205 216 227 238 249 5 16 27 38 49 60 71 82 93 104 115 126 137 148 159 170 181 192 203 214 225 236 247 3 14 25 36 47 58 69 80 91 102 113 124 135 146 157 168 179 190 201 212 223 234 245 1 12 23 34 45 56 67 78 89 100 111 122 133 144 155 166 177 188 199 210 221 232 243 254 10 21 32 43 54 65 76 87 98 109 120 131 142 153 164 175 186 197 208 219 230 241 252 8 19 30 41 52 63 74 85 96 107 118 129 140 151 162 173 184 195 206 217 228 239 250 6 17 28 39 50 61 72 83 94 105 116 127 138 149 
0 105 210 60 165 15 120 225 75 180 30 135 240 90 195 45 150 0 105 210 60 165 15 120 225 75 180 30 135 240 90 195 45 150 0 105 210 60 165 15 120 225 75 180 30 135 240 90 195 45 150 0 105 210 60 165 15 120 225 75 180 30 135 240 90 195 45 150 0 105 210 60 165 15 120 225 75 180 30 135 240 90 195 45 150 0 105 210 60 165 15 120 225 75 180 30 135 240 90 195 45 150 0 105 210 60 165 15 120 225 75 180 30 135 240 90 195 45 150 0 105 210 60 165 15 120 225 75 180 30 135 240 90 195 45 150 0 105 210 60 165 15 120 225 75 180 30 135 240 90 195 45 150 0 105 210 60 165 15 120 225 75 180 30 135 240 90 195 45 150 0 105 210 60 165 15 120 225 75 180 30 135 240 90 195 45 150 0 105 210 60 165 15 120 225 75 180 30 135 240 
0 199 143 87 31 230 174 118 62 6 205 149 93 37 236 180 124 68 12 211 155 99 43 242 186 130 74 18 217 161 105 49 248 192 136 80 24 223 167 111 55 254 198 142 86 30 229 173 117 61 5 204 148 92 36 235 179 123 67 11 210 154 98 42 241 185 129 73 17 216 160 104 48 247 191 135 79 23 222 166 110 54 253 197 141 85 29 228 172 116 60 4 203 147 91 35 234 178 122 66 10 209 153 97 41 240 184 128 72 16 215 159 103 47 246 190 134 78 22 221 165 109 53 252 196 140 84 28 227 171 115 59 3 202 146 90 34 233 177 121 65 9 208 152 96 40 239 183 127 71 15 214 158 102 46 245 189 133 77 21 220 164 108 52 251 195 139 83 27 226 170 114 58 2 201 145 89 33 232 176 120 64 8 207 151 95 39 238 182 126 70 14 213 157 101 45 244 188 132 76 
0 38 76 114 152 190 228 11 49 87 125 163 201 239 22 60 98 136 174 212 250 33 71 109 147 185 223 6 44 82 120 158 196 234 17 55 93 131 169 207 245 28 66 104 142 180 218 1 39 77 115 153 191 229 12 50 88 126 164 202 240 23 61 99 137 175 213 251 34 72 110 148 186 224 7 45 83 121 159 197 235 18 56 94 132 170 208 246 29 67 105 143 181 219 2 40 78 116 154 192 230 13 51 89 127 165 203 241 24 62 100 138 176 214 252 35 73 111 149 187 225 8 46 84 122 160 198 236 19 57 95 133 171 209 247 30 68 106 144 182 220 3 41 79 117 155 193 231 14 52 90 128 166 204 242 25 63 101 139 177 215 253 36 74 112 150 188 226 9 47 85 123 161 199 237 20 58 96 134 172 210 248 31 69 107 145 183 221 4 42 80 118 156 194 232 15 53 91 129 167 
0 132 9 141 18 150 27 159 36 168 45 177 54 186 63 195 72 204 81 213 90 222 99 231 108 240 117 249 126 3 135 12 144 21 153 30 162 39 171 48 180 57 189 66 198 75 207 84 216 93 225 102 234 111 243 120 252 129 6 138 15 147 24 156 33 165 42 174 51 183 60 192 69 201 78 210 87 219 96 228 105 237 114 246 123 0 132 9 141 18 150 27 159 36 168 45 177 54 186 63 195 72 204 81 213 90 222 99 231 108 240 117 249 126 3 135 12 144 21 153 30 162 39 171 48 180 57 189 66 198 75 207 84 216 93 225 102 234 111 243 120 252 129 6 138 15 147 24 156 33 165 42 174 51 183 60 192 69 201 78 210 87 219 96 228 105 237 114 246 123 0 132 9 141 18 150 27 159 36 168 45 177 54 186 63 195 72 204 81 213 90 222 99 231 108 240 117 249 126 3 
0 226 197 168 139 110 81 52 23 249 220 191 162 133 104 75 46 17 243 214 185 156 127 98 69 40 11 237 208 179 150 121 92 63 34 5 231 202 173 144 115 86 57 28 254 225 196 167 138 109 80 51 22 248 219 190 161 132 103 74 45 16 242 213 184 155 126 97 68 39 10 236 207 178 149 120 91 62 33 4 230 201 172 143 114 85 56 27 253 224 195 166 137 108 79 50 21 247 218 189 160 131 102 73 44 15 241 212 183 154 125 96 67 38 9 235 206 177 148 119 90 61 32 3 229 200 171 142 113 84 55 26 252 223 194 165 136 107 78 49 20 246 217 188 159 130 101 72 43 14 240 211 182 153 124 95 66 37 8 234 205 176 147 118 89 60 31 2 228 199 170 141 112 83 54 25 251 222 193 164 135 106 77 48 19 245 216 187 158 129 100 71 42 13 239 210 181 152 123 94 
0 65 130 195 5 70 135 200 10 75 140 205 15 80 145 210 20 85 150 215 25 90 155 220 30 95 160 225 35 100 165 230 40 105 170 235 45 110 175 240 50 115 180 245 55 120 185 250 60 125 190 0 65 130 195 5 70 135 200 10 75 140 205 15 80 145 210 20 85 150 215 25 90 155 220 30 95 160 225 35 100 165 230 40 105 170 235 45 110 175 240 50 115 180 245 55 120 185 250 60 125 190 0 65 130 195 5 70 135 200 10 75 140 205 15 80 145 210 20 85 150 215 25 90 155 220 30 95 160 225 35 100 165 230 40 105 170 235 45 110 175 240 50 115 180 245 55 120 185 250 60 125 190 0 65 130 195 5 70 135 200 10 75 140 205 15 80 145 210 20 85 150 215 25 90 155 220 30 95 160 225 35 100 165 230 40 105 170 235 45 110 175 240 50 115 180 245 55 120 185 
0 159 63 222 126 30 189 93 252 156 60 219 123 27 186 90 249 153 57 216 120 24 183 87 246 150 54 213 117 21 180 84 243 147 51 210 114 18 177 81 240 144 48 207 111 15 174 78 237 141 45 204 108 12 171 75 234 138 42 201 105 9 168 72 231 135 39 198 102 6 165 69 228 132 36 195 99 3 162 66 225 129 33 192 96 0 159 63 222 126 30 189 93 252 156 60 219 123 27 186 90 249 153 57 216 120 24 183 87 246 150 54 213 117 21 180 84 243 147 51 210 114 18 177 81 240 144 48 207 111 15 174 78 237 141 45 204 108 12 171 75 234 138 42 201 105 9 168 72 231 135 39 198 102 6 165 69 228 132 36 195 99 3 162 66 225 129 33 192 96 0 159 63 222 126 30 189 93 252 156 60 219 123 27 186 90 249 153 57 216 120 24 183 87 246 150 54 213 117 21 
0 253 251 249 247 245 243 241 239 237 235 233 231 229 227 225 223 221 219 217 215 213 211 209 207 205 203 201 199 197 195 193 191 189 187 185 183 181 179 177 175 173 171 169 167 165 163 161 159 157 155 153 151 149 147 145 143 141 139 137 135 133 131 129 127 125 123 121 119 117 115 113 111 109 107 105 103 101 99 97 95 93 91 89 87 85 83 81 79 77 75 73 71 69 67 65 63 61 59 57 55 53 51 49 47 45 43 41 39 37 35 33 31 29 27 25 23 21 19 17 15 13 11 9 7 5 3 1 254 252 250 248 246 244 242 240 238 236 234 232 230 228 226 224 222 220 218 216 214 212 210 208 206 204 202 200 198 196 194 192 190 188 186 184 182 180 178 176 174 172 170 168 166 164 162 160 158 156 154 152 150 148 146 144 142 140 138 136 134 132 130 128 126 124 122 120 118 116 114 112 
0 92 184 21 113 205 42 134 226 63 155 247 84 176 13 105 197 34 126 218 55 147 239 76 168 5 97 189 26 118 210 47 139 231 68 160 252 89 181 18 110 202 39 131 223 60 152 244 81 173 10 102 194 31 123 215 52 144 236 73 165 2 94 186 23 115 207 44 136 228 65 157 249 86 178 15 107 199 36 128 220 57 149 241 78 170 7 99 191 28 120 212 49 141 233 70 162 254 91 183 20 112 204 41 133 225 62 154 246 83 175 12 104 196 33 125 217 54 146 238 75 167 4 96 188 25 117 209 46 138 230 67 159 251 88 180 17 109 201 38 130 222 59 151 243 80 172 9 101 193 30 122 214 51 143 235 72 164 1 93 185 22 114 206 43 135 227 64 156 248 85 177 14 106 198 35 127 219 56 148 240 77 169 6 98 190 27 119 211 48 140 232 69 161 253 90 182 19 111 203 
0 186 117 48 234 165 96 27 213 144 75 6 192 123 54 240 171 102 33 219 150 81 12 198 129 60 246 177 108 39 225 156 87 18 204 135 66 252 183 114 45 231 162 93 24 210 141 72 3 189 120 51 237 168 99 30 216 147 78 9 195 126 57 243 174 105 36 222 153 84 15 201 132 63 249 180 111 42 228 159 90 21 207 138 69 0 186 117 48 234 165 96 27 213 144 75 6 192 123 54 240 171 102 33 219 150 81 12 198 129 60 246 177 108 39 225 156 87 18 204 135 66 252 183 114 45 231 162 93 24 210 141 72 3 189 120 51 237 168 99 30 216 147 78 9 195 126 57 243 174 105 36 222 153 84 15 201 132 63 249 180 111 42 228 159 90 21 207 138 69 0 186 117 48 234 165 96 27 213 144 75 6 192 123 54 240 171 102 33 219 150 81 12 198 129 60 246 177 108 39 
0 25 50 75 100 125 150 175 200 225 250 20 45 70 95 120 145 170 195 220 245 15 40 65 90 115 140 165 190 215 240 10 35 60 85 110 135 160 185 210 235 5 30 55 80 105 130 155 180 205 230 0 25 50 75 100 125 150 175 200 225 250 20 45 70 95 120 145 170 195 220 245 15 40 65 90 115 140 165 190 215 240 10 35 60 85 110 135 160 185 210 235 5 30 55 80 105 130 155 180 205 230 0 25 50 75 100 125 150 175 200 225 250 20 45 70 95 120 145 170 195 220 245 15 40 65 90 115 140 165 190 215 240 10 35 60 85 110 135 160 185 210 235 5 30 55 80 105 130 155 180 205 230 0 25 50 75 100 125 150 175 200 225 250 20 45 70 95 120 145 170 195 220 245 15 40 65 90 115 140 165 190 215 240 10 35 60 85 110 135 160 185 210 235 5 30 55 80 105 130 
0 119 238 102 221 85 204 68 187 51 170 34 153 17 136 0 119 238 102 221 85 204 68 187 51 170 34 153 17 136 0 119 238 102 221 85 204 68 187 51 170 34 153 17 136 0 119 238 102 221 85 204 68 187 51 170 34 153 17 136 0 119 238 102 221 85 204 68 187 51 170 34 153 17 136 0 119 238 102 221 85 204 68 187 51 170 34 153 17 136 0 119 238 102 221 85 204 68 187 51 170 34 153 17 136 0 119 238 102 221 85 204 68 187 51 170 34 153 17 136 0 119 238 102 221 85 204 68 187 51 170 34 153 17 136 0 119 238 102 221 85 204 68 187 51 170 34 153 17 136 0 119 238 102 221 85 204 68 187 51 170 34 153 17 136 0 119 238 102 221 85 204 68 187 51 170 34 153 17 136 0 119 238 102 221 85 204 68 187 51 170 34 153 17 136 0 119 238 102 221 
0 213 171 129 87 45 3 216 174 132 90 48 6 219 177 135 93 51 9 222 180 138 96 54 12 225 183 141 99 57 15 228 186 144 102 60 18 231 189 147 105 63 21 234 192 150 108 66 24 237 195 153 111 69 27 240 198 156 114 72 30 243 201 159 117 75 33 246 204 162 120 78 36 249 207 165 123 81 39 252 210 168 126 84 42 0 213 171 129 87 45 3 216 174 132 90 48 6 219 177 135 93 51 9 222 180 138 96 54 12 225 183 141 99 57 15 228 186 144 102 60 18 231 189 147 105 63 21 234 192 150 108 66 24 237 195 153 111 69 27 240 198 156 114 72 30 243 201 159 117 75 33 246 204 162 120 78 36 249 207 165 123 81 39 252 210 168 126 84 42 0 213 171 129 87 45 3 216 174 132 90 48 6 219 177 135 93 51 9 222 180 138 96 54 12 225 183 141 99 57 
0 52 104 156 208 5 57 109 161 213 10 62 114 166 218 15 67 119 171 223 20 72 124 176 228 25 77 129 181 233 30 82 134 186 238 35 87 139 191 243 40 92 144 196 248 45 97 149 201 253 50 102 154 206 3 55 107 159 211 8 60 112 164 216 13 65 117 169 221 18 70 122 174 226 23 75 127 179 231 28 80 132 184 236 33 85 137 189 241 38 90 142 194 246 43 95 147 199 251 48 100 152 204 1 53 105 157 209 6 58 110 162 214 11 63 115 167 219 16 68 120 172 224 21 73 125 177 229 26 78 130 182 234 31 83 135 187 239 36 88 140 192 244 41 93 145 197 249 46 98 150 202 254 51 103 155 207 4 56 108 160 212 9 61 113 165 217 14 66 118 170 222 19 71 123 175 227 24 76 128 180 232 29 81 133 185 237 34 86 138 190 242 39 91 143 195 247 44 96 148 
0 146 37 183 74 220 111 2 148 39 185 76 222 113 4 150 41 187 78 224 115 6 152 43 189 80 226 117 8 154 45 191 82 228 119 10 156 47 193 84 230 121 12 158 49 195 86 232 123 14 160 51 197 88 234 125 16 162 53 199 90 236 127 18 164 55 201 92 238 129 20 166 57 203 94 240 131 22 168 59 205 96 242 133 24 170 61 207 98 244 135 26 172 63 209 100 246 137 28 174 65 211 102 248 139 30 176 67 213 104 250 141 32 178 69 215 106 252 143 34 180 71 217 108 254 145 36 182 73 219 110 1 147 38 184 75 221 112 3 149 40 186 77 223 114 5 151 42 188 79 225 116 7 153 44 190 81 227 118 9 155 46 192 83 229 120 11 157 48 194 85 231 122 13 159 50 196 87 233 124 15 161 52 198 89 235 126 17 163 54 200 91 237 128 19 165 56 202 93 239 
0 240 225 210 195 180 165 150 135 120 105 90 75 60 45 30 15 0 240 225 210 195 180 165 150 135 120 105 90 75 60 45 30 15 0 240 225 210 195 180 165 150 135 120 105 90 75 60 45 30 15 0 240 225 210 195 180 165 150 135 120 105 90 75 60 45 30 15 0 240 225 210 195 180 165 150 135 120 105 90 75 60 45 30 15 0 240 225 210 195 180 165 150 135 120 105 90 75 60 45 30 15 0 240 225 210 195 180 165 150 135 120 105 90 75 60 45 30 15 0 240 225 210 195 180 165 150 135 120 105 90 75 60 45 30 15 0 240 225 210 195 180 165 150 135 120 105 90 75 60 45 30 15 0 240 225 210 195 180 165 150 135 120 105 90 75 60 45 30 15 0 240 225 210 195 180 165 150 135 120 105 90 75 60 45 30 15 0 240 225 210 195 180 165 150 135 120 105 90 75 
0 79 158 237 61 140 219 43 122 201 25 104 183 7 86 165 244 68 147 226 50 129 208 32 111 190 14 93 172 251 75 154 233 57 136 215 39 118 197 21 100 179 3 82 161 240 64 143 222 46 125 204 28 107 186 10 89 168 247 71 150 229 53 132 211 35 114 193 17 96 175 254 78 157 236 60 139 218 42 121 200 24 103 182 6 85 164 243 67 146 225 49 128 207 31 110 189 13 92 171 250 74 153 232 56 135 214 38 117 196 20 99 178 2 81 160 239 63 142 221 45 124 203 27 106 185 9 88 167 246 70 149 228 52 131 210 34 113 192 16 95 174 253 77 156 235 59 138 217 41 120 199 23 102 181 5 84 163 242 66 145 224 48 127 206 30 109 188 12 91 170 249 73 152 231 55 134 213 37 116 195 19 98 177 1 80 159 238 62 141 220 44 123 202 26 105 184 8 87 166 
0 173 91 9 182 100 18 191 109 27 200 118 36 209 127 45 218 136 54 227 145 63 236 154 72 245 163 81 254 172 90 8 181 99 17 190 108 26 199 117 35 208 126 44 217 135 53 226 144 62 235 153 71 244 162 80 253 171 89 7 180 98 16 189 107 25 198 116 34 207 125 43 216 134 52 225 143 61 234 152 70 243 161 79 252 170 88 6 179 97 15 188 106 24 197 115 33 206 124 42 215 133 51 224 142 60 233 151 69 242 160 78 251 169 87 5 178 96 14 187 105 23 196 114 32 205 123 41 214 132 50 223 141 59 232 150 68 241 159 77 250 168 86 4 177 95 13 186 104 22 195 113 31 204 122 40 213 131 49 222 140 58 231 149 67 240 158 76 249 167 85 3 176 94 12 185 103 21 194 112 30 203 121 39 212 130 48 221 139 57 230 148 66 239 157 75 248 166 84 2 
0 12 24 36 48 60 72 84 96 108 120 132 144 156 168 180 192 204 216 228 240 252 9 21 33 45 57 69 81 93 105 117 129 141 153 165 177 189 201 213 225 237 249 6 18 30 42 54 66 78 90 102 114 126 138 150 162 174 186 198 210 222 234 246 3 15 27 39 51 63 75 87 99 111 123 135 147 159 171 183 195 207 219 231 243 0 12 24 36 48 60 72 84 96 108 120 132 144 156 168 180 192 204 216 228 240 252 9 21 33 45 57 69 81 93 105 117 129 141 153 165 177 189 201 213 225 237 249 6 18 30 42 54 66 78 90 102 114 126 138 150 162 174 186 198 210 222 234 246 3 15 27 39 51 63 75 87 99 111 123 135 147 159 171 183 195 207 219 231 243 0 12 24 36 48 60 72 84 96 108 120 132 144 156 168 180 192 204 216 228 240 252 9 21 33 45 57 69 81 93 
0 106 212 63 169 20 126 232 83 189 40 146 252 103 209 60 166 17 123 229 80 186 37 143 249 100 206 57 163 14 120 226 77 183 34 140 246 97 203 54 160 11 117 223 74 180 31 137 243 94 200 51 157 8 114 220 71 177 28 134 240 91 197 48 154 5 111 217 68 174 25 131 237 88 194 45 151 2 108 214 65 171 22 128 234 85 191 42 148 254 105 211 62 168 19 125 231 82 188 39 145 251 102 208 59 165 16 122 228 79 185 36 142 248 99 205 56 162 13 119 225 76 182 33 139 245 96 202 53 159 10 116 222 73 179 30 136 242 93 199 50 156 7 113 219 70 176 27 133 239 90 196 47 153 4 110 216 67 173 24 130 236 87 193 44 150 1 107 213 64 170 21 127 233 84 190 41 147 253 104 210 61 167 18 124 230 81 187 38 144 250 101 207 58 164 15 121 227 78 184 
0 200 145 90 35 235 180 125 70 15 215 160 105 50 250 195 140 85 30 230 175 120 65 10 210 155 100 45 245 190 135 80 25 225 170 115 60 5 205 150 95 40 240 185 130 75 20 220 165 110 55 0 200 145 90 35 235 180 125 70 15 215 160 105 50 250 195 140 85 30 230 175 120 65 10 210 155 100 45 245 190 135 80 25 225 170 115 60 5 205 150 95 40 240 185 130 75 20 220 165 110 55 0 200 145 90 35 235 180 125 70 15 215 160 105 50 250 195 140 85 30 230 175 120 65 10 210 155 100 45 245 190 135 80 25 225 170 115 60 5 205 150 95 40 240 185 130 75 20 220 165 110 55 0 200 145 90 35 235 180 125 70 15 215 160 105 50 250 195 140 85 30 230 175 120 65 10 210 155 100 45 245 190 135 80 25 225 170 115 60 5 205 150 95 40 240 185 130 75 20 
0 39 78 117 156 195 234 18 57 96 135 174 213 252 36 75 114 153 192 231 15 54 93 132 171 210 249 33 72 111 150 189 228 12 51 90 129 168 207 246 30 69 108 147 186 225 9 48 87 126 165 204 243 27 66 105 144 183 222 6 45 84 123 162 201 240 24 63 102 141 180 219 3 42 81 120 159 198 237 21 60 99 138 177 216 0 39 78 117 156 195 234 18 57 96 135 174 213 252 36 75 114 153 192 231 15 54 93 132 171 210 249 33 72 111 150 189 228 12 51 90 129 168 207 246 30 69 108 147 186 225 9 48 87 126 165 204 243 27 66 105 144 183 222 6 45 84 123 162 201 240 24 63 102 141 180 219 3 42 81 120 159 198 237 21 60 99 138 177 216 0 39 78 117 156 195 234 18 57 96 135 174 213 252 36 75 114 153 192 231 15 54 93 132 171 210 249 33 72 111 
0 133 11 144 22 155 33 166 44 177 55 188 66 199 77 210 88 221 99 232 110 243 121 254 132 10 143 21 154 32 165 43 176 54 187 65 198 76 209 87 220 98 231 109 242 120 253 131 9 142 20 153 31 164 42 175 53 186 64 197 75 208 86 219 97 230 108 241 119 252 130 8 141 19 152 30 163 41 174 52 185 63 196 74 207 85 218 96 229 107 240 118 251 129 7 140 18 151 29 162 40 173 51 184 62 195 73 206 84 217 95 228 106 239 117 250 128 6 139 17 150 28 161 39 172 50 183 61 194 72 205 83 216 94 227 105 238 116 249 127 5 138 16 149 27 160 38 171 49 182 60 193 71 204 82 215 93 226 104 237 115 248 126 4 137 15 148 26 159 37 170 48 181 59 192 70 203 81 214 92 225 103 236 114 247 125 3 136 14 147 25 158 36 169 47 180 58 191 69 202 
0 227 199 171 143 115 87 59 31 3 230 202 174 146 118 90 62 34 6 233 205 177 149 121 93 65 37 9 236 208 180 152 124 96 68 40 12 239 211 183 155 127 99 71 43 15 242 214 186 158 130 102 74 46 18 245 217 189 161 133 105 77 49 21 248 220 192 164 136 108 80 52 24 251 223 195 167 139 111 83 55 27 254 226 198 170 142 114 86 58 30 2 229 201 173 145 117 89 61 33 5 232 204 176 148 120 92 64 36 8 235 207 179 151 123 95 67 39 11 238 210 182 154 126 98 70 42 14 241 213 185 157 129 101 73 45 17 244 216 188 160 132 104 76 48 20 247 219 191 163 135 107 79 51 23 250 222 194 166 138 110 82 54 26 253 225 197 169 141 113 85 57 29 1 228 200 172 144 116 88 60 32 4 231 203 175 147 119 91 63 35 7 234 206 178 150 122 94 66 38 
0 66 132 198 9 75 141 207 18 84 150 216 27 93 159 225 36 102 168 234 45 111 177 243 54 120 186 252 63 129 195 6 72 138 204 15 81 147 213 24 90 156 222 33 99 165 231 42 108 174 240 51 117 183 249 60 126 192 3 69 135 201 12 78 144 210 21 87 153 219 30 96 162 228 39 105 171 237 48 114 180 246 57 123 189 0 66 132 198 9 75 141 207 18 84 150 216 27 93 159 225 36 102 168 234 45 111 177 243 54 120 186 252 63 129 195 6 72 138 204 15 81 147 213 24 90 156 222 33 99 165 231 42 108 174 240 51 117 183 249 60 126 192 3 69 135 201 12 78 144 210 21 87 153 219 30 96 162 228 39 105 171 237 48 114 180 246 57 123 189 0 66 132 198 9 75 141 207 18 84 150 216 27 93 159 225 36 102 168 234 45 111 177 243 54 120 186 252 63 129 
0 160 65 225 130 35 195 100 5 165 70 230 135 40 200 105 10 170 75 235 140 45 205 110 15 175 80 240 145 50 210 115 20 180 85 245 150 55 215 120 25 185 90 250 155 60 220 125 30 190 95 0 160 65 225 130 35 195 100 5 165 70 230 135 40 200 105 10 170 75 235 140 45 205 110 15 175 80 240 145 50 210 115 20 180 85 245 150 55 215 120 25 185 90 250 155 60 220 125 30 190 95 0 160 65 225 130 35 195 100 5 165 70 230 135 40 200 105 10 170 75 235 140 45 205 110 15 175 80 240 145 50 210 115 20 180 85 245 150 55 215 120 25 185 90 250 155 60 220 125 30 190 95 0 160 65 225 130 35 195 100 5 165 70 230 135 40 200 105 10 170 75 235 140 45 205 110 15 175 80 240 145 50 210 115 20 180 85 245 150 55 215 120 25 185 90 250 155 60 220 
0 254 253 252 251 250 249 248 247 246 245 244 243 242 241 240 239 238 237 236 235 234 233 232 231 230 229 228 227 226 225 224 223 222 221 220 219 218 217 216 215 214 213 212 211 210 209 208 207 206 205 204 203 202 201 200 199 198 197 196 195 194 193 192 191 190 189 188 187 186 185 184 183 182 181 180 179 178 177 176 175 174 173 172 171 170 169 168 167 166 165 164 163 162 161 160 159 158 157 156 155 154 153 152 151 150 149 148 147 146 145 144 143 142 141 140 139 138 137 136 135 134 133 132 131 130 129 128 127 126 125 124 123 122 121 120 119 118 117 116 115 114 113 112 111 110 109 108 107 106 105 104 103 102 101 100 99 98 97 96 95 94 93 92 91 90 89 88 87 86 85 84 83 82 81 80 79 78 77 76 75 74 73 72 71 70 69 68 67 66 65 64 63 62 61 60 59 58 57 56 
0 93 186 24 117 210 48 141 234 72 165 3 96 189 27 120 213 51 144 237 75 168 6 99 192 30 123 216 54 147 240 78 171 9 102 195 33 126 219 57 150 243 81 174 12 105 198 36 129 222 60 153 246 84 177 15 108 201 39 132 225 63 156 249 87 180 18 111 204 42 135 228 66 159 252 90 183 21 114 207 45 138 231 69 162 0 93 186 24 117 210 48 141 234 72 165 3 96 189 27 120 213 51 144 237 75 168 6 99 192 30 123 216 54 147 240 78 171 9 102 195 33 126 219 57 150 243 81 174 12 105 198 36 129 222 60 153 246 84 177 15 108 201 39 132 225 63 156 249 87 180 18 111 204 42 135 228 66 159 252 90 183 21 114 207 45 138 231 69 162 0 93 186 24 117 210 48 141 234 72 165 3 96 189 27 120 213 51 144 237 75 168 6 99 192 30 123 216 54 147 
0 187 119 51 238 170 102 34 221 153 85 17 204 136 68 0 187 119 51 238 170 102 34 221 153 85 17 204 136 68 0 187 119 51 238 170 102 34 221 153 85 17 204 136 68 0 187 119 51 238 170 102 34 221 153 85 17 204 136 68 0 187 119 51 238 170 102 34 221 153 85 17 204 136 68 0 187 119 51 238 170 102 34 221 153 85 17 204 136 68 0 187 119 51 238 170 102 34 221 153 85 17 204 136 68 0 187 119 51 238 170 102 34 221 153 85 17 204 136 68 0 187 119 51 238 170 102 34 221 153 85 17 204 136 68 0 187 119 51 238 170 102 34 221 153 85 17 204 136 68 0 187 119 51 238 170 102 34 221 153 85 17 204 136 68 0 187 119 51 238 170 102 34 221 153 85 17 204 136 68 0 187 119 51 238 170 102 34 221 153 85 17 204 136 68 0 187 119 51 238 
0 26 52 78 104 130 156 182 208 234 5 31 57 83 109 135 161 187 213 239 10 36 62 88 114 140 166 192 218 244 15 41 67 93 119 145 171 197 223 249 20 46 72 98 124 150 176 202 228 254 25 51 77 103 129 155 181 207 233 4 30 56 82 108 134 160 186 212 238 9 35 61 87 113 139 165 191 217 243 14 40 66 92 118 144 170 196 222 248 19 45 71 97 123 149 175 201 227 253 24 50 76 102 128 154 180 206 232 3 29 55 81 107 133 159 185 211 237 8 34 60 86 112 138 164 190 216 242 13 39 65 91 117 143 169 195 221 247 18 44 70 96 122 148 174 200 226 252 23 49 75 101 127 153 179 205 231 2 28 54 80 106 132 158 184 210 236 7 33 59 85 111 137 163 189 215 241 12 38 64 90 116 142 168 194 220 246 17 43 69 95 121 147 173 199 225 251 22 48 74 
0 120 240 105 225 90 210 75 195 60 180 45 165 30 150 15 135 0 120 240 105 225 90 210 75 195 60 180 45 165 30 150 15 135 0 120 240 105 225 90 210 75 195 60 180 45 165 30 150 15 135 0 120 240 105 225 90 210 75 195 60 180 45 165 30 150 15 135 0 120 240 105 225 90 210 75 195 60 180 45 165 30 150 15 135 0 120 240 105 225 90 210 75 195 60 180 45 165 30 150 15 135 0 120 240 105 225 90 210 75 195 60 180 45 165 30 150 15 135 0 120 240 105 225 90 210 75 195 60 180 45 165 30 150 15 135 0 120 240 105 225 90 210 75 195 60 180 45 165 30 150 15 135 0 120 240 105 225 90 210 75 195 60 180 45 165 30 150 15 135 0 120 240 105 225 90 210 75 195 60 180 45 165 30 150 15 135 0 120 240 105 225 90 210 75 195 60 180 45 165 
0 214 173 132 91 50 9 223 182 141 100 59 18 232 191 150 109 68 27 241 200 159 118 77 36 250 209 168 127 86 45 4 218 177 136 95 54 13 227 186 145 104 63 22 236 195 154 113 72 31 245 204 163 122 81 40 254 213 172 131 90 49 8 222 181 140 99 58 17 231 190 149 108 67 26 240 199 158 117 76 35 249 208 167 126 85 44 3 217 176 135 94 53 12 226 185 144 103 62 21 235 194 153 112 71 30 244 203 162 121 80 39 253 212 171 130 89 48 7 221 180 139 98 57 16 230 189 148 107 66 25 239 198 157 116 75 34 248 207 166 125 84 43 2 216 175 134 93 52 11 225 184 143 102 61 20 234 193 152 111 70 29 243 202 161 120 79 38 252 211 170 129 88 47 6 220 179 138 97 56 15 229 188 147 106 65 24 238 197 156 115 74 33 247 206 165 124 83 42 1 
0 53 106 159 212 10 63 116 169 222 20 73 126 179 232 30 83 136 189 242 40 93 146 199 252 50 103 156 209 7 60 113 166 219 17 70 123 176 229 27 80 133 186 239 37 90 143 196 249 47 100 153 206 4 57 110 163 216 14 67 120 173 226 24 77 130 183 236 34 87 140 193 246 44 97 150 203 1 54 107 160 213 11 64 117 170 223 21 74 127 180 233 31 84 137 190 243 41 94 147 200 253 51 104 157 210 8 61 114 167 220 18 71 124 177 230 28 81 134 187 240 38 91 144 197 250 48 101 154 207 5 58 111 164 217 15 68 121 174 227 25 78 131 184 237 35 88 141 194 247 45 98 151 204 2 55 108 161 214 12 65 118 171 224 22 75 128 181 234 32 85 138 191 244 42 95 148 201 254 52 105 158 211 9 62 115 168 221 19 72 125 178 231 29 82 135 188 241 39 92 
0 147 39 186 78 225 117 9 156 48 195 87 234 126 18 165 57 204 96 243 135 27 174 66 213 105 252 144 36 183 75 222 114 6 153 45 192 84 231 123 15 162 54 201 93 240 132 24 171 63 210 102 249 141 33 180 72 219 111 3 150 42 189 81 228 120 12 159 51 198 90 237 129 21 168 60 207 99 246 138 30 177 69 216 108 0 147 39 186 78 225 117 9 156 48 195 87 234 126 18 165 57 204 96 243 135 27 174 66 213 105 252 144 36 183 75 222 114 6 153 45 192 84 231 123 15 162 54 201 93 240 132 24 171 63 210 102 249 141 33 180 72 219 111 3 150 42 189 81 228 120 12 159 51 198 90 237 129 21 168 60 207 99 246 138 30 177 69 216 108 0 147 39 186 78 225 117 9 156 48 195 87 234 126 18 165 57 204 96 243 135 27 174 66 213 105 252 144 36 183 
0 241 227 213 199 185 171 157 143 129 115 101 87 73 59 45 31 17 3 244 230 216 202 188 174 160 146 132 118 104 90 76 62 48 34 20 6 247 233 219 205 191 177 163 149 135 121 107 93 79 65 51 37 23 9 250 236 222 208 194 180 166 152 138 124 110 96 82 68 54 40 26 12 253 239 225 211 197 183 169 155 141 127 113 99 85 71 57 43 29 15 1 242 228 214 200 186 172 158 144 130 116 102 88 74 60 46 32 18 4 245 231 217 203 189 175 161 147 133 119 105 91 77 63 49 35 21 7 248 234 220 206 192 178 164 150 136 122 108 94 80 66 52 38 24 10 251 237 223 209 195 181 167 153 139 125 111 97 83 69 55 41 27 13 254 240 226 212 198 184 170 156 142 128 114 100 86 72 58 44 30 16 2 243 229 215 201 187 173 159 145 131 117 103 89 75 61 47 33 19 
0 80 160 240 65 145 225 50 130 210 35 115 195 20 100 180 5 85 165 245 70 150 230 55 135 215 40 120 200 25 105 185 10 90 170 250 75 155 235 60 140 220 45 125 205 30 110 190 15 95 175 0 80 160 240 65 145 225 50 130 210 35 115 195 20 100 180 5 85 165 245 70 150 230 55 135 215 40 120 200 25 105 185 10 90 170 250 75 155 235 60 140 220 45 125 205 30 110 190 15 95 175 0 80 160 240 65 145 225 50 130 210 35 115 195 20 100 180 5 85 165 245 70 150 230 55 135 215 40 120 200 25 105 185 10 90 170 250 75 155 235 60 140 220 45 125 205 30 110 190 15 95 175 0 80 160 240 65 145 225 50 130 210 35 115 195 20 100 180 5 85 165 245 70 150 230 55 135 215 40 120 200 25 105 185 10 90 170 250 75 155 235 60 140 220 45 125 205 30 110 
0 174 93 12 186 105 24 198 117 36 210 129 48 222 141 60 234 153 72 246 165 84 3 177 96 15 189 108 27 201 120 39 213 132 51 225 144 63 237 156 75 249 168 87 6 180 99 18 192 111 30 204 123 42 216 135 54 228 147 66 240 159 78 252 171 90 9 183 102 21 195 114 33 207 126 45 219 138 57 231 150 69 243 162 81 0 174 93 12 186 105 24 198 117 36 210 129 48 222 141 60 234 153 72 246 165 84 3 177 96 15 189 108 27 201 120 39 213 132 51 225 144 63 237 156 75 249 168 87 6 180 99 18 192 111 30 204 123 42 216 135 54 228 147 66 240 159 78 252 171 90 9 183 102 21 195 114 33 207 126 45 219 138 57 231 150 69 243 162 81 0 174 93 12 186 105 24 198 117 36 210 129 48 222 141 60 234 153 72 246 165 84 3 177 96 15 189 108 27 201 
0 13 26 39 52 65 78 91 104 117 130 143 156 169 182 195 208 221 234 247 5 18 31 44 57 70 83 96 109 122 135 148 161 174 187 200 213 226 239 252 10 23 36 49 62 75 88 101 114 127 140 153 166 179 192 205 218 231 244 2 15 28 41 54 67 80 93 106 119 132 145 158 171 184 197 210 223 236 249 7 20 33 46 59 72 85 98 111 124 137 150 163 176 189 202 215 228 241 254 12 25 38 51 64 77 90 103 116 129 142 155 168 181 194 207 220 233 246 4 17 30 43 56 69 82 95 108 121 134 147 160 173 186 199 212 225 238 251 9 22 35 48 61 74 87 100 113 126 139 152 165 178 191 204 217 230 243 1 14 27 40 53 66 79 92 105 118 131 144 157 170 183 196 209 222 235 248 6 19 32 45 58 71 84 97 110 123 136 149 162 175 188 201 214 227 240 253 11 24 37 
0 107 214 66 173 25 132 239 91 198 50 157 9 116 223 75 182 34 141 248 100 207 59 166 18 125 232 84 191 43 150 2 109 216 68 175 27 134 241 93 200 52 159 11 118 225 77 184 36 143 250 102 209 61 168 20 127 234 86 193 45 152 4 111 218 70 177 29 136 243 95 202 54 161 13 120 227 79 186 38 145 252 104 211 63 170 22 129 236 88 195 47 154 6 113 220 72 179 31 138 245 97 204 56 163 15 122 229 81 188 40 147 254 106 213 65 172 24 131 238 90 197 49 156 8 115 222 74 181 33 140 247 99 206 58 165 17 124 231 83 190 42 149 1 108 215 67 174 26 133 240 92 199 51 158 10 117 224 76 183 35 142 249 101 208 60 167 19 126 233 85 192 44 151 3 110 217 69 176 28 135 242 94 201 53 160 12 119 226 78 185 37 144 251 103 210 62 169 21 128 
0 201 147 93 39 240 186 132 78 24 225 171 117 63 9 210 156 102 48 249 195 141 87 33 234 180 126 72 18 219 165 111 57 3 204 150 96 42 243 189 135 81 27 228 174 120 66 12 213 159 105 51 252 198 144 90 36 237 183 129 75 21 222 168 114 60 6 207 153 99 45 246 192 138 84 30 231 177 123 69 15 216 162 108 54 0 201 147 93 39 240 186 132 78 24 225 171 117 63 9 210 156 102 48 249 195 141 87 33 234 180 126 72 18 219 165 111 57 3 204 150 96 42 243 189 135 81 27 228 174 120 66 12 213 159 105 51 252 198 144 90 36 237 183 129 75 21 222 168 114 60 6 207 153 99 45 246 192 138 84 30 231 177 123 69 15 216 162 108 54 0 201 147 93 39 240 186 132 78 24 225 171 117 63 9 210 156 102 48 249 195 141 87 33 234 180 126 72 18 219 
0 40 80 120 160 200 240 25 65 105 145 185 225 10 50 90 130 170 210 250 35 75 115 155 195 235 20 60 100 140 180 220 5 45 85 125 165 205 245 30 70 110 150 190 230 15 55 95 135 175 215 0 40 80 120 160 200 240 25 65 105 145 185 225 10 50 90 130 170 210 250 35 75 115 155 195 235 20 60 100 140 180 220 5 45 85 125 165 205 245 30 70 110 150 190 230 15 55 95 135 175 215 0 40 80 120 160 200 240 25 65 105 145 185 225 10 50 90 130 170 210 250 35 75 115 155 195 235 20 60 100 140 180 220 5 45 85 125 165 205 245 30 70 110 150 190 230 15 55 95 135 175 215 0 40 80 120 160 200 240 25 65 105 145 185 225 10 50 90 130 170 210 250 35 75 115 155 195 235 20 60 100 140 180 220 5 45 85 125 165 205 245 30 70 110 150 190 230 15 55 
0 134 13 147 26 160 39 173 52 186 65 199 78 212 91 225 104 238 117 251 130 9 143 22 156 35 169 48 182 61 195 74 208 87 221 100 234 113 247 126 5 139 18 152 31 165 44 178 57 191 70 204 83 217 96 230 109 243 122 1 135 14 148 27 161 40 174 53 187 66 200 79 213 92 226 105 239 118 252 131 10 144 23 157 36 170 49 183 62 196 75 209 88 222 101 235 114 248 127 6 140 19 153 32 166 45 179 58 192 71 205 84 218 97 231 110 244 123 2 136 15 149 28 162 41 175 54 188 67 201 80 214 93 227 106 240 119 253 132 11 145 24 158 37 171 50 184 63 197 76 210 89 223 102 236 115 249 128 7 141 20 154 33 167 46 180 59 193 72 206 85 219 98 232 111 245 124 3 137 16 150 29 163 42 176 55 189 68 202 81 215 94 228 107 241 120 254 133 12 146 
0 228 201 174 147 120 93 66 39 12 240 213 186 159 132 105 78 51 24 252 225 198 171 144 117 90 63 36 9 237 210 183 156 129 102 75 48 21 249 222 195 168 141 114 87 60 33 6 234 207 180 153 126 99 72 45 18 246 219 192 165 138 111 84 57 30 3 231 204 177 150 123 96 69 42 15 243 216 189 162 135 108 81 54 27 0 228 201 174 147 120 93 66 39 12 240 213 186 159 132 105 78 51 24 252 225 198 171 144 117 90 63 36 9 237 210 183 156 129 102 75 48 21 249 222 195 168 141 114 87 60 33 6 234 207 180 153 126 99 72 45 18 246 219 192 165 138 111 84 57 30 3 231 204 177 150 123 96 69 42 15 243 216 189 162 135 108 81 54 27 0 228 201 174 147 120 93 66 39 12 240 213 186 159 132 105 78 51 24 252 225 198 171 144 117 90 63 36 9 237 
0 67 134 201 13 80 147 214 26 93 160 227 39 106 173 240 52 119 186 253 65 132 199 11 78 145 212 24 91 158 225 37 104 171 238 50 117 184 251 63 130 197 9 76 143 210 22 89 156 223 35 102 169 236 48 115 182 249 61 128 195 7 74 141 208 20 87 154 221 33 100 167 234 46 113 180 247 59 126 193 5 72 139 206 18 85 152 219 31 98 165 232 44 111 178 245 57 124 191 3 70 137 204 16 83 150 217 29 96 163 230 42 109 176 243 55 122 189 1 68 135 202 14 81 148 215 27 94 161 228 40 107 174 241 53 120 187 254 66 133 200 12 79 146 213 25 92 159 226 38 105 172 239 51 118 185 252 64 131 198 10 77 144 211 23 90 157 224 36 103 170 237 49 116 183 250 62 129 196 8 75 142 209 21 88 155 222 34 101 168 235 47 114 181 248 60 127 194 6 73 
0 161 67 228 134 40 201 107 13 174 80 241 147 53 214 120 26 187 93 254 160 66 227 133 39 200 106 12 173 79 240 146 52 213 119 25 186 92 253 159 65 226 132 38 199 105 11 172 78 239 145 51 212 118 24 185 91 252 158 64 225 131 37 198 104 10 171 77 238 144 50 211 117 23 184 90 251 157 63 224 130 36 197 103 9 170 76 237 143 49 210 116 22 183 89 250 156 62 223 129 35 196 102 8 169 75 236 142 48 209 115 21 182 88 249 155 61 222 128 34 195 101 7 168 74 235 141 47 208 114 20 181 87 248 154 60 221 127 33 194 100 6 167 73 234 140 46 207 113 19 180 86 247 153 59 220 126 32 193 99 5 166 72 233 139 45 206 112 18 179 85 246 152 58 219 125 31 192 98 4 165 71 232 138 44 205 111 17 178 84 245 151 57 218 124 30 191 97 3 164 
0 0 0 0 0 0 0 0 0 0 0 0 0 0 0 0 0 0 0 0 0 0 0 0 0 0 0 0 0 0 0 0 0 0 0 0 0 0 0 0 0 0 0 0 0 0 0 0 0 0 0 0 0 0 0 0 0 0 0 0 0 0 0 0 0 0 0 0 0 0 0 0 0 0 0 0 0 0 0 0 0 0 0 0 0 0 0 0 0 0 0 0 0 0 0 0 0 0 0 0 0 0 0 0 0 0 0 0 0 0 0 0 0 0 0 0 0 0 0 0 0 0 0 0 0 0 0 0 0 0 0 0 0 0 0 0 0 0 0 0 0 0 0 0 0 0 0 0 0 0 0 0 0 0 0 0 0 0 0 0 0 0 0 0 0 0 0 0 0 0 0 0 0 0 0 0 0 0 0 0 0 0 0 0 0 0 0 0 0 0 0 0 0 0 0 0 0 0 0 0 
0 94 188 27 121 215 54 148 242 81 175 14 108 202 41 135 229 68 162 1 95 189 28 122 216 55 149 243 82 176 15 109 203 42 136 230 69 163 2 96 190 29 123 217 56 150 244 83 177 16 110 204 43 137 231 70 164 3 97 191 30 124 218 57 151 245 84 178 17 111 205 44 138 232 71 165 4 98 192 31 125 219 58 152 246 85 179 18 112 206 45 139 233 72 166 5 99 193 32 126 220 59 153 247 86 180 19 113 207 46 140 234 73 167 6 100 194 33 127 221 60 154 248 87 181 20 114 208 47 141 235 74 168 7 101 195 34 128 222 61 155 249 88 182 21 115 209 48 142 236 75 169 8 102 196 35 129 223 62 156 250 89 183 22 116 210 49 143 237 76 170 9 103 197 36 130 224 63 157 251 90 184 23 117 211 50 144 238 77 171 10 104 198 37 131 225 64 158 252 91 
0 188 121 54 242 175 108 41 229 162 95 28 216 149 82 15 203 136 69 2 190 123 56 244 177 110 43 231 164 97 30 218 151 84 17 205 138 71 4 192 125 58 246 179 112 45 233 166 99 32 220 153 86 19 207 140 73 6 194 127 60 248 181 114 47 235 168 101 34 222 155 88 21 209 142 75 8 196 129 62 250 183 116 49 237 170 103 36 224 157 90 23 211 144 77 10 198 131 64 252 185 118 51 239 172 105 38 226 159 92 25 213 146 79 12 200 133 66 254 187 120 53 241 174 107 40 228 161 94 27 215 148 81 14 202 135 68 1 189 122 55 243 176 109 42 230 163 96 29 217 150 83 16 204 137 70 3 191 124 57 245 178 111 44 232 165 98 31 219 152 85 18 206 139 72 5 193 126 59 247 180 113 46 234 167 100 33 221 154 87 20 208 141 74 7 195 128 61 249 182 
0 27 54 81 108 135 162 189 216 243 15 42 69 96 123 150 177 204 231 3 30 57 84 111 138 165 192 219 246 18 45 72 99 126 153 180 207 234 6 33 60 87 114 141 168 195 222 249 21 48 75 102 129 156 183 210 237 9 36 63 90 117 144 171 198 225 252 24 51 78 105 132 159 186 213 240 12 39 66 93 120 147 174 201 228 0 27 54 81 108 135 162 189 216 243 15 42 69 96 123 150 177 204 231 3 30 57 84 111 138 165 192 219 246 18 45 72 99 126 153 180 207 234 6 33 60 87 114 141 168 195 222 249 21 48 75 102 129 156 183 210 237 9 36 63 90 117 144 171 198 225 252 24 51 78 105 132 159 186 213 240 12 39 66 93 120 147 174 201 228 0 27 54 81 108 135 162 189 216 243 15 42 69 96 123 150 177 204 231 3 30 57 84 111 138 165 192 219 246 18 
0 121 242 108 229 95 216 82 203 69 190 56 177 43 164 30 151 17 138 4 125 246 112 233 99 220 86 207 73 194 60 181 47 168 34 155 21 142 8 129 250 116 237 103 224 90 211 77 198 64 185 51 172 38 159 25 146 12 133 254 120 241 107 228 94 215 81 202 68 189 55 176 42 163 29 150 16 137 3 124 245 111 232 98 219 85 206 72 193 59 180 46 167 33 154 20 141 7 128 249 115 236 102 223 89 210 76 197 63 184 50 171 37 158 24 145 11 132 253 119 240 106 227 93 214 80 201 67 188 54 175 41 162 28 149 15 136 2 123 244 110 231 97 218 84 205 71 192 58 179 45 166 32 153 19 140 6 127 248 114 235 101 222 88 209 75 196 62 183 49 170 36 157 23 144 10 131 252 118 239 105 226 92 213 79 200 66 187 53 174 40 161 27 148 14 135 1 122 243 109 
0 215 175 135 95 55 15 230 190 150 110 70 30 245 205 165 125 85 45 5 220 180 140 100 60 20 235 195 155 115 75 35 250 210 170 130 90 50 10 225 185 145 105 65 25 240 200 160 120 80 40 0 215 175 135 95 55 15 230 190 150 110 70 30 245 205 165 125 85 45 5 220 180 140 100 60 20 235 195 155 115 75 35 250 210 170 130 90 50 10 225 185 145 105 65 25 240 200 160 120 80 40 0 215 175 135 95 55 15 230 190 150 110 70 30 245 205 165 125 85 45 5 220 180 140 100 60 20 235 195 155 115 75 35 250 210 170 130 90 50 10 225 185 145 105 65 25 240 200 160 120 80 40 0 215 175 135 95 55 15 230 190 150 110 70 30 245 205 165 125 85 45 5 220 180 140 100 60 20 235 195 155 115 75 35 250 210 170 130 90 50 10 225 185 145 105 65 25 240 200 
0 54 108 162 216 15 69 123 177 231 30 84 138 192 246 45 99 153 207 6 60 114 168 222 21 75 129 183 237 36 90 144 198 252 51 105 159 213 12 66 120 174 228 27 81 135 189 243 42 96 150 204 3 57 111 165 219 18 72 126 180 234 33 87 141 195 249 48 102 156 210 9 63 117 171 225 24 78 132 186 240 39 93 147 201 0 54 108 162 216 15 69 123 177 231 30 84 138 192 246 45 99 153 207 6 60 114 168 222 21 75 129 183 237 36 90 144 198 252 51 105 159 213 12 66 120 174 228 27 81 135 189 243 42 96 150 204 3 57 111 165 219 18 72 126 180 234 33 87 141 195 249 48 102 156 210 9 63 117 171 225 24 78 132 186 240 39 93 147 201 0 54 108 162 216 15 69 123 177 231 30 84 138 192 246 45 99 153 207 6 60 114 168 222 21 75 129 183 237 36 
0 148 41 189 82 230 123 16 164 57 205 98 246 139 32 180 73 221 114 7 155 48 196 89 237 130 23 171 64 212 105 253 146 39 187 80 228 121 14 162 55 203 96 244 137 30 178 71 219 112 5 153 46 194 87 235 128 21 169 62 210 103 251 144 37 185 78 226 119 12 160 53 201 94 242 135 28 176 69 217 110 3 151 44 192 85 233 126 19 167 60 208 101 249 142 35 183 76 224 117 10 158 51 199 92 240 133 26 174 67 215 108 1 149 42 190 83 231 124 17 165 58 206 99 247 140 33 181 74 222 115 8 156 49 197 90 238 131 24 172 65 213 106 254 147 40 188 81 229 122 15 163 56 204 97 245 138 31 179 72 220 113 6 154 47 195 88 236 129 22 170 63 211 104 252 145 38 186 79 227 120 13 161 54 202 95 243 136 29 177 70 218 111 4 152 45 193 86 234 127 
0 242 229 216 203 190 177 164 151 138 125 112 99 86 73 60 47 34 21 8 250 237 224 211 198 185 172 159 146 133 120 107 94 81 68 55 42 29 16 3 245 232 219 206 193 180 167 154 141 128 115 102 89 76 63 50 37 24 11 253 240 227 214 201 188 175 162 149 136 123 110 97 84 71 58 45 32 19 6 248 235 222 209 196 183 170 157 144 131 118 105 92 79 66 53 40 27 14 1 243 230 217 204 191 178 165 152 139 126 113 100 87 74 61 48 35 22 9 251 238 225 212 199 186 173 160 147 134 121 108 95 82 69 56 43 30 17 4 246 233 220 207 194 181 168 155 142 129 116 103 90 77 64 51 38 25 12 254 241 228 215 202 189 176 163 150 137 124 111 98 85 72 59 46 33 20 7 249 236 223 210 197 184 171 158 145 132 119 106 93 80 67 54 41 28 15 2 244 231 218 
0 81 162 243 69 150 231 57 138 219 45 126 207 33 114 195 21 102 183 9 90 171 252 78 159 240 66 147 228 54 135 216 42 123 204 30 111 192 18 99 180 6 87 168 249 75 156 237 63 144 225 51 132 213 39 120 201 27 108 189 15 96 177 3 84 165 246 72 153 234 60 141 222 48 129 210 36 117 198 24 105 186 12 93 174 0 81 162 243 69 150 231 57 138 219 45 126 207 33 114 195 21 102 183 9 90 171 252 78 159 240 66 147 228 54 135 216 42 123 204 30 111 192 18 99 180 6 87 168 249 75 156 237 63 144 225 51 132 213 39 120 201 27 108 189 15 96 177 3 84 165 246 72 153 234 60 141 222 48 129 210 36 117 198 24 105 186 12 93 174 0 81 162 243 69 150 231 57 138 219 45 126 207 33 114 195 21 102 183 9 90 171 252 78 159 240 66 147 228 54 
0 175 95 15 190 110 30 205 125 45 220 140 60 235 155 75 250 170 90 10 185 105 25 200 120 40 215 135 55 230 150 70 245 165 85 5 180 100 20 195 115 35 210 130 50 225 145 65 240 160 80 0 175 95 15 190 110 30 205 125 45 220 140 60 235 155 75 250 170 90 10 185 105 25 200 120 40 215 135 55 230 150 70 245 165 85 5 180 100 20 195 115 35 210 130 50 225 145 65 240 160 80 0 175 95 15 190 110 30 205 125 45 220 140 60 235 155 75 250 170 90 10 185 105 25 200 120 40 215 135 55 230 150 70 245 165 85 5 180 100 20 195 115 35 210 130 50 225 145 65 240 160 80 0 175 95 15 190 110 30 205 125 45 220 140 60 235 155 75 250 170 90 10 185 105 25 200 120 40 215 135 55 230 150 70 245 165 85 5 180 100 20 195 115 35 210 130 50 225 145 
0 14 28 42 56 70 84 98 112 126 140 154 168 182 196 210 224 238 252 11 25 39 53 67 81 95 109 123 137 151 165 179 193 207 221 235 249 8 22 36 50 64 78 92 106 120 134 148 162 176 190 204 218 232 246 5 19 33 47 61 75 89 103 117 131 145 159 173 187 201 215 229 243 2 16 30 44 58 72 86 100 114 128 142 156 170 184 198 212 226 240 254 13 27 41 55 69 83 97 111 125 139 153 167 181 195 209 223 237 251 10 24 38 52 66 80 94 108 122 136 150 164 178 192 206 220 234 248 7 21 35 49 63 77 91 105 119 133 147 161 175 189 203 217 231 245 4 18 32 46 60 74 88 102 116 130 144 158 172 186 200 214 228 242 1 15 29 43 57 71 85 99 113 127 141 155 169 183 197 211 225 239 253 12 26 40 54 68 82 96 110 124 138 152 166 180 194 208 222 236 
0 108 216 69 177 30 138 246 99 207 60 168 21 129 237 90 198 51 159 12 120 228 81 189 42 150 3 111 219 72 180 33 141 249 102 210 63 171 24 132 240 93 201 54 162 15 123 231 84 192 45 153 6 114 222 75 183 36 144 252 105 213 66 174 27 135 243 96 204 57 165 18 126 234 87 195 48 156 9 117 225 78 186 39 147 0 108 216 69 177 30 138 246 99 207 60 168 21 129 237 90 198 51 159 12 120 228 81 189 42 150 3 111 219 72 180 33 141 249 102 210 63 171 24 132 240 93 201 54 162 15 123 231 84 192 45 153 6 114 222 75 183 36 144 252 105 213 66 174 27 135 243 96 204 57 165 18 126 234 87 195 48 156 9 117 225 78 186 39 147 0 108 216 69 177 30 138 246 99 207 60 168 21 129 237 90 198 51 159 12 120 228 81 189 42 150 3 111 219 72 
0 202 149 96 43 245 192 139 86 33 235 182 129 76 23 225 172 119 66 13 215 162 109 56 3 205 152 99 46 248 195 142 89 36 238 185 132 79 26 228 175 122 69 16 218 165 112 59 6 208 155 102 49 251 198 145 92 39 241 188 135 82 29 231 178 125 72 19 221 168 115 62 9 211 158 105 52 254 201 148 95 42 244 191 138 85 32 234 181 128 75 22 224 171 118 65 12 214 161 108 55 2 204 151 98 45 247 194 141 88 35 237 184 131 78 25 227 174 121 68 15 217 164 111 58 5 207 154 101 48 250 197 144 91 38 240 187 134 81 28 230 177 124 71 18 220 167 114 61 8 210 157 104 51 253 200 147 94 41 243 190 137 84 31 233 180 127 74 21 223 170 117 64 11 213 160 107 54 1 203 150 97 44 246 193 140 87 34 236 183 130 77 24 226 173 120 67 14 216 163 
0 41 82 123 164 205 246 32 73 114 155 196 237 23 64 105 146 187 228 14 55 96 137 178 219 5 46 87 128 169 210 251 37 78 119 160 201 242 28 69 110 151 192 233 19 60 101 142 183 224 10 51 92 133 174 215 1 42 83 124 165 206 247 33 74 115 156 197 238 24 65 106 147 188 229 15 56 97 138 179 220 6 47 88 129 170 211 252 38 79 120 161 202 243 29 70 111 152 193 234 20 61 102 143 184 225 11 52 93 134 175 216 2 43 84 125 166 207 248 34 75 116 157 198 239 25 66 107 148 189 230 16 57 98 139 180 221 7 48 89 130 171 212 253 39 80 121 162 203 244 30 71 112 153 194 235 21 62 103 144 185 226 12 53 94 135 176 217 3 44 85 126 167 208 249 35 76 117 158 199 240 26 67 108 149 190 231 17 58 99 140 181 222 8 49 90 131 172 213 254 
0 135 15 150 30 165 45 180 60 195 75 210 90 225 105 240 120 0 135 15 150 30 165 45 180 60 195 75 210 90 225 105 240 120 0 135 15 150 30 165 45 180 60 195 75 210 90 225 105 240 120 0 135 15 150 30 165 45 180 60 195 75 210 90 225 105 240 120 0 135 15 150 30 165 45 180 60 195 75 210 90 225 105 240 120 0 135 15 150 30 165 45 180 60 195 75 210 90 225 105 240 120 0 135 15 150 30 165 45 180 60 195 75 210 90 225 105 240 120 0 135 15 150 30 165 45 180 60 195 75 210 90 225 105 240 120 0 135 15 150 30 165 45 180 60 195 75 210 90 225 105 240 120 0 135 15 150 30 165 45 180 60 195 75 210 90 225 105 240 120 0 135 15 150 30 165 45 180 60 195 75 210 90 225 105 240 120 0 135 15 150 30 165 45 180 60 195 75 210 90 
0 229 203 177 151 125 99 73 47 21 250 224 198 172 146 120 94 68 42 16 245 219 193 167 141 115 89 63 37 11 240 214 188 162 136 110 84 58 32 6 235 209 183 157 131 105 79 53 27 1 230 204 178 152 126 100 74 48 22 251 225 199 173 147 121 95 69 43 17 246 220 194 168 142 116 90 64 38 12 241 215 189 163 137 111 85 59 33 7 236 210 184 158 132 106 80 54 28 2 231 205 179 153 127 101 75 49 23 252 226 200 174 148 122 96 70 44 18 247 221 195 169 143 117 91 65 39 13 242 216 190 164 138 112 86 60 34 8 237 211 185 159 133 107 81 55 29 3 232 206 180 154 128 102 76 50 24 253 227 201 175 149 123 97 71 45 19 248 222 196 170 144 118 92 66 40 14 243 217 191 165 139 113 87 61 35 9 238 212 186 160 134 108 82 56 30 4 233 207 181 
0 68 136 204 17 85 153 221 34 102 170 238 51 119 187 0 68 136 204 17 85 153 221 34 102 170 238 51 119 187 0 68 136 204 17 85 153 221 34 102 170 238 51 119 187 0 68 136 204 17 85 153 221 34 102 170 238 51 119 187 0 68 136 204 17 85 153 221 34 102 170 238 51 119 187 0 68 136 204 17 85 153 221 34 102 170 238 51 119 187 0 68 136 204 17 85 153 221 34 102 170 238 51 119 187 0 68 136 204 17 85 153 221 34 102 170 238 51 119 187 0 68 136 204 17 85 153 221 34 102 170 238 51 119 187 0 68 136 204 17 85 153 221 34 102 170 238 51 119 187 0 68 136 204 17 85 153 221 34 102 170 238 51 119 187 0 68 136 204 17 85 153 221 34 102 170 238 51 119 187 0 68 136 204 17 85 153 221 34 102 170 238 51 119 187 0 68 136 204 17 
0 162 69 231 138 45 207 114 21 183 90 252 159 66 228 135 42 204 111 18 180 87 249 156 63 225 132 39 201 108 15 177 84 246 153 60 222 129 36 198 105 12 174 81 243 150 57 219 126 33 195 102 9 171 78 240 147 54 216 123 30 192 99 6 168 75 237 144 51 213 120 27 189 96 3 165 72 234 141 48 210 117 24 186 93 0 162 69 231 138 45 207 114 21 183 90 252 159 66 228 135 42 204 111 18 180 87 249 156 63 225 132 39 201 108 15 177 84 246 153 60 222 129 36 198 105 12 174 81 243 150 57 219 126 33 195 102 9 171 78 240 147 54 216 123 30 192 99 6 168 75 237 144 51 213 120 27 189 96 3 165 72 234 141 48 210 117 24 186 93 0 162 69 231 138 45 207 114 21 183 90 252 159 66 228 135 42 204 111 18 180 87 249 156 63 225 132 39 201 108 
0 1 2 3 4 5 6 7 8 9 10 11 12 13 14 15 16 17 18 19 20 21 22 23 24 25 26 27 28 29 30 31 32 33 34 35 36 37 38 39 40 41 42 43 44 45 46 47 48 49 50 51 52 53 54 55 56 57 58 59 60 61 62 63 64 65 66 67 68 69 70 71 72 73 74 75 76 77 78 79 80 81 82 83 84 85 86 87 88 89 90 91 92 93 94 95 96 97 98 99 100 101 102 103 104 105 106 107 108 109 110 111 112 113 114 115 116 117 118 119 120 121 122 123 124 125 126 127 128 129 130 131 132 133 134 135 136 137 138 139 140 141 142 143 144 145 146 147 148 149 150 151 152 153 154 155 156 157 158 159 160 161 162 163 164 165 166 167 168 169 170 171 172 173 174 175 176 177 178 179 180 181 182 183 184 185 186 187 188 189 190 191 192 193 194 195 196 197 198 199 
0 95 190 30 125 220 60 155 250 90 185 25 120 215 55 150 245 85 180 20 115 210 50 145 240 80 175 15 110 205 45 140 235 75 170 10 105 200 40 135 230 70 165 5 100 195 35 130 225 65 160 0 95 190 30 125 220 60 155 250 90 185 25 120 215 55 150 245 85 180 20 115 210 50 145 240 80 175 15 110 205 45 140 235 75 170 10 105 200 40 135 230 70 165 5 100 195 35 130 225 65 160 0 95 190 30 125 220 60 155 250 90 185 25 120 215 55 150 245 85 180 20 115 210 50 145 240 80 175 15 110 205 45 140 235 75 170 10 105 200 40 135 230 70 165 5 100 195 35 130 225 65 160 0 95 190 30 125 220 60 155 250 90 185 25 120 215 55 150 245 85 180 20 115 210 50 145 240 80 175 15 110 205 45 140 235 75 170 10 105 200 40 135 230 70 165 5 100 195 35 
0 189 123 57 246 180 114 48 237 171 105 39 228 162 96 30 219 153 87 21 210 144 78 12 201 135 69 3 192 126 60 249 183 117 51 240 174 108 42 231 165 99 33 222 156 90 24 213 147 81 15 204 138 72 6 195 129 63 252 186 120 54 243 177 111 45 234 168 102 36 225 159 93 27 216 150 84 18 207 141 75 9 198 132 66 0 189 123 57 246 180 114 48 237 171 105 39 228 162 96 30 219 153 87 21 210 144 78 12 201 135 69 3 192 126 60 249 183 117 51 240 174 108 42 231 165 99 33 222 156 90 24 213 147 81 15 204 138 72 6 195 129 63 252 186 120 54 243 177 111 45 234 168 102 36 225 159 93 27 216 150 84 18 207 141 75 9 198 132 66 0 189 123 57 246 180 114 48 237 171 105 39 228 162 96 30 219 153 87 21 210 144 78 12 201 135 69 3 192 126 
0 28 56 84 112 140 168 196 224 252 25 53 81 109 137 165 193 221 249 22 50 78 106 134 162 190 218 246 19 47 75 103 131 159 187 215 243 16 44 72 100 128 156 184 212 240 13 41 69 97 125 153 181 209 237 10 38 66 94 122 150 178 206 234 7 35 63 91 119 147 175 203 231 4 32 60 88 116 144 172 200 228 1 29 57 85 113 141 169 197 225 253 26 54 82 110 138 166 194 222 250 23 51 79 107 135 163 191 219 247 20 48 76 104 132 160 188 216 244 17 45 73 101 129 157 185 213 241 14 42 70 98 126 154 182 210 238 11 39 67 95 123 151 179 207 235 8 36 64 92 120 148 176 204 232 5 33 61 89 117 145 173 201 229 2 30 58 86 114 142 170 198 226 254 27 55 83 111 139 167 195 223 251 24 52 80 108 136 164 192 220 248 21 49 77 105 133 161 189 217 
0 122 244 111 233 100 222 89 211 78 200 67 189 56 178 45 167 34 156 23 145 12 134 1 123 245 112 234 101 223 90 212 79 201 68 190 57 179 46 168 35 157 24 146 13 135 2 124 246 113 235 102 224 91 213 80 202 69 191 58 180 47 169 36 158 25 147 14 136 3 125 247 114 236 103 225 92 214 81 203 70 192 59 181 48 170 37 159 26 148 15 137 4 126 248 115 237 104 226 93 215 82 204 71 193 60 182 49 171 38 160 27 149 16 138 5 127 249 116 238 105 227 94 216 83 205 72 194 61 183 50 172 39 161 28 150 17 139 6 128 250 117 239 106 228 95 217 84 206 73 195 62 184 51 173 40 162 29 151 18 140 7 129 251 118 240 107 229 96 218 85 207 74 196 63 185 52 174 41 163 30 152 19 141 8 130 252 119 241 108 230 97 219 86 208 75 197 64 186 53 
0 216 177 138 99 60 21 237 198 159 120 81 42 3 219 180 141 102 63 24 240 201 162 123 84 45 6 222 183 144 105 66 27 243 204 165 126 87 48 9 225 186 147 108 69 30 246 207 168 129 90 51 12 228 189 150 111 72 33 249 210 171 132 93 54 15 231 192 153 114 75 36 252 213 174 135 96 57 18 234 195 156 117 78 39 0 216 177 138 99 60 21 237 198 159 120 81 42 3 219 180 141 102 63 24 240 201 162 123 84 45 6 222 183 144 105 66 27 243 204 165 126 87 48 9 225 186 147 108 69 30 246 207 168 129 90 51 12 228 189 150 111 72 33 249 210 171 132 93 54 15 231 192 153 114 75 36 252 213 174 135 96 57 18 234 195 156 117 78 39 0 216 177 138 99 60 21 237 198 159 120 81 42 3 219 180 141 102 63 24 240 201 162 123 84 45 6 222 183 144 
0 55 110 165 220 20 75 130 185 240 40 95 150 205 5 60 115 170 225 25 80 135 190 245 45 100 155 210 10 65 120 175 230 30 85 140 195 250 50 105 160 215 15 70 125 180 235 35 90 145 200 0 55 110 165 220 20 75 130 185 240 40 95 150 205 5 60 115 170 225 25 80 135 190 245 45 100 155 210 10 65 120 175 230 30 85 140 195 250 50 105 160 215 15 70 125 180 235 35 90 145 200 0 55 110 165 220 20 75 130 185 240 40 95 150 205 5 60 115 170 225 25 80 135 190 245 45 100 155 210 10 65 120 175 230 30 85 140 195 250 50 105 160 215 15 70 125 180 235 35 90 145 200 0 55 110 165 220 20 75 130 185 240 40 95 150 205 5 60 115 170 225 25 80 135 190 245 45 100 155 210 10 65 120 175 230 30 85 140 195 250 50 105 160 215 15 70 125 180 235 
0 149 43 192 86 235 129 23 172 66 215 109 3 152 46 195 89 238 132 26 175 69 218 112 6 155 49 198 92 241 135 29 178 72 221 115 9 158 52 201 95 244 138 32 181 75 224 118 12 161 55 204 98 247 141 35 184 78 227 121 15 164 58 207 101 250 144 38 187 81 230 124 18 167 61 210 104 253 147 41 190 84 233 127 21 170 64 213 107 1 150 44 193 87 236 130 24 173 67 216 110 4 153 47 196 90 239 133 27 176 70 219 113 7 156 50 199 93 242 136 30 179 73 222 116 10 159 53 202 96 245 139 33 182 76 225 119 13 162 56 205 99 248 142 36 185 79 228 122 16 165 59 208 102 251 145 39 188 82 231 125 19 168 62 211 105 254 148 42 191 85 234 128 22 171 65 214 108 2 151 45 194 88 237 131 25 174 68 217 111 5 154 48 197 91 240 134 28 177 71 
0 243 231 219 207 195 183 171 159 147 135 123 111 99 87 75 63 51 39 27 15 3 246 234 222 210 198 186 174 162 150 138 126 114 102 90 78 66 54 42 30 18 6 249 237 225 213 201 189 177 165 153 141 129 117 105 93 81 69 57 45 33 21 9 252 240 228 216 204 192 180 168 156 144 132 120 108 96 84 72 60 48 36 24 12 0 243 231 219 207 195 183 171 159 147 135 123 111 99 87 75 63 51 39 27 15 3 246 234 222 210 198 186 174 162 150 138 126 114 102 90 78 66 54 42 30 18 6 249 237 225 213 201 189 177 165 153 141 129 117 105 93 81 69 57 45 33 21 9 252 240 228 216 204 192 180 168 156 144 132 120 108 96 84 72 60 48 36 24 12 0 243 231 219 207 195 183 171 159 147 135 123 111 99 87 75 63 51 39 27 15 3 246 234 222 210 198 186 174 162 
0 82 164 246 73 155 237 64 146 228 55 137 219 46 128 210 37 119 201 28 110 192 19 101 183 10 92 174 1 83 165 247 74 156 238 65 147 229 56 138 220 47 129 211 38 120 202 29 111 193 20 102 184 11 93 175 2 84 166 248 75 157 239 66 148 230 57 139 221 48 130 212 39 121 203 30 112 194 21 103 185 12 94 176 3 85 167 249 76 158 240 67 149 231 58 140 222 49 131 213 40 122 204 31 113 195 22 104 186 13 95 177 4 86 168 250 77 159 241 68 150 232 59 141 223 50 132 214 41 123 205 32 114 196 23 105 187 14 96 178 5 87 169 251 78 160 242 69 151 233 60 142 224 51 133 215 42 124 206 33 115 197 24 106 188 15 97 179 6 88 170 252 79 161 243 70 152 234 61 143 225 52 134 216 43 125 207 34 116 198 25 107 189 16 98 180 7 89 171 253 
0 176 97 18 194 115 36 212 133 54 230 151 72 248 169 90 11 187 108 29 205 126 47 223 144 65 241 162 83 4 180 101 22 198 119 40 216 137 58 234 155 76 252 173 94 15 191 112 33 209 130 51 227 148 69 245 166 87 8 184 105 26 202 123 44 220 141 62 238 159 80 1 177 98 19 195 116 37 213 134 55 231 152 73 249 170 91 12 188 109 30 206 127 48 224 145 66 242 163 84 5 181 102 23 199 120 41 217 138 59 235 156 77 253 174 95 16 192 113 34 210 131 52 228 149 70 246 167 88 9 185 106 27 203 124 45 221 142 63 239 160 81 2 178 99 20 196 117 38 214 135 56 232 153 74 250 171 92 13 189 110 31 207 128 49 225 146 67 243 164 85 6 182 103 24 200 121 42 218 139 60 236 157 78 254 175 96 17 193 114 35 211 132 53 229 150 71 247 168 89 
0 15 30 45 60 75 90 105 120 135 150 165 180 195 210 225 240 0 15 30 45 60 75 90 105 120 135 150 165 180 195 210 225 240 0 15 30 45 60 75 90 105 120 135 150 165 180 195 210 225 240 0 15 30 45 60 75 90 105 120 135 150 165 180 195 210 225 240 0 15 30 45 60 75 90 105 120 135 150 165 180 195 210 225 240 0 15 30 45 60 75 90 105 120 135 150 165 180 195 210 225 240 0 15 30 45 60 75 90 105 120 135 150 165 180 195 210 225 240 0 15 30 45 60 75 90 105 120 135 150 165 180 195 210 225 240 0 15 30 45 60 75 90 105 120 135 150 165 180 195 210 225 240 0 15 30 45 60 75 90 105 120 135 150 165 180 195 210 225 240 0 15 30 45 60 75 90 105 120 135 150 165 180 195 210 225 240 0 15 30 45 60 75 90 105 120 135 150 165 180 
0 109 218 72 181 35 144 253 107 216 70 179 33 142 251 105 214 68 177 31 140 249 103 212 66 175 29 138 247 101 210 64 173 27 136 245 99 208 62 171 25 134 243 97 206 60 169 23 132 241 95 204 58 167 21 130 239 93 202 56 165 19 128 237 91 200 54 163 17 126 235 89 198 52 161 15 124 233 87 196 50 159 13 122 231 85 194 48 157 11 120 229 83 192 46 155 9 118 227 81 190 44 153 7 116 225 79 188 42 151 5 114 223 77 186 40 149 3 112 221 75 184 38 147 1 110 219 73 182 36 145 254 108 217 71 180 34 143 252 106 215 69 178 32 141 250 104 213 67 176 30 139 248 102 211 65 174 28 137 246 100 209 63 172 26 135 244 98 207 61 170 24 133 242 96 205 59 168 22 131 240 94 203 57 166 20 129 238 92 201 55 164 18 127 236 90 199 53 162 16 
0 203 151 99 47 250 198 146 94 42 245 193 141 89 37 240 188 136 84 32 235 183 131 79 27 230 178 126 74 22 225 173 121 69 17 220 168 116 64 12 215 163 111 59 7 210 158 106 54 2 205 153 101 49 252 200 148 96 44 247 195 143 91 39 242 190 138 86 34 237 185 133 81 29 232 180 128 76 24 227 175 123 71 19 222 170 118 66 14 217 165 113 61 9 212 160 108 56 4 207 155 103 51 254 202 150 98 46 249 197 145 93 41 244 192 140 88 36 239 187 135 83 31 234 182 130 78 26 229 177 125 73 21 224 172 120 68 16 219 167 115 63 11 214 162 110 58 6 209 157 105 53 1 204 152 100 48 251 199 147 95 43 246 194 142 90 38 241 189 137 85 33 236 184 132 80 28 231 179 127 75 23 226 174 122 70 18 221 169 117 65 13 216 164 112 60 8 211 159 107 
0 42 84 126 168 210 252 39 81 123 165 207 249 36 78 120 162 204 246 33 75 117 159 201 243 30 72 114 156 198 240 27 69 111 153 195 237 24 66 108 150 192 234 21 63 105 147 189 231 18 60 102 144 186 228 15 57 99 141 183 225 12 54 96 138 180 222 9 51 93 135 177 219 6 48 90 132 174 216 3 45 87 129 171 213 0 42 84 126 168 210 252 39 81 123 165 207 249 36 78 120 162 204 246 33 75 117 159 201 243 30 72 114 156 198 240 27 69 111 153 195 237 24 66 108 150 192 234 21 63 105 147 189 231 18 60 102 144 186 228 15 57 99 141 183 225 12 54 96 138 180 222 9 51 93 135 177 219 6 48 90 132 174 216 3 45 87 129 171 213 0 42 84 126 168 210 252 39 81 123 165 207 249 36 78 120 162 204 246 33 75 117 159 201 243 30 72 114 156 198 
0 136 17 153 34 170 51 187 68 204 85 221 102 238 119 0 136 17 153 34 170 51 187 68 204 85 221 102 238 119 0 136 17 153 34 170 51 187 68 204 85 221 102 238 119 0 136 17 153 34 170 51 187 68 204 85 221 102 238 119 0 136 17 153 34 170 51 187 68 204 85 221 102 238 119 0 136 17 153 34 170 51 187 68 204 85 221 102 238 119 0 136 17 153 34 170 51 187 68 204 85 221 102 238 119 0 136 17 153 34 170 51 187 68 204 85 221 102 238 119 0 136 17 153 34 170 51 187 68 204 85 221 102 238 119 0 136 17 153 34 170 51 187 68 204 85 221 102 238 119 0 136 17 153 34 170 51 187 68 204 85 221 102 238 119 0 136 17 153 34 170 51 187 68 204 85 221 102 238 119 0 136 17 153 34 170 51 187 68 204 85 221 102 238 119 0 136 17 153 34 
0 230 205 180 155 130 105 80 55 30 5 235 210 185 160 135 110 85 60 35 10 240 215 190 165 140 115 90 65 40 15 245 220 195 170 145 120 95 70 45 20 250 225 200 175 150 125 100 75 50 25 0 230 205 180 155 130 105 80 55 30 5 235 210 185 160 135 110 85 60 35 10 240 215 190 165 140 115 90 65 40 15 245 220 195 170 145 120 95 70 45 20 250 225 200 175 150 125 100 75 50 25 0 230 205 180 155 130 105 80 55 30 5 235 210 185 160 135 110 85 60 35 10 240 215 190 165 140 115 90 65 40 15 245 220 195 170 145 120 95 70 45 20 250 225 200 175 150 125 100 75 50 25 0 230 205 180 155 130 105 80 55 30 5 235 210 185 160 135 110 85 60 35 10 240 215 190 165 140 115 90 65 40 15 245 220 195 170 145 120 95 70 45 20 250 225 200 175 150 125 
0 69 138 207 21 90 159 228 42 111 180 249 63 132 201 15 84 153 222 36 105 174 243 57 126 195 9 78 147 216 30 99 168 237 51 120 189 3 72 141 210 24 93 162 231 45 114 183 252 66 135 204 18 87 156 225 39 108 177 246 60 129 198 12 81 150 219 33 102 171 240 54 123 192 6 75 144 213 27 96 165 234 48 117 186 0 69 138 207 21 90 159 228 42 111 180 249 63 132 201 15 84 153 222 36 105 174 243 57 126 195 9 78 147 216 30 99 168 237 51 120 189 3 72 141 210 24 93 162 231 45 114 183 252 66 135 204 18 87 156 225 39 108 177 246 60 129 198 12 81 150 219 33 102 171 240 54 123 192 6 75 144 213 27 96 165 234 48 117 186 0 69 138 207 21 90 159 228 42 111 180 249 63 132 201 15 84 153 222 36 105 174 243 57 126 195 9 78 147 216 
0 163 71 234 142 50 213 121 29 192 100 8 171 79 242 150 58 221 129 37 200 108 16 179 87 250 158 66 229 137 45 208 116 24 187 95 3 166 74 237 145 53 216 124 32 195 103 11 174 82 245 153 61 224 132 40 203 111 19 182 90 253 161 69 232 140 48 211 119 27 190 98 6 169 77 240 148 56 219 127 35 198 106 14 177 85 248 156 64 227 135 43 206 114 22 185 93 1 164 72 235 143 51 214 122 30 193 101 9 172 80 243 151 59 222 130 38 201 109 17 180 88 251 159 67 230 138 46 209 117 25 188 96 4 167 75 238 146 54 217 125 33 196 104 12 175 83 246 154 62 225 133 41 204 112 20 183 91 254 162 70 233 141 49 212 120 28 191 99 7 170 78 241 149 57 220 128 36 199 107 15 178 86 249 157 65 228 136 44 207 115 23 186 94 2 165 73 236 144 52 
0 2 4 6 8 10 12 14 16 18 20 22 24 26 28 30 32 34 36 38 40 42 44 46 48 50 52 54 56 58 60 62 64 66 68 70 72 74 76 78 80 82 84 86 88 90 92 94 96 98 100 102 104 106 108 110 112 114 116 118 120 122 124 126 128 130 132 134 136 138 140 142 144 146 148 150 152 154 156 158 160 162 164 166 168 170 172 174 176 178 180 182 184 186 188 190 192 194 196 198 200 202 204 206 208 210 212 214 216 218 220 222 224 226 228 230 232 234 236 238 240 242 244 246 248 250 252 254 1 3 5 7 9 11 13 15 17 19 21 23 25 27 29 31 33 35 37 39 41 43 45 47 49 51 53 55 57 59 61 63 65 67 69 71 73 75 77 79 81 83 85 87 89 91 93 95 97 99 101 103 105 107 109 111 113 115 117 119 121 123 125 127 129 131 133 135 137 139 141 143 
0 96 192 33 129 225 66 162 3 99 195 36 132 228 69 165 6 102 198 39 135 231 72 168 9 105 201 42 138 234 75 171 12 108 204 45 141 237 78 174 15 111 207 48 144 240 81 177 18 114 210 51 147 243 84 180 21 117 213 54 150 246 87 183 24 120 216 57 153 249 90 186 27 123 219 60 156 252 93 189 30 126 222 63 159 0 96 192 33 129 225 66 162 3 99 195 36 132 228 69 165 6 102 198 39 135 231 72 168 9 105 201 42 138 234 75 171 12 108 204 45 141 237 78 174 15 111 207 48 144 240 81 177 18 114 210 51 147 243 84 180 21 117 213 54 150 246 87 183 24 120 216 57 153 249 90 186 27 123 219 60 156 252 93 189 30 126 222 63 159 0 96 192 33 129 225 66 162 3 99 195 36 132 228 69 165 6 102 198 39 135 231 72 168 9 105 201 42 138 234 
0 190 125 60 250 185 120 55 245 180 115 50 240 175 110 45 235 170 105 40 230 165 100 35 225 160 95 30 220 155 90 25 215 150 85 20 210 145 80 15 205 140 75 10 200 135 70 5 195 130 65 0 190 125 60 250 185 120 55 245 180 115 50 240 175 110 45 235 170 105 40 230 165 100 35 225 160 95 30 220 155 90 25 215 150 85 20 210 145 80 15 205 140 75 10 200 135 70 5 195 130 65 0 190 125 60 250 185 120 55 245 180 115 50 240 175 110 45 235 170 105 40 230 165 100 35 225 160 95 30 220 155 90 25 215 150 85 20 210 145 80 15 205 140 75 10 200 135 70 5 195 130 65 0 190 125 60 250 185 120 55 245 180 115 50 240 175 110 45 235 170 105 40 230 165 100 35 225 160 95 30 220 155 90 25 215 150 85 20 210 145 80 15 205 140 75 10 200 135 70 
0 29 58 87 116 145 174 203 232 6 35 64 93 122 151 180 209 238 12 41 70 99 128 157 186 215 244 18 47 76 105 134 163 192 221 250 24 53 82 111 140 169 198 227 1 30 59 88 117 146 175 204 233 7 36 65 94 123 152 181 210 239 13 42 71 100 129 158 187 216 245 19 48 77 106 135 164 193 222 251 25 54 83 112 141 170 199 228 2 31 60 89 118 147 176 205 234 8 37 66 95 124 153 182 211 240 14 43 72 101 130 159 188 217 246 20 49 78 107 136 165 194 223 252 26 55 84 113 142 171 200 229 3 32 61 90 119 148 177 206 235 9 38 67 96 125 154 183 212 241 15 44 73 102 131 160 189 218 247 21 50 79 108 137 166 195 224 253 27 56 85 114 143 172 201 230 4 33 62 91 120 149 178 207 236 10 39 68 97 126 155 184 213 242 16 45 74 103 132 161 
0 123 246 114 237 105 228 96 219 87 210 78 201 69 192 60 183 51 174 42 165 33 156 24 147 15 138 6 129 252 120 243 111 234 102 225 93 216 84 207 75 198 66 189 57 180 48 171 39 162 30 153 21 144 12 135 3 126 249 117 240 108 231 99 222 90 213 81 204 72 195 63 186 54 177 45 168 36 159 27 150 18 141 9 132 0 123 246 114 237 105 228 96 219 87 210 78 201 69 192 60 183 51 174 42 165 33 156 24 147 15 138 6 129 252 120 243 111 234 102 225 93 216 84 207 75 198 66 189 57 180 48 171 39 162 30 153 21 144 12 135 3 126 249 117 240 108 231 99 222 90 213 81 204 72 195 63 186 54 177 45 168 36 159 27 150 18 141 9 132 0 123 246 114 237 105 228 96 219 87 210 78 201 69 192 60 183 51 174 42 165 33 156 24 147 15 138 6 129 252 
0 217 179 141 103 65 27 244 206 168 130 92 54 16 233 195 157 119 81 43 5 222 184 146 108 70 32 249 211 173 135 97 59 21 238 200 162 124 86 48 10 227 189 151 113 75 37 254 216 178 140 102 64 26 243 205 167 129 91 53 15 232 194 156 118 80 42 4 221 183 145 107 69 31 248 210 172 134 96 58 20 237 199 161 123 85 47 9 226 188 150 112 74 36 253 215 177 139 101 63 25 242 204 166 128 90 52 14 231 193 155 117 79 41 3 220 182 144 106 68 30 247 209 171 133 95 57 19 236 198 160 122 84 46 8 225 187 149 111 73 35 252 214 176 138 100 62 24 241 203 165 127 89 51 13 230 192 154 116 78 40 2 219 181 143 105 67 29 246 208 170 132 94 56 18 235 197 159 121 83 45 7 224 186 148 110 72 34 251 213 175 137 99 61 23 240 202 164 126 88 
0 56 112 168 224 25 81 137 193 249 50 106 162 218 19 75 131 187 243 44 100 156 212 13 69 125 181 237 38 94 150 206 7 63 119 175 231 32 88 144 200 1 57 113 169 225 26 82 138 194 250 51 107 163 219 20 76 132 188 244 45 101 157 213 14 70 126 182 238 39 95 151 207 8 64 120 176 232 33 89 145 201 2 58 114 170 226 27 83 139 195 251 52 108 164 220 21 77 133 189 245 46 102 158 214 15 71 127 183 239 40 96 152 208 9 65 121 177 233 34 90 146 202 3 59 115 171 227 28 84 140 196 252 53 109 165 221 22 78 134 190 246 47 103 159 215 16 72 128 184 240 41 97 153 209 10 66 122 178 234 35 91 147 203 4 60 116 172 228 29 85 141 197 253 54 110 166 222 23 79 135 191 247 48 104 160 216 17 73 129 185 241 42 98 154 210 11 67 123 179 
